(Generated for golf ball plotter)
(Units are angular degrees. X=-180..180 ball rotation, Y=-45..45 arm tilt)
G21
G90
M3 S575
G4 P0.030
(Travel to fill-infill path 1)
G1 X8.9390 Y9.0975 F3000.000
M3 S700
G4 P0.060
(PATH_START id=fill-infill_001 kind=fill-infill space=machine_deg source=component_unknown points=129 max_surface_segment_mm=0.2313)
(fill-infill path 1, 129 points)
G1 X8.4560 Y9.4843 F1200.000
G1 X7.9724 Y9.8711
G1 X7.4879 Y10.2579
G1 X7.0026 Y10.6446
G1 X6.4468 Y10.9292
G1 X5.8901 Y11.2137
G1 X5.3325 Y11.4982
G1 X4.7738 Y11.7827
G1 X4.1664 Y11.9541
G1 X3.5583 Y12.1254
G1 X2.9495 Y12.2967
G1 X2.3399 Y12.4680
G1 X1.7062 Y12.5196
G1 X1.0723 Y12.5711
G1 X0.4381 Y12.6227
G1 X-0.1964 Y12.6742
G1 X-0.8288 Y12.6040
G1 X-1.4609 Y12.5337
G1 X-2.0926 Y12.4635
G1 X-2.7240 Y12.3933
G1 X-3.3274 Y12.2040
G1 X-3.9299 Y12.0147
G1 X-4.5317 Y11.8254
G1 X-5.1327 Y11.6361
G1 X-5.6814 Y11.3350
G1 X-6.2291 Y11.0339
G1 X-6.7759 Y10.7329
G1 X-7.3217 Y10.4318
G1 X-7.7940 Y10.0305
G1 X-8.2655 Y9.6292
G1 X-8.7363 Y9.2279
G1 X-9.2065 Y8.8265
G1 X-9.5857 Y8.3404
G1 X-9.9645 Y7.8543
G1 X-10.3433 Y7.3682
G1 X-10.7219 Y6.8821
G1 X-10.9962 Y6.3299
G1 X-11.2710 Y5.7777
G1 X-11.5462 Y5.2254
G1 X-11.8220 Y4.6732
G1 X-11.9844 Y4.0761
G1 X-12.1478 Y3.4790
G1 X-12.3123 Y2.8818
G1 X-12.4780 Y2.2847
G1 X-12.5249 Y1.6656
G1 X-12.5732 Y1.0466
G1 X-12.6230 Y0.4275
G1 X-12.6743 Y-0.1916
G1 X-12.6052 Y-0.8088
G1 X-12.5376 Y-1.4260
G1 X-12.4714 Y-2.0433
G1 X-12.4067 Y-2.6605
G1 X-12.2237 Y-3.2522
G1 X-12.0418 Y-3.8439
G1 X-11.8609 Y-4.4355
G1 X-11.6811 Y-5.0272
G1 X-11.3888 Y-5.5706
G1 X-11.0971 Y-6.1140
G1 X-10.8057 Y-6.6573
G1 X-10.5147 Y-7.2007
G1 X-10.1211 Y-7.6749
G1 X-9.7274 Y-8.1491
G1 X-9.3334 Y-8.6233
G1 X-8.9390 Y-9.0975
G1 X-8.4560 Y-9.4843
G1 X-7.9724 Y-9.8711
G1 X-7.4879 Y-10.2579
G1 X-7.0026 Y-10.6446
G1 X-6.4468 Y-10.9292
G1 X-5.8901 Y-11.2137
G1 X-5.3325 Y-11.4982
G1 X-4.7738 Y-11.7827
G1 X-4.1664 Y-11.9541
G1 X-3.5583 Y-12.1254
G1 X-2.9495 Y-12.2967
G1 X-2.3399 Y-12.4680
G1 X-1.7062 Y-12.5196
G1 X-1.0723 Y-12.5711
G1 X-0.4381 Y-12.6227
G1 X0.1964 Y-12.6742
G1 X0.8288 Y-12.6040
G1 X1.4609 Y-12.5337
G1 X2.0926 Y-12.4635
G1 X2.7240 Y-12.3933
G1 X3.3274 Y-12.2040
G1 X3.9299 Y-12.0147
G1 X4.5317 Y-11.8254
G1 X5.1327 Y-11.6361
G1 X5.6814 Y-11.3350
G1 X6.2291 Y-11.0339
G1 X6.7759 Y-10.7329
G1 X7.3217 Y-10.4318
G1 X7.7940 Y-10.0305
G1 X8.2655 Y-9.6292
G1 X8.7363 Y-9.2279
G1 X9.2065 Y-8.8265
G1 X9.5857 Y-8.3404
G1 X9.9645 Y-7.8543
G1 X10.3433 Y-7.3682
G1 X10.7219 Y-6.8821
G1 X10.9962 Y-6.3299
G1 X11.2710 Y-5.7777
G1 X11.5462 Y-5.2254
G1 X11.8220 Y-4.6732
G1 X11.9844 Y-4.0761
G1 X12.1478 Y-3.4790
G1 X12.3123 Y-2.8818
G1 X12.4780 Y-2.2847
G1 X12.5249 Y-1.6656
G1 X12.5732 Y-1.0466
G1 X12.6230 Y-0.4275
G1 X12.6743 Y0.1916
G1 X12.6052 Y0.8088
G1 X12.5376 Y1.4260
G1 X12.4714 Y2.0433
G1 X12.4067 Y2.6605
G1 X12.2237 Y3.2522
G1 X12.0418 Y3.8439
G1 X11.8609 Y4.4355
G1 X11.6811 Y5.0272
G1 X11.3888 Y5.5706
G1 X11.0971 Y6.1140
G1 X10.8057 Y6.6573
G1 X10.5147 Y7.2007
G1 X10.1211 Y7.6749
G1 X9.7274 Y8.1491
G1 X9.3334 Y8.6233
G1 X8.9390 Y9.0975
M3 S575
G4 P0.030
(PATH_END id=fill-infill_001)
(Travel to fill-infill path 2)
G1 X9.7630 Y9.9015 F3000.000
M3 S700
G4 P0.060
(PATH_START id=fill-infill_002 kind=fill-infill space=machine_deg source=component_unknown points=161 max_surface_segment_mm=0.2015)
(fill-infill path 2, 161 points)
G1 X9.3430 Y10.2387 F1200.000
G1 X8.9225 Y10.5760
G1 X8.5014 Y10.9132
G1 X8.0796 Y11.2504
G1 X7.6571 Y11.5876
G1 X7.1726 Y11.8357
G1 X6.6873 Y12.0839
G1 X6.2013 Y12.3320
G1 X5.7144 Y12.5802
G1 X5.2268 Y12.8283
G1 X4.6961 Y12.9779
G1 X4.1649 Y13.1274
G1 X3.6331 Y13.2770
G1 X3.1006 Y13.4265
G1 X2.5674 Y13.5761
G1 X2.0130 Y13.6213
G1 X1.4584 Y13.6665
G1 X0.9035 Y13.7117
G1 X0.3485 Y13.7569
G1 X-0.2068 Y13.8021
G1 X-0.7603 Y13.7412
G1 X-1.3136 Y13.6803
G1 X-1.8666 Y13.6195
G1 X-2.4193 Y13.5586
G1 X-2.9717 Y13.4977
G1 X-3.4995 Y13.3331
G1 X-4.0266 Y13.1685
G1 X-4.5530 Y13.0039
G1 X-5.0788 Y12.8392
G1 X-5.6039 Y12.6746
G1 X-6.0831 Y12.4126
G1 X-6.5614 Y12.1506
G1 X-7.0389 Y11.8885
G1 X-7.5157 Y11.6265
G1 X-7.9917 Y11.3645
G1 X-8.4031 Y11.0151
G1 X-8.8139 Y10.6657
G1 X-9.2240 Y10.3163
G1 X-9.6336 Y9.9669
G1 X-10.0427 Y9.6176
G1 X-10.3720 Y9.1943
G1 X-10.7011 Y8.7710
G1 X-11.0300 Y8.3477
G1 X-11.3588 Y7.9244
G1 X-11.6876 Y7.5011
G1 X-11.9251 Y7.0201
G1 X-12.1630 Y6.5392
G1 X-12.4013 Y6.0582
G1 X-12.6400 Y5.5773
G1 X-12.8792 Y5.0963
G1 X-13.0194 Y4.5762
G1 X-13.1604 Y4.0561
G1 X-13.3023 Y3.5359
G1 X-13.4451 Y3.0158
G1 X-13.5889 Y2.4957
G1 X-13.6292 Y1.9564
G1 X-13.6706 Y1.4171
G1 X-13.7133 Y0.8778
G1 X-13.7571 Y0.3385
G1 X-13.8022 Y-0.2008
G1 X-13.7423 Y-0.7386
G1 X-13.6837 Y-1.2763
G1 X-13.6263 Y-1.8141
G1 X-13.5700 Y-2.3518
G1 X-13.5149 Y-2.8896
G1 X-13.3567 Y-3.4052
G1 X-13.1994 Y-3.9207
G1 X-13.0429 Y-4.4362
G1 X-12.8873 Y-4.9518
G1 X-12.7325 Y-5.4673
G1 X-12.4796 Y-5.9409
G1 X-12.2271 Y-6.4144
G1 X-11.9749 Y-6.8879
G1 X-11.7231 Y-7.3615
G1 X-11.4715 Y-7.8350
G1 X-11.1302 Y-8.2483
G1 X-10.7887 Y-8.6616
G1 X-10.4471 Y-9.0749
G1 X-10.1052 Y-9.4882
G1 X-9.7630 Y-9.9015
G1 X-9.3430 Y-10.2387
G1 X-8.9225 Y-10.5760
G1 X-8.5014 Y-10.9132
G1 X-8.0796 Y-11.2504
G1 X-7.6571 Y-11.5876
G1 X-7.1726 Y-11.8357
G1 X-6.6873 Y-12.0839
G1 X-6.2013 Y-12.3320
G1 X-5.7144 Y-12.5802
G1 X-5.2268 Y-12.8283
G1 X-4.6961 Y-12.9779
G1 X-4.1649 Y-13.1274
G1 X-3.6331 Y-13.2770
G1 X-3.1006 Y-13.4265
G1 X-2.5674 Y-13.5761
G1 X-2.0130 Y-13.6213
G1 X-1.4584 Y-13.6665
G1 X-0.9035 Y-13.7117
G1 X-0.3485 Y-13.7569
G1 X0.2068 Y-13.8021
G1 X0.7603 Y-13.7412
G1 X1.3136 Y-13.6803
G1 X1.8666 Y-13.6195
G1 X2.4193 Y-13.5586
G1 X2.9717 Y-13.4977
G1 X3.4995 Y-13.3331
G1 X4.0266 Y-13.1685
G1 X4.5530 Y-13.0039
G1 X5.0788 Y-12.8392
G1 X5.6039 Y-12.6746
G1 X6.0831 Y-12.4126
G1 X6.5614 Y-12.1506
G1 X7.0389 Y-11.8885
G1 X7.5157 Y-11.6265
G1 X7.9917 Y-11.3645
G1 X8.4031 Y-11.0151
G1 X8.8139 Y-10.6657
G1 X9.2240 Y-10.3163
G1 X9.6336 Y-9.9669
G1 X10.0427 Y-9.6176
G1 X10.3720 Y-9.1943
G1 X10.7011 Y-8.7710
G1 X11.0300 Y-8.3477
G1 X11.3588 Y-7.9244
G1 X11.6876 Y-7.5011
G1 X11.9251 Y-7.0201
G1 X12.1630 Y-6.5392
G1 X12.4013 Y-6.0582
G1 X12.6400 Y-5.5773
G1 X12.8792 Y-5.0963
G1 X13.0194 Y-4.5762
G1 X13.1604 Y-4.0561
G1 X13.3023 Y-3.5359
G1 X13.4451 Y-3.0158
G1 X13.5889 Y-2.4957
G1 X13.6292 Y-1.9564
G1 X13.6706 Y-1.4171
G1 X13.7133 Y-0.8778
G1 X13.7571 Y-0.3385
G1 X13.8022 Y0.2008
G1 X13.7423 Y0.7386
G1 X13.6837 Y1.2763
G1 X13.6263 Y1.8141
G1 X13.5700 Y2.3518
G1 X13.5149 Y2.8896
G1 X13.3567 Y3.4052
G1 X13.1994 Y3.9207
G1 X13.0429 Y4.4362
G1 X12.8873 Y4.9518
G1 X12.7325 Y5.4673
G1 X12.4796 Y5.9409
G1 X12.2271 Y6.4144
G1 X11.9749 Y6.8879
G1 X11.7231 Y7.3615
G1 X11.4715 Y7.8350
G1 X11.1302 Y8.2483
G1 X10.7887 Y8.6616
G1 X10.4471 Y9.0749
G1 X10.1052 Y9.4882
G1 X9.7630 Y9.9015
M3 S575
G4 P0.030
(PATH_END id=fill-infill_002)
(Travel to fill-infill path 3)
G1 X10.5929 Y10.7056 F3000.000
M3 S700
G4 P0.060
(PATH_START id=fill-infill_003 kind=fill-infill space=machine_deg source=component_unknown points=161 max_surface_segment_mm=0.2180)
(fill-infill path 3, 161 points)
G1 X10.1395 Y11.0706 F1200.000
G1 X9.6854 Y11.4356
G1 X9.2305 Y11.8005
G1 X8.7748 Y12.1655
G1 X8.3181 Y12.5305
G1 X7.7935 Y12.7992
G1 X7.2680 Y13.0678
G1 X6.7414 Y13.3365
G1 X6.2139 Y13.6052
G1 X5.6853 Y13.8739
G1 X5.1094 Y14.0359
G1 X4.5328 Y14.1979
G1 X3.9554 Y14.3600
G1 X3.3771 Y14.5220
G1 X2.7981 Y14.6841
G1 X2.1955 Y14.7332
G1 X1.5927 Y14.7824
G1 X0.9896 Y14.8316
G1 X0.3863 Y14.8808
G1 X-0.2174 Y14.9300
G1 X-0.8192 Y14.8644
G1 X-1.4206 Y14.7988
G1 X-2.0217 Y14.7333
G1 X-2.6224 Y14.6677
G1 X-3.2228 Y14.6021
G1 X-3.7961 Y14.4243
G1 X-4.3686 Y14.2465
G1 X-4.9402 Y14.0687
G1 X-5.5109 Y13.8909
G1 X-6.0808 Y13.7131
G1 X-6.6003 Y13.4299
G1 X-7.1188 Y13.1467
G1 X-7.6362 Y12.8635
G1 X-8.1527 Y12.5803
G1 X-8.6682 Y12.2971
G1 X-9.1130 Y11.9194
G1 X-9.5571 Y11.5417
G1 X-10.0003 Y11.1640
G1 X-10.4428 Y10.7863
G1 X-10.8847 Y10.4086
G1 X-11.2397 Y9.9509
G1 X-11.5943 Y9.4931
G1 X-11.9488 Y9.0354
G1 X-12.3031 Y8.5777
G1 X-12.6574 Y8.1200
G1 X-12.9126 Y7.5999
G1 X-13.1683 Y7.0798
G1 X-13.4244 Y6.5596
G1 X-13.6811 Y6.0395
G1 X-13.9385 Y5.5194
G1 X-14.0886 Y4.9569
G1 X-14.2398 Y4.3943
G1 X-14.3922 Y3.8318
G1 X-14.5457 Y3.2692
G1 X-14.7005 Y2.7067
G1 X-14.7434 Y2.1233
G1 X-14.7878 Y1.5400
G1 X-14.8337 Y0.9567
G1 X-14.8811 Y0.3733
G1 X-14.9301 Y-0.2100
G1 X-14.8658 Y-0.7918
G1 X-14.8031 Y-1.3735
G1 X-14.7418 Y-1.9552
G1 X-14.6821 Y-2.5370
G1 X-14.6238 Y-3.1187
G1 X-14.4541 Y-3.6765
G1 X-14.2855 Y-4.2342
G1 X-14.1181 Y-4.7920
G1 X-13.9517 Y-5.3497
G1 X-13.7863 Y-5.9075
G1 X-13.5147 Y-6.4199
G1 X-13.2435 Y-6.9322
G1 X-12.9729 Y-7.4446
G1 X-12.7026 Y-7.9569
G1 X-12.4327 Y-8.4693
G1 X-12.0652 Y-8.9165
G1 X-11.6976 Y-9.3638
G1 X-11.3297 Y-9.8111
G1 X-10.9615 Y-10.2583
G1 X-10.5929 Y-10.7056
G1 X-10.1395 Y-11.0706
G1 X-9.6854 Y-11.4356
G1 X-9.2305 Y-11.8005
G1 X-8.7748 Y-12.1655
G1 X-8.3181 Y-12.5305
G1 X-7.7935 Y-12.7992
G1 X-7.2680 Y-13.0678
G1 X-6.7414 Y-13.3365
G1 X-6.2139 Y-13.6052
G1 X-5.6853 Y-13.8739
G1 X-5.1094 Y-14.0359
G1 X-4.5328 Y-14.1979
G1 X-3.9554 Y-14.3600
G1 X-3.3771 Y-14.5220
G1 X-2.7981 Y-14.6841
G1 X-2.1955 Y-14.7332
G1 X-1.5927 Y-14.7824
G1 X-0.9896 Y-14.8316
G1 X-0.3863 Y-14.8808
G1 X0.2174 Y-14.9300
G1 X0.8192 Y-14.8644
G1 X1.4206 Y-14.7988
G1 X2.0217 Y-14.7333
G1 X2.6224 Y-14.6677
G1 X3.2228 Y-14.6021
G1 X3.7961 Y-14.4243
G1 X4.3686 Y-14.2465
G1 X4.9402 Y-14.0687
G1 X5.5109 Y-13.8909
G1 X6.0808 Y-13.7131
G1 X6.6003 Y-13.4299
G1 X7.1188 Y-13.1467
G1 X7.6362 Y-12.8635
G1 X8.1527 Y-12.5803
G1 X8.6682 Y-12.2971
G1 X9.1130 Y-11.9194
G1 X9.5571 Y-11.5417
G1 X10.0003 Y-11.1640
G1 X10.4428 Y-10.7863
G1 X10.8847 Y-10.4086
G1 X11.2397 Y-9.9509
G1 X11.5943 Y-9.4931
G1 X11.9488 Y-9.0354
G1 X12.3031 Y-8.5777
G1 X12.6574 Y-8.1200
G1 X12.9126 Y-7.5999
G1 X13.1683 Y-7.0798
G1 X13.4244 Y-6.5596
G1 X13.6811 Y-6.0395
G1 X13.9385 Y-5.5194
G1 X14.0886 Y-4.9569
G1 X14.2398 Y-4.3943
G1 X14.3922 Y-3.8318
G1 X14.5457 Y-3.2692
G1 X14.7005 Y-2.7067
G1 X14.7434 Y-2.1233
G1 X14.7878 Y-1.5400
G1 X14.8337 Y-0.9567
G1 X14.8811 Y-0.3733
G1 X14.9301 Y0.2100
G1 X14.8658 Y0.7918
G1 X14.8031 Y1.3735
G1 X14.7418 Y1.9552
G1 X14.6821 Y2.5370
G1 X14.6238 Y3.1187
G1 X14.4541 Y3.6765
G1 X14.2855 Y4.2342
G1 X14.1181 Y4.7920
G1 X13.9517 Y5.3497
G1 X13.7863 Y5.9075
G1 X13.5147 Y6.4199
G1 X13.2435 Y6.9322
G1 X12.9729 Y7.4446
G1 X12.7026 Y7.9569
G1 X12.4327 Y8.4693
G1 X12.0652 Y8.9165
G1 X11.6976 Y9.3638
G1 X11.3297 Y9.8111
G1 X10.9615 Y10.2583
G1 X10.5929 Y10.7056
M3 S575
G4 P0.030
(PATH_END id=fill-infill_003)
(Travel to fill-infill path 4)
G1 X11.8444 Y11.2430 F3000.000
M3 S700
G4 P0.060
(PATH_START id=fill-infill_004 kind=fill-infill space=machine_deg source=component_unknown points=161 max_surface_segment_mm=0.2360)
(fill-infill path 4, 161 points)
G1 X12.2256 Y10.7465 F1200.000
G1 X12.6064 Y10.2501
G1 X12.9869 Y9.7536
G1 X13.3673 Y9.2571
G1 X13.7477 Y8.7606
G1 X14.0201 Y8.1968
G1 X14.2931 Y7.6330
G1 X14.5668 Y7.0692
G1 X14.8413 Y6.5053
G1 X15.1165 Y5.9415
G1 X15.2755 Y5.3320
G1 X15.4358 Y4.7226
G1 X15.5976 Y4.1131
G1 X15.7610 Y3.5036
G1 X15.9259 Y2.8941
G1 X15.9698 Y2.2624
G1 X16.0156 Y1.6307
G1 X16.0634 Y0.9989
G1 X16.1131 Y0.3672
G1 X16.1647 Y-0.2645
G1 X16.0941 Y-0.8942
G1 X16.0253 Y-1.5239
G1 X15.9585 Y-2.1536
G1 X15.8935 Y-2.7833
G1 X15.8304 Y-3.4130
G1 X15.6469 Y-4.0164
G1 X15.4648 Y-4.6199
G1 X15.2841 Y-5.2234
G1 X15.1048 Y-5.8268
G1 X14.9268 Y-6.4303
G1 X14.6336 Y-6.9843
G1 X14.3410 Y-7.5384
G1 X14.0491 Y-8.0924
G1 X13.7576 Y-8.6464
G1 X13.4666 Y-9.2005
G1 X13.0695 Y-9.6838
G1 X12.6722 Y-10.1671
G1 X12.2746 Y-10.6505
G1 X11.8766 Y-11.1338
G1 X11.4781 Y-11.6171
G1 X10.9871 Y-12.0111
G1 X10.4951 Y-12.4052
G1 X10.0021 Y-12.7992
G1 X9.5080 Y-13.1933
G1 X9.0128 Y-13.5873
G1 X8.4432 Y-13.8769
G1 X7.8724 Y-14.1665
G1 X7.3003 Y-14.4561
G1 X6.7269 Y-14.7457
G1 X6.1521 Y-15.0353
G1 X5.5256 Y-15.2094
G1 X4.8980 Y-15.3834
G1 X4.2695 Y-15.5575
G1 X3.6399 Y-15.7315
G1 X3.0093 Y-15.9056
G1 X2.3531 Y-15.9574
G1 X1.6965 Y-16.0092
G1 X1.0395 Y-16.0610
G1 X0.3822 Y-16.1127
G1 X-0.2754 Y-16.1645
G1 X-0.9307 Y-16.0921
G1 X-1.5855 Y-16.0197
G1 X-2.2398 Y-15.9472
G1 X-2.8936 Y-15.8748
G1 X-3.5470 Y-15.8023
G1 X-4.1702 Y-15.6085
G1 X-4.7923 Y-15.4146
G1 X-5.4132 Y-15.2207
G1 X-6.0331 Y-15.0268
G1 X-6.6519 Y-14.8329
G1 X-7.2149 Y-14.5250
G1 X-7.7765 Y-14.2171
G1 X-8.3369 Y-13.9092
G1 X-8.8959 Y-13.6013
G1 X-9.4538 Y-13.2934
G1 X-9.9339 Y-12.8833
G1 X-10.4129 Y-12.4732
G1 X-10.8909 Y-12.0632
G1 X-11.3681 Y-11.6531
G1 X-11.8444 Y-11.2430
G1 X-12.2256 Y-10.7465
G1 X-12.6064 Y-10.2501
G1 X-12.9869 Y-9.7536
G1 X-13.3673 Y-9.2571
G1 X-13.7477 Y-8.7606
G1 X-14.0201 Y-8.1968
G1 X-14.2931 Y-7.6330
G1 X-14.5668 Y-7.0692
G1 X-14.8413 Y-6.5053
G1 X-15.1165 Y-5.9415
G1 X-15.2755 Y-5.3320
G1 X-15.4358 Y-4.7226
G1 X-15.5976 Y-4.1131
G1 X-15.7610 Y-3.5036
G1 X-15.9259 Y-2.8941
G1 X-15.9698 Y-2.2624
G1 X-16.0156 Y-1.6307
G1 X-16.0634 Y-0.9989
G1 X-16.1131 Y-0.3672
G1 X-16.1647 Y0.2645
G1 X-16.0941 Y0.8942
G1 X-16.0253 Y1.5239
G1 X-15.9585 Y2.1536
G1 X-15.8935 Y2.7833
G1 X-15.8304 Y3.4130
G1 X-15.6469 Y4.0164
G1 X-15.4648 Y4.6199
G1 X-15.2841 Y5.2234
G1 X-15.1048 Y5.8268
G1 X-14.9268 Y6.4303
G1 X-14.6336 Y6.9843
G1 X-14.3410 Y7.5384
G1 X-14.0491 Y8.0924
G1 X-13.7576 Y8.6464
G1 X-13.4666 Y9.2005
G1 X-13.0695 Y9.6838
G1 X-12.6722 Y10.1671
G1 X-12.2746 Y10.6505
G1 X-11.8766 Y11.1338
G1 X-11.4781 Y11.6171
G1 X-10.9871 Y12.0111
G1 X-10.4951 Y12.4052
G1 X-10.0021 Y12.7992
G1 X-9.5080 Y13.1933
G1 X-9.0128 Y13.5873
G1 X-8.4432 Y13.8769
G1 X-7.8724 Y14.1665
G1 X-7.3003 Y14.4561
G1 X-6.7269 Y14.7457
G1 X-6.1521 Y15.0353
G1 X-5.5256 Y15.2094
G1 X-4.8980 Y15.3834
G1 X-4.2695 Y15.5575
G1 X-3.6399 Y15.7315
G1 X-3.0093 Y15.9056
G1 X-2.3531 Y15.9574
G1 X-1.6965 Y16.0092
G1 X-1.0395 Y16.0610
G1 X-0.3822 Y16.1127
G1 X0.2754 Y16.1645
G1 X0.9307 Y16.0921
G1 X1.5855 Y16.0197
G1 X2.2398 Y15.9472
G1 X2.8936 Y15.8748
G1 X3.5470 Y15.8023
G1 X4.1702 Y15.6085
G1 X4.7923 Y15.4146
G1 X5.4132 Y15.2207
G1 X6.0331 Y15.0268
G1 X6.6519 Y14.8329
G1 X7.2149 Y14.5250
G1 X7.7765 Y14.2171
G1 X8.3369 Y13.9092
G1 X8.8959 Y13.6013
G1 X9.4538 Y13.2934
G1 X9.9339 Y12.8833
G1 X10.4129 Y12.4732
G1 X10.8909 Y12.0632
G1 X11.3681 Y11.6531
G1 X11.8444 Y11.2430
M3 S575
G4 P0.030
(PATH_END id=fill-infill_004)
(Travel to fill-infill path 5)
G1 X12.7066 Y12.0275 F3000.000
M3 S700
G4 P0.060
(PATH_START id=fill-infill_005 kind=fill-infill space=machine_deg source=component_unknown points=193 max_surface_segment_mm=0.2107)
(fill-infill path 5, 193 points)
G1 X13.0677 Y11.6021 F1200.000
G1 X13.4284 Y11.1768
G1 X13.7887 Y10.7514
G1 X14.1031 Y10.2916
G1 X14.4175 Y9.8317
G1 X14.7319 Y9.3718
G1 X14.9980 Y8.8819
G1 X15.2645 Y8.3919
G1 X15.5314 Y7.9020
G1 X15.7481 Y7.3867
G1 X15.9655 Y6.8714
G1 X16.1838 Y6.3561
G1 X16.3505 Y5.8204
G1 X16.5183 Y5.2846
G1 X16.6872 Y4.7489
G1 X16.8034 Y4.1980
G1 X16.9211 Y3.6470
G1 X17.0402 Y3.0960
G1 X17.1059 Y2.5351
G1 X17.1732 Y1.9742
G1 X17.2421 Y1.4133
G1 X17.2572 Y0.8479
G1 X17.2741 Y0.2825
G1 X17.2926 Y-0.2830
G1 X17.2572 Y-0.8475
G1 X17.2236 Y-1.4120
G1 X17.1916 Y-1.9766
G1 X17.1059 Y-2.5347
G1 X17.0218 Y-3.0929
G1 X16.9393 Y-3.6511
G1 X16.8035 Y-4.1976
G1 X16.6691 Y-4.7440
G1 X16.5361 Y-5.2905
G1 X16.3506 Y-5.8200
G1 X16.1662 Y-6.3495
G1 X15.9828 Y-6.8789
G1 X15.7482 Y-7.3863
G1 X15.5143 Y-7.8937
G1 X15.2811 Y-8.4011
G1 X14.9982 Y-8.8815
G1 X14.7156 Y-9.3620
G1 X14.4333 Y-9.8424
G1 X14.1033 Y-10.2912
G1 X13.7733 Y-10.7401
G1 X13.4432 Y-11.1889
G1 X13.0679 Y-11.6018
G1 X12.6922 Y-12.0147
G1 X12.3160 Y-12.4276
G1 X11.8978 Y-12.8007
G1 X11.4788 Y-13.1737
G1 X11.0591 Y-13.5467
G1 X10.6009 Y-13.8762
G1 X10.1418 Y-14.2057
G1 X9.6817 Y-14.5353
G1 X9.1874 Y-14.8181
G1 X8.6921 Y-15.1010
G1 X8.1957 Y-15.3839
G1 X7.6699 Y-15.6174
G1 X7.1430 Y-15.8509
G1 X6.6150 Y-16.0843
G1 X6.0631 Y-16.2662
G1 X5.5101 Y-16.4480
G1 X4.9562 Y-16.6299
G1 X4.3842 Y-16.7584
G1 X3.8113 Y-16.8868
G1 X3.2378 Y-17.0153
G1 X2.6522 Y-17.0891
G1 X2.0663 Y-17.1630
G1 X1.4798 Y-17.2368
G1 X0.8879 Y-17.2553
G1 X0.2958 Y-17.2738
G1 X-0.2964 Y-17.2924
G1 X-0.8874 Y-17.2554
G1 X-1.4783 Y-17.2184
G1 X-2.0689 Y-17.1814
G1 X-2.6518 Y-17.0892
G1 X-3.2342 Y-16.9970
G1 X-3.8160 Y-16.9049
G1 X-4.3838 Y-16.7585
G1 X-4.9507 Y-16.6120
G1 X-5.5167 Y-16.4656
G1 X-6.0627 Y-16.2663
G1 X-6.6076 Y-16.0670
G1 X-7.1514 Y-15.8678
G1 X-7.6695 Y-15.6175
G1 X-8.1864 Y-15.3673
G1 X-8.7023 Y-15.1171
G1 X-9.1871 Y-14.8184
G1 X-9.6708 Y-14.5196
G1 X-10.1535 Y-14.2209
G1 X-10.6006 Y-13.8765
G1 X-11.0467 Y-13.5321
G1 X-11.4920 Y-13.1877
G1 X-11.8975 Y-12.8009
G1 X-12.3024 Y-12.4142
G1 X-12.7066 Y-12.0275
G1 X-13.0677 Y-11.6021
G1 X-13.4284 Y-11.1768
G1 X-13.7887 Y-10.7514
G1 X-14.1031 Y-10.2916
G1 X-14.4175 Y-9.8317
G1 X-14.7319 Y-9.3718
G1 X-14.9980 Y-8.8819
G1 X-15.2645 Y-8.3919
G1 X-15.5314 Y-7.9020
G1 X-15.7481 Y-7.3867
G1 X-15.9655 Y-6.8714
G1 X-16.1838 Y-6.3561
G1 X-16.3505 Y-5.8204
G1 X-16.5183 Y-5.2846
G1 X-16.6872 Y-4.7489
G1 X-16.8034 Y-4.1980
G1 X-16.9211 Y-3.6470
G1 X-17.0402 Y-3.0960
G1 X-17.1059 Y-2.5351
G1 X-17.1732 Y-1.9742
G1 X-17.2421 Y-1.4133
G1 X-17.2572 Y-0.8479
G1 X-17.2741 Y-0.2825
G1 X-17.2926 Y0.2830
G1 X-17.2572 Y0.8475
G1 X-17.2236 Y1.4120
G1 X-17.1916 Y1.9766
G1 X-17.1059 Y2.5347
G1 X-17.0218 Y3.0929
G1 X-16.9393 Y3.6511
G1 X-16.8035 Y4.1976
G1 X-16.6691 Y4.7440
G1 X-16.5361 Y5.2905
G1 X-16.3506 Y5.8200
G1 X-16.1662 Y6.3495
G1 X-15.9828 Y6.8789
G1 X-15.7482 Y7.3863
G1 X-15.5143 Y7.8937
G1 X-15.2811 Y8.4011
G1 X-14.9982 Y8.8815
G1 X-14.7156 Y9.3620
G1 X-14.4333 Y9.8424
G1 X-14.1033 Y10.2912
G1 X-13.7733 Y10.7401
G1 X-13.4432 Y11.1889
G1 X-13.0679 Y11.6018
G1 X-12.6922 Y12.0147
G1 X-12.3160 Y12.4276
G1 X-11.8978 Y12.8007
G1 X-11.4788 Y13.1737
G1 X-11.0591 Y13.5467
G1 X-10.6009 Y13.8762
G1 X-10.1418 Y14.2057
G1 X-9.6817 Y14.5353
G1 X-9.1874 Y14.8181
G1 X-8.6921 Y15.1010
G1 X-8.1957 Y15.3839
G1 X-7.6699 Y15.6174
G1 X-7.1430 Y15.8509
G1 X-6.6150 Y16.0843
G1 X-6.0631 Y16.2662
G1 X-5.5101 Y16.4480
G1 X-4.9562 Y16.6299
G1 X-4.3842 Y16.7584
G1 X-3.8113 Y16.8868
G1 X-3.2378 Y17.0153
G1 X-2.6522 Y17.0891
G1 X-2.0663 Y17.1630
G1 X-1.4798 Y17.2368
G1 X-0.8879 Y17.2553
G1 X-0.2958 Y17.2738
G1 X0.2964 Y17.2924
G1 X0.8874 Y17.2554
G1 X1.4783 Y17.2184
G1 X2.0689 Y17.1814
G1 X2.6518 Y17.0892
G1 X3.2342 Y16.9970
G1 X3.8160 Y16.9049
G1 X4.3838 Y16.7585
G1 X4.9507 Y16.6120
G1 X5.5167 Y16.4656
G1 X6.0627 Y16.2663
G1 X6.6076 Y16.0670
G1 X7.1514 Y15.8678
G1 X7.6695 Y15.6175
G1 X8.1864 Y15.3673
G1 X8.7023 Y15.1171
G1 X9.1871 Y14.8184
G1 X9.6708 Y14.5196
G1 X10.1535 Y14.2209
G1 X10.6006 Y13.8765
G1 X11.0467 Y13.5321
G1 X11.4920 Y13.1877
G1 X11.8975 Y12.8009
G1 X12.3024 Y12.4142
G1 X12.7066 Y12.0275
M3 S575
G4 P0.030
(PATH_END id=fill-infill_005)
(Travel to fill-infill path 6)
G1 X13.5762 Y12.8119 F3000.000
M3 S700
G4 P0.060
(PATH_START id=fill-infill_006 kind=fill-infill space=machine_deg source=component_unknown points=193 max_surface_segment_mm=0.2244)
(fill-infill path 6, 193 points)
G1 X13.9590 Y12.3588 F1200.000
G1 X14.3414 Y11.9057
G1 X14.7234 Y11.4526
G1 X15.0560 Y10.9628
G1 X15.3886 Y10.4729
G1 X15.7213 Y9.9831
G1 X16.0023 Y9.4612
G1 X16.2837 Y8.9393
G1 X16.5657 Y8.4174
G1 X16.7941 Y7.8685
G1 X17.0234 Y7.3195
G1 X17.2537 Y6.7706
G1 X17.4290 Y6.2000
G1 X17.6057 Y5.6293
G1 X17.7838 Y5.0586
G1 X17.9059 Y4.4718
G1 X18.0296 Y3.8849
G1 X18.1551 Y3.2980
G1 X18.2239 Y2.7005
G1 X18.2947 Y2.1030
G1 X18.3674 Y1.5055
G1 X18.3830 Y0.9032
G1 X18.4007 Y0.3009
G1 X18.4204 Y-0.3014
G1 X18.3830 Y-0.9028
G1 X18.3477 Y-1.5041
G1 X18.3143 Y-2.1055
G1 X18.2240 Y-2.7001
G1 X18.1356 Y-3.2946
G1 X18.0490 Y-3.8892
G1 X17.9059 Y-4.4713
G1 X17.7645 Y-5.0534
G1 X17.6247 Y-5.6355
G1 X17.4292 Y-6.1996
G1 X17.2349 Y-6.7636
G1 X17.0418 Y-7.3276
G1 X16.7942 Y-7.8681
G1 X16.5475 Y-8.4086
G1 X16.3015 Y-8.9490
G1 X16.0025 Y-9.4608
G1 X15.7039 Y-9.9726
G1 X15.4055 Y-10.4843
G1 X15.0562 Y-10.9624
G1 X14.7068 Y-11.4405
G1 X14.3573 Y-11.9186
G1 X13.9593 Y-12.3585
G1 X13.5607 Y-12.7983
G1 X13.1616 Y-13.2382
G1 X12.7172 Y-13.6355
G1 X12.2719 Y-14.0329
G1 X11.8257 Y-14.4302
G1 X11.3380 Y-14.7812
G1 X10.8491 Y-15.1322
G1 X10.3590 Y-15.4833
G1 X9.8319 Y-15.7846
G1 X9.3035 Y-16.0859
G1 X8.7738 Y-16.3872
G1 X8.2122 Y-16.6359
G1 X7.6493 Y-16.8847
G1 X7.0850 Y-17.1334
G1 X6.4947 Y-17.3271
G1 X5.9032 Y-17.5208
G1 X5.3104 Y-17.7145
G1 X4.6979 Y-17.8513
G1 X4.0845 Y-17.9882
G1 X3.4702 Y-18.1250
G1 X2.8428 Y-18.2037
G1 X2.2148 Y-18.2824
G1 X1.5863 Y-18.3610
G1 X0.9518 Y-18.3807
G1 X0.3171 Y-18.4004
G1 X-0.3177 Y-18.4202
G1 X-0.9513 Y-18.3808
G1 X-1.5846 Y-18.3413
G1 X-2.2176 Y-18.3019
G1 X-2.8423 Y-18.2038
G1 X-3.4663 Y-18.1056
G1 X-4.0896 Y-18.0074
G1 X-4.6975 Y-17.8514
G1 X-5.3044 Y-17.6955
G1 X-5.9103 Y-17.5395
G1 X-6.4943 Y-17.3272
G1 X-7.0770 Y-17.1149
G1 X-7.6584 Y-16.9027
G1 X-8.2118 Y-16.6361
G1 X-8.7638 Y-16.3696
G1 X-9.3145 Y-16.1030
G1 X-9.8315 Y-15.7848
G1 X-10.3473 Y-15.4666
G1 X-10.8617 Y-15.1483
G1 X-11.3376 Y-14.7815
G1 X-11.8124 Y-14.4146
G1 X-12.2861 Y-14.0478
G1 X-12.7169 Y-13.6358
G1 X-13.1469 Y-13.2238
G1 X-13.5762 Y-12.8119
G1 X-13.9590 Y-12.3588
G1 X-14.3414 Y-11.9057
G1 X-14.7234 Y-11.4526
G1 X-15.0560 Y-10.9628
G1 X-15.3886 Y-10.4729
G1 X-15.7213 Y-9.9831
G1 X-16.0023 Y-9.4612
G1 X-16.2837 Y-8.9393
G1 X-16.5657 Y-8.4174
G1 X-16.7941 Y-7.8685
G1 X-17.0234 Y-7.3195
G1 X-17.2537 Y-6.7706
G1 X-17.4290 Y-6.2000
G1 X-17.6057 Y-5.6293
G1 X-17.7838 Y-5.0586
G1 X-17.9059 Y-4.4718
G1 X-18.0296 Y-3.8849
G1 X-18.1551 Y-3.2980
G1 X-18.2239 Y-2.7005
G1 X-18.2947 Y-2.1030
G1 X-18.3674 Y-1.5055
G1 X-18.3830 Y-0.9032
G1 X-18.4007 Y-0.3009
G1 X-18.4204 Y0.3014
G1 X-18.3830 Y0.9028
G1 X-18.3477 Y1.5041
G1 X-18.3143 Y2.1055
G1 X-18.2240 Y2.7001
G1 X-18.1356 Y3.2946
G1 X-18.0490 Y3.8892
G1 X-17.9059 Y4.4713
G1 X-17.7645 Y5.0534
G1 X-17.6247 Y5.6355
G1 X-17.4292 Y6.1996
G1 X-17.2349 Y6.7636
G1 X-17.0418 Y7.3276
G1 X-16.7942 Y7.8681
G1 X-16.5475 Y8.4086
G1 X-16.3015 Y8.9490
G1 X-16.0025 Y9.4608
G1 X-15.7039 Y9.9726
G1 X-15.4055 Y10.4843
G1 X-15.0562 Y10.9624
G1 X-14.7068 Y11.4405
G1 X-14.3573 Y11.9186
G1 X-13.9593 Y12.3585
G1 X-13.5607 Y12.7983
G1 X-13.1616 Y13.2382
G1 X-12.7172 Y13.6355
G1 X-12.2719 Y14.0329
G1 X-11.8257 Y14.4302
G1 X-11.3380 Y14.7812
G1 X-10.8491 Y15.1322
G1 X-10.3590 Y15.4833
G1 X-9.8319 Y15.7846
G1 X-9.3035 Y16.0859
G1 X-8.7738 Y16.3872
G1 X-8.2122 Y16.6359
G1 X-7.6493 Y16.8847
G1 X-7.0850 Y17.1334
G1 X-6.4947 Y17.3271
G1 X-5.9032 Y17.5208
G1 X-5.3104 Y17.7145
G1 X-4.6979 Y17.8513
G1 X-4.0845 Y17.9882
G1 X-3.4702 Y18.1250
G1 X-2.8428 Y18.2037
G1 X-2.2148 Y18.2824
G1 X-1.5863 Y18.3610
G1 X-0.9518 Y18.3807
G1 X-0.3171 Y18.4004
G1 X0.3177 Y18.4202
G1 X0.9513 Y18.3808
G1 X1.5846 Y18.3413
G1 X2.2176 Y18.3019
G1 X2.8423 Y18.2038
G1 X3.4663 Y18.1056
G1 X4.0896 Y18.0074
G1 X4.6975 Y17.8514
G1 X5.3044 Y17.6955
G1 X5.9103 Y17.5395
G1 X6.4943 Y17.3272
G1 X7.0770 Y17.1149
G1 X7.6584 Y16.9027
G1 X8.2118 Y16.6361
G1 X8.7638 Y16.3696
G1 X9.3145 Y16.1030
G1 X9.8315 Y15.7848
G1 X10.3473 Y15.4666
G1 X10.8617 Y15.1483
G1 X11.3376 Y14.7815
G1 X11.8124 Y14.4146
G1 X12.2861 Y14.0478
G1 X12.7169 Y13.6358
G1 X13.1469 Y13.2238
G1 X13.5762 Y12.8119
M3 S575
G4 P0.030
(PATH_END id=fill-infill_006)
(Travel to fill-infill path 7)
G1 X14.4537 Y13.5963 F3000.000
M3 S700
G4 P0.060
(PATH_START id=fill-infill_007 kind=fill-infill space=machine_deg source=component_unknown points=193 max_surface_segment_mm=0.2381)
(fill-infill path 7, 193 points)
G1 X14.8579 Y13.1155 F1200.000
G1 X15.2616 Y12.6347
G1 X15.6648 Y12.1538
G1 X16.0153 Y11.6340
G1 X16.3657 Y11.1141
G1 X16.7162 Y10.5943
G1 X17.0116 Y10.0404
G1 X17.3075 Y9.4866
G1 X17.6041 Y8.9327
G1 X17.8437 Y8.3502
G1 X18.0844 Y7.7677
G1 X18.3263 Y7.1852
G1 X18.5099 Y6.5796
G1 X18.6951 Y5.9740
G1 X18.8819 Y5.3684
G1 X19.0095 Y4.7455
G1 X19.1391 Y4.1227
G1 X19.2707 Y3.4999
G1 X19.3424 Y2.8658
G1 X19.4165 Y2.2318
G1 X19.4928 Y1.5977
G1 X19.5089 Y0.9585
G1 X19.5274 Y0.3193
G1 X19.5483 Y-0.3199
G1 X19.5089 Y-0.9580
G1 X19.4719 Y-1.5962
G1 X19.4373 Y-2.2344
G1 X19.3425 Y-2.8654
G1 X19.2500 Y-3.4964
G1 X19.1597 Y-4.1274
G1 X19.0096 Y-4.7451
G1 X18.8615 Y-5.3628
G1 X18.7153 Y-5.9806
G1 X18.5100 Y-6.5791
G1 X18.3063 Y-7.1777
G1 X18.1040 Y-7.7762
G1 X17.8438 Y-8.3498
G1 X17.5847 Y-8.9234
G1 X17.3265 Y-9.4970
G1 X17.0118 Y-10.0401
G1 X16.6976 Y-10.5832
G1 X16.3838 Y-11.1262
G1 X16.0155 Y-11.6336
G1 X15.6472 Y-12.1410
G1 X15.2786 Y-12.6484
G1 X14.8582 Y-13.1151
G1 X14.4372 Y-13.5819
G1 X14.0155 Y-14.0487
G1 X13.5452 Y-14.4704
G1 X13.0738 Y-14.8920
G1 X12.6013 Y-15.3137
G1 X12.0840 Y-15.6862
G1 X11.5654 Y-16.0587
G1 X11.0454 Y-16.4313
G1 X10.4854 Y-16.7510
G1 X9.9238 Y-17.0708
G1 X9.3606 Y-17.3906
G1 X8.7629 Y-17.6545
G1 X8.1637 Y-17.9184
G1 X7.5628 Y-18.1824
G1 X6.9336 Y-18.3880
G1 X6.3030 Y-18.5935
G1 X5.6709 Y-18.7991
G1 X5.0173 Y-18.9443
G1 X4.3626 Y-19.0895
G1 X3.7068 Y-19.2348
G1 X3.0368 Y-19.3182
G1 X2.3661 Y-19.4017
G1 X1.6948 Y-19.4852
G1 X1.0169 Y-19.5061
G1 X0.3388 Y-19.5271
G1 X-0.3394 Y-19.5480
G1 X-1.0164 Y-19.5061
G1 X-1.6930 Y-19.4643
G1 X-2.3692 Y-19.4225
G1 X-3.0363 Y-19.3183
G1 X-3.7026 Y-19.2141
G1 X-4.3681 Y-19.1100
G1 X-5.0168 Y-18.9444
G1 X-5.6644 Y-18.7789
G1 X-6.3107 Y-18.6134
G1 X-6.9331 Y-18.3881
G1 X-7.5541 Y-18.1628
G1 X-8.1735 Y-17.9376
G1 X-8.7625 Y-17.6547
G1 X-9.3499 Y-17.3718
G1 X-9.9356 Y-17.0890
G1 X-10.4850 Y-16.7513
G1 X-11.0328 Y-16.4135
G1 X-11.5790 Y-16.0758
G1 X-12.0837 Y-15.6865
G1 X-12.5869 Y-15.2972
G1 X-13.0889 Y-14.9079
G1 X-13.5449 Y-14.4707
G1 X-13.9998 Y-14.0335
G1 X-14.4537 Y-13.5963
G1 X-14.8579 Y-13.1155
G1 X-15.2616 Y-12.6347
G1 X-15.6648 Y-12.1538
G1 X-16.0153 Y-11.6340
G1 X-16.3657 Y-11.1141
G1 X-16.7162 Y-10.5943
G1 X-17.0116 Y-10.0404
G1 X-17.3075 Y-9.4866
G1 X-17.6041 Y-8.9327
G1 X-17.8437 Y-8.3502
G1 X-18.0844 Y-7.7677
G1 X-18.3263 Y-7.1852
G1 X-18.5099 Y-6.5796
G1 X-18.6951 Y-5.9740
G1 X-18.8819 Y-5.3684
G1 X-19.0095 Y-4.7455
G1 X-19.1391 Y-4.1227
G1 X-19.2707 Y-3.4999
G1 X-19.3424 Y-2.8658
G1 X-19.4165 Y-2.2318
G1 X-19.4928 Y-1.5977
G1 X-19.5089 Y-0.9585
G1 X-19.5274 Y-0.3193
G1 X-19.5483 Y0.3199
G1 X-19.5089 Y0.9580
G1 X-19.4719 Y1.5962
G1 X-19.4373 Y2.2344
G1 X-19.3425 Y2.8654
G1 X-19.2500 Y3.4964
G1 X-19.1597 Y4.1274
G1 X-19.0096 Y4.7451
G1 X-18.8615 Y5.3628
G1 X-18.7153 Y5.9806
G1 X-18.5100 Y6.5791
G1 X-18.3063 Y7.1777
G1 X-18.1040 Y7.7762
G1 X-17.8438 Y8.3498
G1 X-17.5847 Y8.9234
G1 X-17.3265 Y9.4970
G1 X-17.0118 Y10.0401
G1 X-16.6976 Y10.5832
G1 X-16.3838 Y11.1262
G1 X-16.0155 Y11.6336
G1 X-15.6472 Y12.1410
G1 X-15.2786 Y12.6484
G1 X-14.8582 Y13.1151
G1 X-14.4372 Y13.5819
G1 X-14.0155 Y14.0487
G1 X-13.5452 Y14.4704
G1 X-13.0738 Y14.8920
G1 X-12.6013 Y15.3137
G1 X-12.0840 Y15.6862
G1 X-11.5654 Y16.0587
G1 X-11.0454 Y16.4313
G1 X-10.4854 Y16.7510
G1 X-9.9238 Y17.0708
G1 X-9.3606 Y17.3906
G1 X-8.7629 Y17.6545
G1 X-8.1637 Y17.9184
G1 X-7.5628 Y18.1824
G1 X-6.9336 Y18.3880
G1 X-6.3030 Y18.5935
G1 X-5.6709 Y18.7991
G1 X-5.0173 Y18.9443
G1 X-4.3626 Y19.0895
G1 X-3.7068 Y19.2348
G1 X-3.0368 Y19.3182
G1 X-2.3661 Y19.4017
G1 X-1.6948 Y19.4852
G1 X-1.0169 Y19.5061
G1 X-0.3388 Y19.5271
G1 X0.3394 Y19.5480
G1 X1.0164 Y19.5061
G1 X1.6930 Y19.4643
G1 X2.3692 Y19.4225
G1 X3.0363 Y19.3183
G1 X3.7026 Y19.2141
G1 X4.3681 Y19.1100
G1 X5.0168 Y18.9444
G1 X5.6644 Y18.7789
G1 X6.3107 Y18.6134
G1 X6.9331 Y18.3881
G1 X7.5541 Y18.1628
G1 X8.1735 Y17.9376
G1 X8.7625 Y17.6547
G1 X9.3499 Y17.3718
G1 X9.9356 Y17.0890
G1 X10.4850 Y16.7513
G1 X11.0328 Y16.4135
G1 X11.5790 Y16.0758
G1 X12.0837 Y15.6865
G1 X12.5869 Y15.2972
G1 X13.0889 Y14.9079
G1 X13.5449 Y14.4707
G1 X13.9998 Y14.0335
G1 X14.4537 Y13.5963
M3 S575
G4 P0.030
(PATH_END id=fill-infill_007)
(Travel to outline path 8)
G1 X20.6761 Y-0.3383 F3000.000
M3 S700
G4 P0.060
(PATH_START id=outline_001 kind=outline space=machine_deg source=component_unknown points=257 max_surface_segment_mm=0.1889)
(outline path 8, 257 points)
G1 X20.6448 Y-0.8446 F1200.000
G1 X20.6152 Y-1.3508
G1 X20.5871 Y-1.8571
G1 X20.5606 Y-2.3633
G1 X20.4860 Y-2.8638
G1 X20.4130 Y-3.3644
G1 X20.3414 Y-3.8649
G1 X20.2713 Y-4.3655
G1 X20.1535 Y-4.8555
G1 X20.0370 Y-5.3456
G1 X19.9218 Y-5.8356
G1 X19.8079 Y-6.3256
G1 X19.6468 Y-6.8004
G1 X19.4868 Y-7.2752
G1 X19.3277 Y-7.7501
G1 X19.1696 Y-8.2249
G1 X18.9653 Y-8.6799
G1 X18.7616 Y-9.1349
G1 X18.5587 Y-9.5899
G1 X18.3563 Y-10.0449
G1 X18.1089 Y-10.4757
G1 X17.8618 Y-10.9065
G1 X17.6149 Y-11.3373
G1 X17.3684 Y-11.7682
G1 X17.0783 Y-12.1707
G1 X16.7882 Y-12.5731
G1 X16.4981 Y-12.9756
G1 X16.2078 Y-13.3781
G1 X15.8760 Y-13.7484
G1 X15.5439 Y-14.1187
G1 X15.2113 Y-14.4890
G1 X14.8783 Y-14.8592
G1 X14.5064 Y-15.1937
G1 X14.1338 Y-15.5282
G1 X13.7605 Y-15.8627
G1 X13.3864 Y-16.1972
G1 X12.9766 Y-16.4927
G1 X12.5659 Y-16.7882
G1 X12.1542 Y-17.0838
G1 X11.7416 Y-17.3793
G1 X11.2969 Y-17.6329
G1 X10.8513 Y-17.8866
G1 X10.4046 Y-18.1402
G1 X9.9568 Y-18.3939
G1 X9.4814 Y-18.6033
G1 X9.0050 Y-18.8127
G1 X8.5275 Y-19.0220
G1 X8.0489 Y-19.2314
G1 X7.5476 Y-19.3945
G1 X7.0454 Y-19.5576
G1 X6.5422 Y-19.7206
G1 X6.0381 Y-19.8837
G1 X5.5167 Y-19.9989
G1 X4.9946 Y-20.1141
G1 X4.4717 Y-20.2293
G1 X3.9481 Y-20.3445
G1 X3.4131 Y-20.4107
G1 X2.8777 Y-20.4769
G1 X2.3418 Y-20.5432
G1 X1.8054 Y-20.6094
G1 X1.2638 Y-20.6260
G1 X0.7221 Y-20.6426
G1 X0.1803 Y-20.6592
G1 X-0.3616 Y-20.6758
G1 X-0.9025 Y-20.6426
G1 X-1.4432 Y-20.6094
G1 X-1.9836 Y-20.5762
G1 X-2.5238 Y-20.5431
G1 X-3.0567 Y-20.4604
G1 X-3.5890 Y-20.3778
G1 X-4.1208 Y-20.2951
G1 X-4.6520 Y-20.2125
G1 X-5.1698 Y-20.0812
G1 X-5.6868 Y-19.9499
G1 X-6.2030 Y-19.8186
G1 X-6.7184 Y-19.6873
G1 X-7.2146 Y-19.5086
G1 X-7.7099 Y-19.3299
G1 X-8.2041 Y-19.1512
G1 X-8.6973 Y-18.9725
G1 X-9.1662 Y-18.7481
G1 X-9.6340 Y-18.5237
G1 X-10.1007 Y-18.2993
G1 X-10.5663 Y-18.0749
G1 X-11.0028 Y-17.8070
G1 X-11.4383 Y-17.5391
G1 X-11.8727 Y-17.2712
G1 X-12.3061 Y-17.0033
G1 X-12.7062 Y-16.6945
G1 X-13.1054 Y-16.3856
G1 X-13.5037 Y-16.0768
G1 X-13.9012 Y-15.7680
G1 X-14.2619 Y-15.4212
G1 X-14.6218 Y-15.0744
G1 X-14.9811 Y-14.7276
G1 X-15.3399 Y-14.3807
G1 X-15.6588 Y-13.9993
G1 X-15.9774 Y-13.6179
G1 X-16.2957 Y-13.2365
G1 X-16.6136 Y-12.8550
G1 X-16.8894 Y-12.4427
G1 X-17.1652 Y-12.0303
G1 X-17.4411 Y-11.6179
G1 X-17.7170 Y-11.2055
G1 X-17.9489 Y-10.7662
G1 X-18.1811 Y-10.3268
G1 X-18.4137 Y-9.8875
G1 X-18.6469 Y-9.4481
G1 X-18.8344 Y-8.9860
G1 X-19.0228 Y-8.5239
G1 X-19.2119 Y-8.0618
G1 X-19.4018 Y-7.5997
G1 X-19.5452 Y-7.1193
G1 X-19.6896 Y-6.6389
G1 X-19.8351 Y-6.1585
G1 X-19.9817 Y-5.6781
G1 X-20.0810 Y-5.1840
G1 X-20.1817 Y-4.6900
G1 X-20.2837 Y-4.1959
G1 X-20.3870 Y-3.7018
G1 X-20.4426 Y-3.1988
G1 X-20.4996 Y-2.6958
G1 X-20.5582 Y-2.1929
G1 X-20.6184 Y-1.6899
G1 X-20.6304 Y-1.1828
G1 X-20.6440 Y-0.6758
G1 X-20.6593 Y-0.1687
G1 X-20.6761 Y0.3383
G1 X-20.6448 Y0.8446
G1 X-20.6152 Y1.3508
G1 X-20.5871 Y1.8571
G1 X-20.5606 Y2.3633
G1 X-20.4860 Y2.8638
G1 X-20.4130 Y3.3644
G1 X-20.3414 Y3.8649
G1 X-20.2713 Y4.3655
G1 X-20.1535 Y4.8555
G1 X-20.0370 Y5.3456
G1 X-19.9218 Y5.8356
G1 X-19.8079 Y6.3256
G1 X-19.6468 Y6.8004
G1 X-19.4868 Y7.2752
G1 X-19.3277 Y7.7501
G1 X-19.1696 Y8.2249
G1 X-18.9653 Y8.6799
G1 X-18.7616 Y9.1349
G1 X-18.5587 Y9.5899
G1 X-18.3563 Y10.0449
G1 X-18.1089 Y10.4757
G1 X-17.8618 Y10.9065
G1 X-17.6149 Y11.3373
G1 X-17.3684 Y11.7682
G1 X-17.0783 Y12.1707
G1 X-16.7882 Y12.5731
G1 X-16.4981 Y12.9756
G1 X-16.2078 Y13.3781
G1 X-15.8760 Y13.7484
G1 X-15.5439 Y14.1187
G1 X-15.2113 Y14.4890
G1 X-14.8783 Y14.8592
G1 X-14.5064 Y15.1937
G1 X-14.1338 Y15.5282
G1 X-13.7605 Y15.8627
G1 X-13.3864 Y16.1972
G1 X-12.9766 Y16.4927
G1 X-12.5659 Y16.7882
G1 X-12.1542 Y17.0838
G1 X-11.7416 Y17.3793
G1 X-11.2969 Y17.6329
G1 X-10.8513 Y17.8866
G1 X-10.4046 Y18.1402
G1 X-9.9568 Y18.3939
G1 X-9.4814 Y18.6033
G1 X-9.0050 Y18.8127
G1 X-8.5275 Y19.0220
G1 X-8.0489 Y19.2314
G1 X-7.5476 Y19.3945
G1 X-7.0454 Y19.5576
G1 X-6.5422 Y19.7206
G1 X-6.0381 Y19.8837
G1 X-5.5167 Y19.9989
G1 X-4.9946 Y20.1141
G1 X-4.4717 Y20.2293
G1 X-3.9481 Y20.3445
G1 X-3.4131 Y20.4107
G1 X-2.8777 Y20.4769
G1 X-2.3418 Y20.5432
G1 X-1.8054 Y20.6094
G1 X-1.2638 Y20.6260
G1 X-0.7221 Y20.6426
G1 X-0.1803 Y20.6592
G1 X0.3616 Y20.6758
G1 X0.9025 Y20.6426
G1 X1.4432 Y20.6094
G1 X1.9836 Y20.5762
G1 X2.5238 Y20.5431
G1 X3.0567 Y20.4604
G1 X3.5890 Y20.3778
G1 X4.1208 Y20.2951
G1 X4.6520 Y20.2125
G1 X5.1698 Y20.0812
G1 X5.6868 Y19.9499
G1 X6.2030 Y19.8186
G1 X6.7184 Y19.6873
G1 X7.2146 Y19.5086
G1 X7.7099 Y19.3299
G1 X8.2041 Y19.1512
G1 X8.6973 Y18.9725
G1 X9.1662 Y18.7481
G1 X9.6340 Y18.5237
G1 X10.1007 Y18.2993
G1 X10.5663 Y18.0749
G1 X11.0028 Y17.8070
G1 X11.4383 Y17.5391
G1 X11.8727 Y17.2712
G1 X12.3061 Y17.0033
G1 X12.7062 Y16.6945
G1 X13.1054 Y16.3856
G1 X13.5037 Y16.0768
G1 X13.9012 Y15.7680
G1 X14.2619 Y15.4212
G1 X14.6218 Y15.0744
G1 X14.9811 Y14.7276
G1 X15.3399 Y14.3807
G1 X15.6588 Y13.9993
G1 X15.9774 Y13.6179
G1 X16.2957 Y13.2365
G1 X16.6136 Y12.8550
G1 X16.8894 Y12.4427
G1 X17.1652 Y12.0303
G1 X17.4411 Y11.6179
G1 X17.7170 Y11.2055
G1 X17.9489 Y10.7662
G1 X18.1811 Y10.3268
G1 X18.4137 Y9.8875
G1 X18.6469 Y9.4481
G1 X18.8344 Y8.9860
G1 X19.0228 Y8.5239
G1 X19.2119 Y8.0618
G1 X19.4018 Y7.5997
G1 X19.5452 Y7.1193
G1 X19.6896 Y6.6389
G1 X19.8351 Y6.1585
G1 X19.9817 Y5.6781
G1 X20.0810 Y5.1840
G1 X20.1817 Y4.6900
G1 X20.2837 Y4.1959
G1 X20.3870 Y3.7018
G1 X20.4426 Y3.1988
G1 X20.4996 Y2.6958
G1 X20.5582 Y2.1929
G1 X20.6184 Y1.6899
G1 X20.6304 Y1.1828
G1 X20.6440 Y0.6758
G1 X20.6593 Y0.1687
G1 X20.6761 Y-0.3383
M3 S575
G4 P0.030
(PATH_END id=outline_001)
(Travel to outline path 9)
G1 X11.5464 Y0.1824 F3000.000
M3 S700
G4 P0.060
(PATH_START id=outline_002 kind=outline space=machine_deg source=component_unknown points=129 max_surface_segment_mm=0.2107)
(outline path 9, 129 points)
G1 X11.4829 Y0.7446 F1200.000
G1 X11.4206 Y1.3069
G1 X11.3593 Y1.8692
G1 X11.2991 Y2.4314
G1 X11.1310 Y2.9703
G1 X10.9638 Y3.5092
G1 X10.7974 Y4.0481
G1 X10.6317 Y4.5871
G1 X10.3637 Y5.0819
G1 X10.0961 Y5.5767
G1 X9.8289 Y6.0716
G1 X9.5618 Y6.5664
G1 X9.2018 Y6.9982
G1 X8.8416 Y7.4299
G1 X8.4811 Y7.8617
G1 X8.1205 Y8.2934
G1 X7.6797 Y8.6455
G1 X7.2384 Y8.9976
G1 X6.7966 Y9.3496
G1 X6.3540 Y9.7017
G1 X5.8481 Y9.9606
G1 X5.3414 Y10.2195
G1 X4.8340 Y10.4783
G1 X4.3258 Y10.7372
G1 X3.7740 Y10.8929
G1 X3.2216 Y11.0486
G1 X2.6687 Y11.2043
G1 X2.1152 Y11.3600
G1 X1.5401 Y11.4066
G1 X0.9649 Y11.4532
G1 X0.3895 Y11.4997
G1 X-0.1861 Y11.5463
G1 X-0.7598 Y11.4820
G1 X-1.3333 Y11.4176
G1 X-1.9065 Y11.3532
G1 X-2.4794 Y11.2889
G1 X-3.0271 Y11.1161
G1 X-3.5742 Y10.9432
G1 X-4.1207 Y10.7704
G1 X-4.6667 Y10.5976
G1 X-5.1655 Y10.3230
G1 X-5.6636 Y10.0484
G1 X-6.1610 Y9.7737
G1 X-6.6577 Y9.4991
G1 X-7.0880 Y9.1332
G1 X-7.5178 Y8.7673
G1 X-7.9469 Y8.4014
G1 X-8.3757 Y8.0355
G1 X-8.7220 Y7.5924
G1 X-9.0681 Y7.1494
G1 X-9.4141 Y6.7063
G1 X-9.7600 Y6.2632
G1 X-10.0111 Y5.7599
G1 X-10.2626 Y5.2566
G1 X-10.5145 Y4.7534
G1 X-10.7668 Y4.2501
G1 X-10.9157 Y3.7060
G1 X-11.0655 Y3.1619
G1 X-11.2160 Y2.6178
G1 X-11.3675 Y2.0737
G1 X-11.4106 Y1.5097
G1 X-11.4547 Y0.9457
G1 X-11.5000 Y0.3817
G1 X-11.5464 Y-0.1824
G1 X-11.4829 Y-0.7446
G1 X-11.4206 Y-1.3069
G1 X-11.3593 Y-1.8692
G1 X-11.2991 Y-2.4314
G1 X-11.1310 Y-2.9703
G1 X-10.9638 Y-3.5092
G1 X-10.7974 Y-4.0481
G1 X-10.6317 Y-4.5871
G1 X-10.3637 Y-5.0819
G1 X-10.0961 Y-5.5767
G1 X-9.8289 Y-6.0716
G1 X-9.5618 Y-6.5664
G1 X-9.2018 Y-6.9982
G1 X-8.8416 Y-7.4299
G1 X-8.4811 Y-7.8617
G1 X-8.1205 Y-8.2934
G1 X-7.6797 Y-8.6455
G1 X-7.2384 Y-8.9976
G1 X-6.7966 Y-9.3496
G1 X-6.3540 Y-9.7017
G1 X-5.8481 Y-9.9606
G1 X-5.3414 Y-10.2195
G1 X-4.8340 Y-10.4783
G1 X-4.3258 Y-10.7372
G1 X-3.7740 Y-10.8929
G1 X-3.2216 Y-11.0486
G1 X-2.6687 Y-11.2043
G1 X-2.1152 Y-11.3600
G1 X-1.5401 Y-11.4066
G1 X-0.9649 Y-11.4532
G1 X-0.3895 Y-11.4997
G1 X0.1861 Y-11.5463
G1 X0.7598 Y-11.4820
G1 X1.3333 Y-11.4176
G1 X1.9065 Y-11.3532
G1 X2.4794 Y-11.2889
G1 X3.0271 Y-11.1161
G1 X3.5742 Y-10.9432
G1 X4.1207 Y-10.7704
G1 X4.6667 Y-10.5976
G1 X5.1655 Y-10.3230
G1 X5.6636 Y-10.0484
G1 X6.1610 Y-9.7737
G1 X6.6577 Y-9.4991
G1 X7.0880 Y-9.1332
G1 X7.5178 Y-8.7673
G1 X7.9469 Y-8.4014
G1 X8.3757 Y-8.0355
G1 X8.7220 Y-7.5924
G1 X9.0681 Y-7.1494
G1 X9.4141 Y-6.7063
G1 X9.7600 Y-6.2632
G1 X10.0111 Y-5.7599
G1 X10.2626 Y-5.2566
G1 X10.5145 Y-4.7534
G1 X10.7668 Y-4.2501
G1 X10.9157 Y-3.7060
G1 X11.0655 Y-3.1619
G1 X11.2160 Y-2.6178
G1 X11.3675 Y-2.0737
G1 X11.4106 Y-1.5097
G1 X11.4547 Y-0.9457
G1 X11.5000 Y-0.3817
G1 X11.5464 Y0.1824
M3 S575
G4 P0.030
(PATH_END id=outline_002)
(Return to zero with pen up)
G1 X0.0000 Y0.0000 F3000.000
M3 S575
G4 P0.030
