(Generated for golf ball plotter)
(Units are angular degrees. X=-180..180 ball rotation, Y=-45..45 arm tilt)
G21
G90
M3 S575
G4 P0.030
(Travel to fill-infill path 1)
G1 X2.0754 Y-13.9541 F3000.000
M3 S700
G4 P0.060
(PATH_START id=fill-infill_001 kind=fill-infill space=machine_deg source=component_unknown points=211 max_surface_segment_mm=0.2372)
(fill-infill path 1, 211 points)
G1 X2.0809 Y-14.5553 F1200.000
G1 X2.0867 Y-15.1566
G1 X2.0928 Y-15.7578
G1 X2.0991 Y-16.3590
G1 X2.1057 Y-16.9602
G1 X2.1126 Y-17.5614
G1 X2.1198 Y-18.1626
G1 X2.1272 Y-18.7638
G1 X2.1349 Y-19.3650
G1 X1.6015 Y-19.3912
G1 X1.0678 Y-19.4175
G1 X0.5340 Y-19.4438
G1 X0.0000 Y-19.4700
G1 X-0.6746 Y-19.4388
G1 X-1.3489 Y-19.4075
G1 X-2.0230 Y-19.3763
G1 X-2.6893 Y-19.2828
G1 X-3.3548 Y-19.1894
G1 X-4.0196 Y-19.0959
G1 X-4.6690 Y-18.9412
G1 X-5.3173 Y-18.7864
G1 X-5.9644 Y-18.6317
G1 X-6.5890 Y-18.4171
G1 X-7.2121 Y-18.2025
G1 X-7.8338 Y-17.9880
G1 X-8.4262 Y-17.7156
G1 X-9.0170 Y-17.4433
G1 X-9.6063 Y-17.1710
G1 X-10.1603 Y-16.8436
G1 X-10.7127 Y-16.5162
G1 X-11.2636 Y-16.1887
G1 X-11.7739 Y-15.8093
G1 X-12.2828 Y-15.4299
G1 X-12.7904 Y-15.0505
G1 X-13.2528 Y-14.6228
G1 X-13.7142 Y-14.1951
G1 X-14.1746 Y-13.7674
G1 X-14.5861 Y-13.2955
G1 X-14.9969 Y-12.8236
G1 X-15.4072 Y-12.3517
G1 X-15.7654 Y-11.8401
G1 X-16.1235 Y-11.3285
G1 X-16.4816 Y-10.8170
G1 X-16.7851 Y-10.2707
G1 X-17.0891 Y-9.7244
G1 X-17.3937 Y-9.1781
G1 X-17.6418 Y-8.6024
G1 X-17.8909 Y-8.0266
G1 X-18.1411 Y-7.4509
G1 X-18.3334 Y-6.8512
G1 X-18.5273 Y-6.2515
G1 X-18.7227 Y-5.6518
G1 X-18.8591 Y-5.0340
G1 X-18.9976 Y-4.4162
G1 X-19.1380 Y-3.7984
G1 X-19.2187 Y-3.1684
G1 X-19.3018 Y-2.5384
G1 X-19.3870 Y-1.9084
G1 X-19.4123 Y-1.2723
G1 X-19.4400 Y-0.6361
G1 X-19.4700 Y-0.0000
G1 X-19.4400 Y0.6361
G1 X-19.4123 Y1.2723
G1 X-19.3870 Y1.9084
G1 X-19.3018 Y2.5384
G1 X-19.2187 Y3.1684
G1 X-19.1380 Y3.7984
G1 X-18.9976 Y4.4162
G1 X-18.8591 Y5.0340
G1 X-18.7227 Y5.6518
G1 X-18.5273 Y6.2515
G1 X-18.3334 Y6.8512
G1 X-18.1411 Y7.4509
G1 X-17.8909 Y8.0266
G1 X-17.6418 Y8.6024
G1 X-17.3937 Y9.1781
G1 X-17.0891 Y9.7244
G1 X-16.7851 Y10.2707
G1 X-16.4816 Y10.8170
G1 X-16.1235 Y11.3285
G1 X-15.7654 Y11.8401
G1 X-15.4072 Y12.3517
G1 X-14.9969 Y12.8236
G1 X-14.5861 Y13.2955
G1 X-14.1746 Y13.7674
G1 X-13.7142 Y14.1951
G1 X-13.2528 Y14.6228
G1 X-12.7904 Y15.0505
G1 X-12.2828 Y15.4299
G1 X-11.7739 Y15.8093
G1 X-11.2636 Y16.1887
G1 X-10.7127 Y16.5162
G1 X-10.1603 Y16.8436
G1 X-9.6063 Y17.1710
G1 X-9.0170 Y17.4433
G1 X-8.4262 Y17.7156
G1 X-7.8338 Y17.9880
G1 X-7.2121 Y18.2025
G1 X-6.5890 Y18.4171
G1 X-5.9644 Y18.6317
G1 X-5.3173 Y18.7864
G1 X-4.6690 Y18.9412
G1 X-4.0196 Y19.0959
G1 X-3.3548 Y19.1894
G1 X-2.6893 Y19.2828
G1 X-2.0230 Y19.3763
G1 X-1.3489 Y19.4075
G1 X-0.6746 Y19.4388
G1 X-0.0000 Y19.4700
G1 X0.5340 Y19.4438
G1 X1.0678 Y19.4175
G1 X1.6015 Y19.3912
G1 X2.1349 Y19.3650
G1 X2.1272 Y18.7638
G1 X2.1198 Y18.1626
G1 X2.1126 Y17.5614
G1 X2.1057 Y16.9602
G1 X2.0991 Y16.3590
G1 X2.0928 Y15.7578
G1 X2.0867 Y15.1566
G1 X2.0809 Y14.5553
G1 X2.0754 Y13.9541
G1 X1.5367 Y14.0001
G1 X0.9978 Y14.0460
G1 X0.4586 Y14.0920
G1 X-0.0959 Y14.0781
G1 X-0.6503 Y14.0643
G1 X-1.2046 Y14.0505
G1 X-1.7532 Y13.9753
G1 X-2.3014 Y13.9000
G1 X-2.8493 Y13.8248
G1 X-3.3835 Y13.6892
G1 X-3.9171 Y13.5537
G1 X-4.4501 Y13.4181
G1 X-4.9619 Y13.2239
G1 X-5.4729 Y13.0296
G1 X-5.9833 Y12.8354
G1 X-6.4558 Y12.5908
G1 X-6.9276 Y12.3462
G1 X-7.3986 Y12.1016
G1 X-7.8452 Y11.7995
G1 X-8.2910 Y11.4975
G1 X-8.7361 Y11.1955
G1 X-9.1409 Y10.8446
G1 X-9.5450 Y10.4936
G1 X-9.9487 Y10.1427
G1 X-10.3070 Y9.7475
G1 X-10.6649 Y9.3523
G1 X-11.0226 Y8.9570
G1 X-11.3308 Y8.5227
G1 X-11.6389 Y8.0883
G1 X-11.9470 Y7.6540
G1 X-12.2021 Y7.1862
G1 X-12.4575 Y6.7184
G1 X-12.7133 Y6.2506
G1 X-12.9133 Y5.7555
G1 X-13.1140 Y5.2604
G1 X-13.3153 Y4.7653
G1 X-13.4444 Y4.3135
G1 X-13.5742 Y3.8616
G1 X-13.7047 Y3.4098
G1 X-13.7979 Y2.8812
G1 X-13.8922 Y2.3526
G1 X-13.9876 Y1.8239
G1 X-14.0230 Y1.2874
G1 X-14.0596 Y0.7508
G1 X-14.0974 Y0.2142
G1 X-14.0749 Y-0.3233
G1 X-14.0537 Y-0.8608
G1 X-14.0336 Y-1.3983
G1 X-13.9175 Y-1.9781
G1 X-13.8027 Y-2.5579
G1 X-13.6892 Y-3.1377
G1 X-13.5770 Y-3.7174
G1 X-13.4660 Y-4.2972
G1 X-13.2554 Y-4.8047
G1 X-13.0456 Y-5.3121
G1 X-12.8365 Y-5.8195
G1 X-12.6280 Y-6.3269
G1 X-12.4200 Y-6.8344
G1 X-12.1156 Y-7.2893
G1 X-11.8114 Y-7.7442
G1 X-11.5072 Y-8.1991
G1 X-11.2031 Y-8.6539
G1 X-10.8989 Y-9.1088
G1 X-10.5036 Y-9.4978
G1 X-10.1078 Y-9.8868
G1 X-9.7115 Y-10.2758
G1 X-9.3147 Y-10.6648
G1 X-8.9173 Y-11.0538
G1 X-8.4168 Y-11.3706
G1 X-7.9155 Y-11.6873
G1 X-7.4132 Y-12.0041
G1 X-6.9100 Y-12.3209
G1 X-6.4058 Y-12.6377
G1 X-5.8804 Y-12.8330
G1 X-5.3542 Y-13.0283
G1 X-4.8272 Y-13.2236
G1 X-4.2995 Y-13.4190
G1 X-3.7710 Y-13.6143
G1 X-3.2044 Y-13.7054
G1 X-2.6374 Y-13.7965
G1 X-2.0699 Y-13.8876
G1 X-1.5020 Y-13.9787
G1 X-0.9337 Y-14.0699
G1 X-0.3316 Y-14.0467
G1 X0.2703 Y-14.0236
G1 X0.8721 Y-14.0004
G1 X1.4738 Y-13.9773
G1 X2.0754 Y-13.9541
M3 S575
G4 P0.030
(PATH_END id=fill-infill_001)
(Travel to fill-infill path 2)
G1 X0.8352 Y-15.2861 F3000.000
M3 S700
G4 P0.060
(PATH_START id=fill-infill_002 kind=fill-infill space=machine_deg source=component_unknown points=195 max_surface_segment_mm=0.2420)
(fill-infill path 2, 195 points)
G1 X0.8376 Y-15.8775 F1200.000
G1 X0.8401 Y-16.4689
G1 X0.8427 Y-17.0603
G1 X0.8455 Y-17.6518
G1 X0.8483 Y-18.2432
G1 X0.2510 Y-18.2420
G1 X-0.3462 Y-18.2407
G1 X-0.9435 Y-18.2395
G1 X-1.5689 Y-18.1809
G1 X-2.1939 Y-18.1224
G1 X-2.8184 Y-18.0638
G1 X-3.4324 Y-17.9473
G1 X-4.0456 Y-17.8308
G1 X-4.6580 Y-17.7142
G1 X-5.2531 Y-17.5408
G1 X-5.8470 Y-17.3674
G1 X-6.4399 Y-17.1940
G1 X-7.0090 Y-16.9654
G1 X-7.5769 Y-16.7368
G1 X-8.1435 Y-16.5082
G1 X-8.6804 Y-16.2266
G1 X-9.2160 Y-15.9450
G1 X-9.7504 Y-15.6634
G1 X-10.2497 Y-15.3315
G1 X-10.7479 Y-14.9996
G1 X-11.2448 Y-14.6678
G1 X-11.7021 Y-14.2888
G1 X-12.1584 Y-13.9098
G1 X-12.6138 Y-13.5309
G1 X-13.0255 Y-13.1085
G1 X-13.4365 Y-12.6861
G1 X-13.8469 Y-12.2637
G1 X-14.2102 Y-11.8019
G1 X-14.5733 Y-11.3401
G1 X-14.9362 Y-10.8784
G1 X-15.2493 Y-10.3817
G1 X-15.5626 Y-9.8850
G1 X-15.8761 Y-9.3883
G1 X-16.1376 Y-8.8615
G1 X-16.3998 Y-8.3346
G1 X-16.6627 Y-7.8078
G1 X-16.8719 Y-7.2559
G1 X-17.0822 Y-6.7040
G1 X-17.2936 Y-6.1521
G1 X-17.4501 Y-5.5805
G1 X-17.6081 Y-5.0088
G1 X-17.7675 Y-4.4372
G1 X-17.8711 Y-3.8513
G1 X-17.9765 Y-3.2654
G1 X-18.0836 Y-2.6795
G1 X-18.1344 Y-2.0850
G1 X-18.1871 Y-1.4905
G1 X-18.2417 Y-0.8960
G1 X-18.2397 Y-0.2987
G1 X-18.2397 Y0.2987
G1 X-18.2417 Y0.8960
G1 X-18.1871 Y1.4905
G1 X-18.1344 Y2.0850
G1 X-18.0836 Y2.6795
G1 X-17.9765 Y3.2654
G1 X-17.8711 Y3.8513
G1 X-17.7675 Y4.4372
G1 X-17.6081 Y5.0088
G1 X-17.4501 Y5.5805
G1 X-17.2936 Y6.1521
G1 X-17.0822 Y6.7040
G1 X-16.8719 Y7.2559
G1 X-16.6627 Y7.8078
G1 X-16.3998 Y8.3346
G1 X-16.1376 Y8.8615
G1 X-15.8761 Y9.3883
G1 X-15.5626 Y9.8850
G1 X-15.2493 Y10.3817
G1 X-14.9362 Y10.8784
G1 X-14.5733 Y11.3401
G1 X-14.2102 Y11.8019
G1 X-13.8469 Y12.2637
G1 X-13.4365 Y12.6861
G1 X-13.0255 Y13.1085
G1 X-12.6138 Y13.5309
G1 X-12.1584 Y13.9098
G1 X-11.7021 Y14.2888
G1 X-11.2448 Y14.6678
G1 X-10.7479 Y14.9996
G1 X-10.2497 Y15.3315
G1 X-9.7504 Y15.6634
G1 X-9.2160 Y15.9450
G1 X-8.6804 Y16.2266
G1 X-8.1435 Y16.5082
G1 X-7.5769 Y16.7368
G1 X-7.0090 Y16.9654
G1 X-6.4399 Y17.1940
G1 X-5.8470 Y17.3674
G1 X-5.2531 Y17.5408
G1 X-4.6580 Y17.7142
G1 X-4.0456 Y17.8308
G1 X-3.4324 Y17.9473
G1 X-2.8184 Y18.0638
G1 X-2.1939 Y18.1224
G1 X-1.5689 Y18.1809
G1 X-0.9435 Y18.2395
G1 X-0.3462 Y18.2407
G1 X0.2510 Y18.2420
G1 X0.8483 Y18.2432
G1 X0.8455 Y17.6518
G1 X0.8427 Y17.0603
G1 X0.8401 Y16.4689
G1 X0.8376 Y15.8775
G1 X0.8352 Y15.2861
G1 X0.2199 Y15.2828
G1 X-0.3953 Y15.2796
G1 X-1.0106 Y15.2764
G1 X-1.6290 Y15.2027
G1 X-2.2470 Y15.1291
G1 X-2.8645 Y15.0554
G1 X-3.5148 Y14.8975
G1 X-4.1641 Y14.7396
G1 X-4.8125 Y14.5817
G1 X-5.3873 Y14.3651
G1 X-5.9610 Y14.1486
G1 X-6.5337 Y13.9321
G1 X-7.1149 Y13.6257
G1 X-7.6948 Y13.3194
G1 X-8.2734 Y13.0130
G1 X-8.7662 Y12.6666
G1 X-9.2580 Y12.3201
G1 X-9.7488 Y11.9737
G1 X-10.2248 Y11.5373
G1 X-10.6999 Y11.1008
G1 X-11.1743 Y10.6644
G1 X-11.5572 Y10.2088
G1 X-11.9398 Y9.7532
G1 X-12.3221 Y9.2976
G1 X-12.5987 Y8.8416
G1 X-12.8754 Y8.3856
G1 X-13.1523 Y7.9295
G1 X-13.4294 Y7.4735
G1 X-13.7068 Y7.0175
G1 X-13.9361 Y6.4275
G1 X-14.1664 Y5.8375
G1 X-14.3976 Y5.2475
G1 X-14.6300 Y4.6575
G1 X-14.7394 Y4.1204
G1 X-14.8500 Y3.5832
G1 X-14.9618 Y3.0461
G1 X-15.0747 Y2.5090
G1 X-15.1889 Y1.9719
G1 X-15.2067 Y1.4325
G1 X-15.2259 Y0.8932
G1 X-15.2464 Y0.3539
G1 X-15.2683 Y-0.1854
G1 X-15.2915 Y-0.7248
G1 X-15.2112 Y-1.3579
G1 X-15.1327 Y-1.9911
G1 X-15.0560 Y-2.6242
G1 X-14.9811 Y-3.2573
G1 X-14.8281 Y-3.7726
G1 X-14.6761 Y-4.2878
G1 X-14.5251 Y-4.8031
G1 X-14.3751 Y-5.3183
G1 X-14.2260 Y-5.8335
G1 X-13.9827 Y-6.3214
G1 X-13.7400 Y-6.8092
G1 X-13.4979 Y-7.2971
G1 X-13.2561 Y-7.7849
G1 X-13.0148 Y-8.2728
G1 X-12.6387 Y-8.7794
G1 X-12.2626 Y-9.2861
G1 X-11.8863 Y-9.7927
G1 X-11.5098 Y-10.2994
G1 X-11.1006 Y-10.7083
G1 X-10.6908 Y-11.1172
G1 X-10.2804 Y-11.5261
G1 X-9.8369 Y-11.8747
G1 X-9.3927 Y-12.2232
G1 X-8.9477 Y-12.5718
G1 X-8.5059 Y-12.8455
G1 X-8.0633 Y-13.1192
G1 X-7.6200 Y-13.3929
G1 X-7.0864 Y-13.6460
G1 X-6.5518 Y-13.8992
G1 X-6.0161 Y-14.1523
G1 X-5.4689 Y-14.3388
G1 X-4.9209 Y-14.5253
G1 X-4.3719 Y-14.7118
G1 X-3.7852 Y-14.8407
G1 X-3.1977 Y-14.9697
G1 X-2.6096 Y-15.0987
G1 X-2.0087 Y-15.1617
G1 X-1.4075 Y-15.2247
G1 X-0.8060 Y-15.2877
G1 X-0.2589 Y-15.2871
G1 X0.2882 Y-15.2866
G1 X0.8352 Y-15.2861
M3 S575
G4 P0.030
(PATH_END id=fill-infill_002)
(Travel to fill-infill path 3)
G1 X-0.4202 Y-16.5107 F3000.000
M3 S700
G4 P0.060
(PATH_START id=fill-infill_003 kind=fill-infill space=machine_deg source=component_unknown points=179 max_surface_segment_mm=0.2411)
(fill-infill path 3, 179 points)
G1 X-0.4213 Y-17.0476 F1200.000
G1 X-1.0897 Y-16.9718
G1 X-1.7576 Y-16.8960
G1 X-2.4249 Y-16.8202
G1 X-3.0917 Y-16.7444
G1 X-3.7580 Y-16.6686
G1 X-4.3172 Y-16.5242
G1 X-4.8756 Y-16.3799
G1 X-5.4332 Y-16.2355
G1 X-5.9711 Y-16.0390
G1 X-6.5079 Y-15.8425
G1 X-7.0438 Y-15.6460
G1 X-7.5543 Y-15.3993
G1 X-8.0638 Y-15.1526
G1 X-8.5722 Y-14.9058
G1 X-9.0501 Y-14.6113
G1 X-9.5270 Y-14.3167
G1 X-10.0029 Y-14.0221
G1 X-10.4438 Y-13.6825
G1 X-10.8838 Y-13.3429
G1 X-11.3229 Y-13.0034
G1 X-11.7230 Y-12.6220
G1 X-12.1224 Y-12.2407
G1 X-12.5212 Y-11.8594
G1 X-12.8776 Y-11.4400
G1 X-13.2336 Y-11.0206
G1 X-13.5893 Y-10.6012
G1 X-13.8997 Y-10.1477
G1 X-14.2101 Y-9.6943
G1 X-14.5206 Y-9.2409
G1 X-14.7834 Y-8.7578
G1 X-15.0466 Y-8.2747
G1 X-15.3102 Y-7.7916
G1 X-15.5244 Y-7.2835
G1 X-15.7392 Y-6.7753
G1 X-15.9549 Y-6.2672
G1 X-16.1118 Y-5.6792
G1 X-16.2700 Y-5.0911
G1 X-16.4297 Y-4.5030
G1 X-16.5909 Y-3.9149
G1 X-16.7535 Y-3.3269
G1 X-16.8269 Y-2.7751
G1 X-16.9017 Y-2.2233
G1 X-16.9781 Y-1.6715
G1 X-17.0014 Y-1.1143
G1 X-17.0264 Y-0.5572
G1 X-17.0530 Y-0.0000
G1 X-17.0264 Y0.5572
G1 X-17.0014 Y1.1143
G1 X-16.9781 Y1.6715
G1 X-16.9017 Y2.2233
G1 X-16.8269 Y2.7751
G1 X-16.7535 Y3.3269
G1 X-16.6276 Y3.8680
G1 X-16.5031 Y4.4091
G1 X-16.3798 Y4.9502
G1 X-16.2047 Y5.4754
G1 X-16.0307 Y6.0007
G1 X-15.8576 Y6.5259
G1 X-15.6339 Y7.0302
G1 X-15.4109 Y7.5344
G1 X-15.1886 Y8.0387
G1 X-14.9171 Y8.5172
G1 X-14.6459 Y8.9957
G1 X-14.3751 Y9.4741
G1 X-14.0047 Y9.9512
G1 X-13.6342 Y10.4282
G1 X-13.2635 Y10.9053
G1 X-12.8925 Y11.3823
G1 X-12.5212 Y11.8594
G1 X-12.1224 Y12.2407
G1 X-11.7230 Y12.6220
G1 X-11.3229 Y13.0034
G1 X-10.8838 Y13.3429
G1 X-10.4438 Y13.6825
G1 X-10.0029 Y14.0221
G1 X-9.5270 Y14.3167
G1 X-9.0501 Y14.6113
G1 X-8.5722 Y14.9058
G1 X-8.0638 Y15.1526
G1 X-7.5543 Y15.3993
G1 X-7.0438 Y15.6460
G1 X-6.5079 Y15.8425
G1 X-5.9711 Y16.0390
G1 X-5.4332 Y16.2355
G1 X-4.8756 Y16.3799
G1 X-4.3172 Y16.5242
G1 X-3.7580 Y16.6686
G1 X-3.0917 Y16.7444
G1 X-2.4249 Y16.8202
G1 X-1.7576 Y16.8960
G1 X-1.0897 Y16.9718
G1 X-0.4213 Y17.0476
G1 X-0.4202 Y16.5107
G1 X-1.0418 Y16.4637
G1 X-1.6632 Y16.4168
G1 X-2.2843 Y16.3698
G1 X-2.9032 Y16.2565
G1 X-3.5213 Y16.1431
G1 X-4.1388 Y16.0297
G1 X-4.6969 Y15.8659
G1 X-5.2541 Y15.7020
G1 X-5.8105 Y15.5382
G1 X-6.3825 Y15.3017
G1 X-6.9532 Y15.0652
G1 X-7.5228 Y14.8287
G1 X-8.0364 Y14.5204
G1 X-8.5488 Y14.2121
G1 X-9.0600 Y13.9038
G1 X-9.5701 Y13.5955
G1 X-10.0792 Y13.2873
G1 X-10.5186 Y12.8931
G1 X-10.9571 Y12.4990
G1 X-11.3948 Y12.1048
G1 X-11.8318 Y11.7107
G1 X-12.2681 Y11.3166
G1 X-12.6289 Y10.8371
G1 X-12.9896 Y10.3577
G1 X-13.3500 Y9.8782
G1 X-13.7103 Y9.3988
G1 X-14.0705 Y8.9193
G1 X-14.3419 Y8.3562
G1 X-14.6139 Y7.7930
G1 X-14.8865 Y7.2299
G1 X-15.1600 Y6.6667
G1 X-15.4342 Y6.1036
G1 X-15.5908 Y5.5202
G1 X-15.7487 Y4.9367
G1 X-15.9079 Y4.3533
G1 X-16.0686 Y3.7699
G1 X-16.2307 Y3.1865
G1 X-16.2838 Y2.5565
G1 X-16.3389 Y1.9264
G1 X-16.3959 Y1.2964
G1 X-16.4549 Y0.6663
G1 X-16.5159 Y0.0363
G1 X-16.4620 Y-0.5695
G1 X-16.4100 Y-1.1752
G1 X-16.3598 Y-1.7809
G1 X-16.3114 Y-2.3866
G1 X-16.2647 Y-2.9923
G1 X-16.1005 Y-3.6011
G1 X-15.9379 Y-4.2098
G1 X-15.7768 Y-4.8186
G1 X-15.6172 Y-5.4274
G1 X-15.4591 Y-6.0361
G1 X-15.1797 Y-6.6128
G1 X-14.9013 Y-7.1894
G1 X-14.6237 Y-7.7661
G1 X-14.3468 Y-8.3427
G1 X-14.0705 Y-8.9193
G1 X-13.7103 Y-9.3988
G1 X-13.3500 Y-9.8782
G1 X-12.9896 Y-10.3577
G1 X-12.6289 Y-10.8371
G1 X-12.2681 Y-11.3166
G1 X-11.8318 Y-11.7107
G1 X-11.3948 Y-12.1048
G1 X-10.9571 Y-12.4990
G1 X-10.5186 Y-12.8931
G1 X-10.0792 Y-13.2873
G1 X-9.5701 Y-13.5955
G1 X-9.0600 Y-13.9038
G1 X-8.5488 Y-14.2121
G1 X-8.0364 Y-14.5204
G1 X-7.5228 Y-14.8287
G1 X-6.9532 Y-15.0652
G1 X-6.3825 Y-15.3017
G1 X-5.8105 Y-15.5382
G1 X-5.2541 Y-15.7020
G1 X-4.6969 Y-15.8659
G1 X-4.1388 Y-16.0297
G1 X-3.5213 Y-16.1431
G1 X-2.9032 Y-16.2565
G1 X-2.2843 Y-16.3698
G1 X-1.6632 Y-16.4168
G1 X-1.0418 Y-16.4637
G1 X-0.4202 Y-16.5107
M3 S575
G4 P0.030
(PATH_END id=fill-infill_003)
(Travel to outline path 4)
G1 X3.4388 Y-20.4252 F3000.000
M3 S700
G4 P0.060
(PATH_START id=outline_001 kind=outline space=machine_deg source=component_unknown points=248 max_surface_segment_mm=0.2465)
(outline path 4, 248 points)
G1 X2.7749 Y-20.4949 F1200.000
G1 X2.1103 Y-20.5646
G1 X1.4452 Y-20.6343
G1 X0.9032 Y-20.6426
G1 X0.3611 Y-20.6509
G1 X-0.1810 Y-20.6592
G1 X-0.7231 Y-20.6675
G1 X-1.2632 Y-20.6260
G1 X-1.8029 Y-20.5846
G1 X-2.3424 Y-20.5431
G1 X-2.8816 Y-20.5016
G1 X-3.4125 Y-20.4108
G1 X-3.9427 Y-20.3200
G1 X-4.4723 Y-20.2292
G1 X-5.0014 Y-20.1384
G1 X-5.5161 Y-19.9991
G1 X-6.0299 Y-19.8598
G1 X-6.5428 Y-19.7205
G1 X-7.0549 Y-19.5811
G1 X-7.5470 Y-19.3947
G1 X-8.0380 Y-19.2082
G1 X-8.5280 Y-19.0218
G1 X-9.0170 Y-18.8353
G1 X-9.4808 Y-18.6035
G1 X-9.9435 Y-18.3717
G1 X-10.4052 Y-18.1400
G1 X-10.8657 Y-17.9082
G1 X-11.2964 Y-17.6332
G1 X-11.7261 Y-17.3583
G1 X-12.1547 Y-17.0834
G1 X-12.5824 Y-16.8085
G1 X-12.9761 Y-16.4931
G1 X-13.3689 Y-16.1777
G1 X-13.7609 Y-15.8623
G1 X-14.1521 Y-15.5470
G1 X-14.5060 Y-15.1941
G1 X-14.8591 Y-14.8413
G1 X-15.2117 Y-14.4885
G1 X-15.5638 Y-14.1357
G1 X-15.8756 Y-13.7489
G1 X-16.1872 Y-13.3620
G1 X-16.4984 Y-12.9752
G1 X-16.8095 Y-12.5883
G1 X-17.0780 Y-12.1711
G1 X-17.3466 Y-11.7540
G1 X-17.6153 Y-11.3368
G1 X-17.8841 Y-10.9197
G1 X-18.1086 Y-10.4762
G1 X-18.3335 Y-10.0328
G1 X-18.5589 Y-9.5893
G1 X-18.7848 Y-9.1459
G1 X-18.9651 Y-8.6804
G1 X-19.1461 Y-8.2150
G1 X-19.3279 Y-7.7495
G1 X-19.5106 Y-7.2840
G1 X-19.6466 Y-6.8010
G1 X-19.7837 Y-6.3180
G1 X-19.9220 Y-5.8350
G1 X-20.0614 Y-5.3520
G1 X-20.1534 Y-4.8561
G1 X-20.2468 Y-4.3602
G1 X-20.3415 Y-3.8643
G1 X-20.4377 Y-3.3684
G1 X-20.4859 Y-2.8644
G1 X-20.5357 Y-2.3604
G1 X-20.5871 Y-1.8564
G1 X-20.6400 Y-1.3524
G1 X-20.6448 Y-0.8452
G1 X-20.6512 Y-0.3379
G1 X-20.6593 Y0.1693
G1 X-20.6689 Y0.6766
G1 X-20.6304 Y1.1822
G1 X-20.5935 Y1.6878
G1 X-20.5582 Y2.1935
G1 X-20.5244 Y2.6991
G1 X-20.4427 Y3.1982
G1 X-20.3624 Y3.6974
G1 X-20.2836 Y4.1965
G1 X-20.2062 Y4.6956
G1 X-20.0812 Y5.1834
G1 X-19.9574 Y5.6713
G1 X-19.8349 Y6.1591
G1 X-19.7137 Y6.6469
G1 X-19.5454 Y7.1187
G1 X-19.3780 Y7.5905
G1 X-19.2117 Y8.0624
G1 X-19.0462 Y8.5342
G1 X-18.8347 Y8.9855
G1 X-18.6238 Y9.4367
G1 X-18.4135 Y9.8880
G1 X-18.2037 Y10.3393
G1 X-17.9492 Y10.7657
G1 X-17.6948 Y11.1920
G1 X-17.4408 Y11.6184
G1 X-17.1869 Y12.0448
G1 X-16.8898 Y12.4422
G1 X-16.5926 Y12.8396
G1 X-16.2953 Y13.2369
G1 X-15.9978 Y13.6343
G1 X-15.6592 Y13.9989
G1 X-15.3202 Y14.3634
G1 X-14.9807 Y14.7280
G1 X-14.6407 Y15.0925
G1 X-14.2623 Y15.4207
G1 X-13.8832 Y15.7490
G1 X-13.5033 Y16.0772
G1 X-13.1226 Y16.4054
G1 X-12.7067 Y16.6941
G1 X-12.2899 Y16.9828
G1 X-11.8722 Y17.2716
G1 X-11.4534 Y17.5603
G1 X-11.0034 Y17.8067
G1 X-10.5523 Y18.0532
G1 X-10.1001 Y18.2996
G1 X-9.6469 Y18.5460
G1 X-9.1668 Y18.7478
G1 X-8.6857 Y18.9496
G1 X-8.2035 Y19.1514
G1 X-7.7203 Y19.3532
G1 X-7.2152 Y19.5084
G1 X-6.7093 Y19.6636
G1 X-6.2024 Y19.8188
G1 X-5.6945 Y19.9739
G1 X-5.1704 Y20.0811
G1 X-4.6456 Y20.1882
G1 X-4.1201 Y20.2953
G1 X-3.5939 Y20.4024
G1 X-2.9958 Y20.4484
G1 X-2.3974 Y20.4944
G1 X-1.7986 Y20.5405
G1 X-1.1994 Y20.5865
G1 X-0.5999 Y20.6325
G1 X-0.0000 Y20.6786
G1 X0.6887 Y20.6279
G1 X1.3769 Y20.5772
G1 X2.0647 Y20.5265
G1 X2.7520 Y20.4759
G1 X3.4388 Y20.4252
G1 X3.4243 Y19.7632
G1 X3.4104 Y19.1011
G1 X3.3970 Y18.4391
G1 X3.3842 Y17.7771
G1 X3.3720 Y17.1150
G1 X3.3602 Y16.4530
G1 X3.3490 Y15.7910
G1 X3.3383 Y15.1289
G1 X3.3282 Y14.4669
G1 X3.3185 Y13.8049
G1 X3.3093 Y13.1428
G1 X3.3006 Y12.4808
G1 X2.7737 Y12.5809
G1 X2.2463 Y12.6810
G1 X1.7186 Y12.7811
G1 X1.1482 Y12.8176
G1 X0.5775 Y12.8540
G1 X0.0068 Y12.8905
G1 X-0.5014 Y12.8621
G1 X-1.0095 Y12.8337
G1 X-1.5175 Y12.8053
G1 X-2.0793 Y12.7055
G1 X-2.6407 Y12.6056
G1 X-3.2017 Y12.5058
G1 X-3.6848 Y12.3579
G1 X-4.1674 Y12.2099
G1 X-4.6495 Y12.0620
G1 X-5.1645 Y11.8318
G1 X-5.6788 Y11.6017
G1 X-6.1923 Y11.3715
G1 X-6.6184 Y11.1129
G1 X-7.0439 Y10.8543
G1 X-7.4688 Y10.5957
G1 X-7.9076 Y10.2461
G1 X-8.3457 Y9.8964
G1 X-8.7833 Y9.5468
G1 X-9.1660 Y9.1461
G1 X-9.5483 Y8.7454
G1 X-9.9302 Y8.3446
G1 X-10.2222 Y7.9485
G1 X-10.5141 Y7.5523
G1 X-10.8059 Y7.1561
G1 X-11.0775 Y6.6692
G1 X-11.3493 Y6.1823
G1 X-11.6214 Y5.6954
G1 X-11.8258 Y5.1802
G1 X-12.0307 Y4.6650
G1 X-12.2364 Y4.1498
G1 X-12.3620 Y3.6715
G1 X-12.4884 Y3.1932
G1 X-12.6155 Y2.7149
G1 X-12.6923 Y2.1633
G1 X-12.7701 Y1.6116
G1 X-12.8491 Y1.0600
G1 X-12.8597 Y0.5639
G1 X-12.8712 Y0.0678
G1 X-12.8838 Y-0.4284
G1 X-12.8306 Y-0.9833
G1 X-12.7787 Y-1.5383
G1 X-12.7279 Y-2.0933
G1 X-12.5869 Y-2.6209
G1 X-12.4468 Y-3.1485
G1 X-12.3076 Y-3.6761
G1 X-12.1693 Y-4.2037
G1 X-12.0318 Y-4.7313
G1 X-11.7508 Y-5.2962
G1 X-11.4705 Y-5.8611
G1 X-11.1907 Y-6.4259
G1 X-10.9114 Y-6.9908
G1 X-10.5766 Y-7.4147
G1 X-10.2417 Y-7.8386
G1 X-9.9067 Y-8.2625
G1 X-9.5715 Y-8.6864
G1 X-9.2361 Y-9.1103
G1 X-8.8136 Y-9.4543
G1 X-8.3905 Y-9.7983
G1 X-7.9668 Y-10.1423
G1 X-7.5425 Y-10.4863
G1 X-7.1176 Y-10.8302
G1 X-6.5489 Y-11.1204
G1 X-5.9793 Y-11.4105
G1 X-5.4086 Y-11.7007
G1 X-4.8369 Y-11.9908
G1 X-4.2998 Y-12.1365
G1 X-3.7622 Y-12.2823
G1 X-3.2241 Y-12.4280
G1 X-2.6853 Y-12.5737
G1 X-2.1460 Y-12.7194
G1 X-1.5886 Y-12.7506
G1 X-1.0312 Y-12.7818
G1 X-0.4736 Y-12.8130
G1 X0.0842 Y-12.8441
G1 X0.6421 Y-12.8753
G1 X1.3075 Y-12.7767
G1 X1.9724 Y-12.6781
G1 X2.6368 Y-12.5794
G1 X3.3006 Y-12.4808
G1 X3.3093 Y-13.1428
G1 X3.3185 Y-13.8049
G1 X3.3282 Y-14.4669
G1 X3.3383 Y-15.1289
G1 X3.3490 Y-15.7910
G1 X3.3602 Y-16.4530
G1 X3.3720 Y-17.1150
G1 X3.3842 Y-17.7771
G1 X3.3970 Y-18.4391
G1 X3.4104 Y-19.1011
G1 X3.4243 Y-19.7632
G1 X3.4388 Y-20.4252
M3 S575
G4 P0.030
(PATH_END id=outline_001)
(Return to zero with pen up)
G1 X0.0000 Y0.0000 F3000.000
M3 S575
G4 P0.030
