(Generated for golf ball plotter)
(Units are angular degrees. X=-180..180 ball rotation, Y=-45..45 arm tilt)
$X
G21
G90
M3 S575
G4 P0.030
M3 S700
G4 P0.060
(fill-infill path 1, 12 points)
G1 X0.2935 Y-0.9160 F1200.000
G1 X0.6576 Y-1.3536 F1200.000
G1 X0.4046 Y-1.4419 F1200.000
G1 X-0.0315 Y-1.6918 F1200.000
G1 X-0.3508 Y-1.9683 F1200.000
G1 X-0.6083 Y-2.2989 F1200.000
G1 X-0.8073 Y-1.7564 F1200.000
G1 X-1.2496 Y-1.1779 F1200.000
G1 X-0.6083 Y-0.8870 F1200.000
G1 X-0.2214 Y-0.5669 F1200.000
G1 X0.0195 Y-0.2753 F1200.000
M3 S575
G4 P0.030
(Travel to fill-infill path 2)
G1 X-0.3701 Y-0.1771 F3000.000
M3 S700
G4 P0.060
(fill-infill path 2, 74 points)
G1 X-0.1050 Y0.2638 F1200.000
G1 X2.2147 Y9.2447 F1200.000
G1 X2.5197 Y9.2447 F1200.000
G1 X2.2986 Y8.6507 F1200.000
G1 X0.3578 Y0.6533 F1200.000
G1 X0.3344 Y0.0623 F1200.000
G1 X0.4545 Y-0.4203 F1200.000
G1 X0.7028 Y-0.8511 F1200.000
G1 X0.9794 Y-1.1464 F1200.000
G1 X1.2763 Y-1.3517 F1200.000
G1 X1.6084 Y-1.4932 F1200.000
G1 X6.4491 Y-2.3599 F1200.000
G1 X6.7792 Y-2.3834 F1200.000
G1 X7.1425 Y-2.3383 F1200.000
G1 X7.4757 Y-2.2334 F1200.000
G1 X7.7822 Y-2.0656 F1200.000
G1 X8.0502 Y-1.8415 F1200.000
G1 X8.2952 Y-1.5375 F1200.000
G1 X8.4581 Y-1.2256 F1200.000
G1 X8.5569 Y-0.8878 F1200.000
G1 X8.5875 Y-0.5372 F1200.000
G1 X8.5247 Y-0.0681 F1200.000
G1 X6.4324 Y8.5664 F1200.000
G1 X6.3459 Y8.8985 F1200.000
G1 X6.1905 Y9.2447 F1200.000
G1 X6.4903 Y9.2447 F1200.000
G1 X11.2195 Y-9.2424 F1200.000
G1 X10.7550 Y-9.2430 F1200.000
G1 X9.4896 Y-4.0677 F1200.000
G1 X9.2488 Y-3.5883 F1200.000
G1 X8.8370 Y-3.1530 F1200.000
G1 X8.5436 Y-2.9679 F1200.000
G1 X8.0474 Y-2.7914 F1200.000
G1 X1.2863 Y-1.6398 F1200.000
G1 X0.7282 Y-1.7189 F1200.000
G1 X0.3819 Y-1.8672 F1200.000
G1 X-0.0809 Y-2.2243 F1200.000
G1 X-0.4101 Y-2.7092 F1200.000
G1 X-0.5791 Y-3.2093 F1200.000
G1 X-2.0455 Y-9.2447 F1200.000
G1 X-2.5158 Y-9.2447 F1200.000
G1 X-0.9553 Y-3.1373 F1200.000
G1 X-0.9259 Y-2.7716 F1200.000
G1 X-0.9600 Y-2.4239 F1200.000
G1 X-1.1357 Y-1.9312 F1200.000
G1 X-1.3293 Y-1.6404 F1200.000
G1 X-1.6035 Y-1.3580 F1200.000
G1 X-1.8910 Y-1.1637 F1200.000
G1 X-2.2105 Y-1.0286 F1200.000
G1 X-7.6185 Y-0.0782 F1200.000
G1 X-7.9560 Y-0.0998 F1200.000
G1 X-8.3254 Y-0.1965 F1200.000
G1 X-8.7944 Y-0.4552 F1200.000
G1 X-9.0550 Y-0.7003 F1200.000
G1 X-9.2914 Y-1.0351 F1200.000
G1 X-9.4841 Y-1.5484 F1200.000
G1 X-9.5217 Y-1.9128 F1200.000
G1 X-9.5217 Y-9.2447 F1200.000
G1 X-10.0103 Y-9.2447 F1200.000
G1 X-10.0103 Y9.2498 F1200.000
G1 X-9.5217 Y9.2498 F1200.000
G1 X-9.5217 Y1.9796 F1200.000
G1 X-9.4310 Y1.4176 F1200.000
G1 X-9.2798 Y1.0773 F1200.000
G1 X-9.0991 Y0.8157 F1200.000
G1 X-8.8195 Y0.5435 F1200.000
G1 X-8.5266 Y0.3432 F1200.000
G1 X-8.0279 Y0.1603 F1200.000
G1 X-2.5017 Y-0.8007 F1200.000
G1 X-1.8245 Y-0.8836 F1200.000
G1 X-1.2974 Y-0.8070 F1200.000
G1 X-0.8162 Y-0.5785 F1200.000
G1 X-0.3701 Y-0.1771 F1200.000
M3 S575
G4 P0.030
(Travel to fill-infill path 3)
G1 X-0.6580 Y0.0585 F3000.000
M3 S700
G4 P0.060
(fill-infill path 3, 63 points)
G1 X-0.4480 Y0.4077 F1200.000
G1 X1.9278 Y9.6167 F1200.000
G1 X3.3894 Y9.6167 F1200.000
G1 X2.9869 Y9.2660 F1200.000
G1 X2.7168 Y8.7804 F1200.000
G1 X0.7228 Y0.5812 F1200.000
G1 X0.6967 Y0.2325 F1200.000
G1 X0.7559 Y-0.1569 F1200.000
G1 X0.9201 Y-0.5149 F1200.000
G1 X1.1167 Y-0.7651 F1200.000
G1 X1.4559 Y-1.0260 F1200.000
G1 X1.7189 Y-1.1380 F1200.000
G1 X6.7711 Y-2.0114 F1200.000
G1 X7.3299 Y-1.8912 F1200.000
G1 X7.7848 Y-1.5808 F1200.000
G1 X8.1131 Y-1.0866 F1200.000
G1 X8.2102 Y-0.6809 F1200.000
G1 X8.2071 Y-0.4022 F1200.000
G1 X5.9918 Y8.7844 F1200.000
G1 X5.7303 Y9.2584 F1200.000
G1 X5.3220 Y9.6167 F1200.000
G1 X6.7809 Y9.6167 F1200.000
G1 X11.7024 Y-9.6138 F1200.000
G1 X10.4609 Y-9.6153 F1200.000
G1 X9.1359 Y-4.1829 F1200.000
G1 X8.9452 Y-3.8033 F1200.000
G1 X8.6089 Y-3.4469 F1200.000
G1 X8.2508 Y-3.2446 F1200.000
G1 X7.8639 Y-3.1340 F1200.000
G1 X1.2798 Y-2.0117 F1200.000
G1 X0.8378 Y-2.0744 F1200.000
G1 X0.4372 Y-2.2715 F1200.000
G1 X0.0986 Y-2.5855 F1200.000
G1 X-0.1299 Y-2.9929 F1200.000
G1 X-1.7564 Y-9.6167 F1200.000
G1 X-2.9929 Y-9.6167 F1200.000
G1 X-1.3212 Y-3.0701 F1200.000
G1 X-1.3249 Y-2.4963 F1200.000
G1 X-1.4640 Y-2.1061 F1200.000
G1 X-1.6470 Y-1.8394 F1200.000
G1 X-1.9508 Y-1.5621 F1200.000
G1 X-2.1923 Y-1.4311 F1200.000
G1 X-2.5367 Y-1.3252 F1200.000
G1 X-7.6299 Y-0.4500 F1200.000
G1 X-8.1966 Y-0.5455 F1200.000
G1 X-8.5680 Y-0.7503 F1200.000
G1 X-8.7744 Y-0.9444 F1200.000
G1 X-8.9673 Y-1.2177 F1200.000
G1 X-9.1199 Y-1.6242 F1200.000
G1 X-9.1497 Y-9.6167 F1200.000
G1 X-10.3823 Y-9.6167 F1200.000
G1 X-10.3823 Y9.6218 F1200.000
G1 X-9.1497 Y9.6218 F1200.000
G1 X-9.1497 Y1.9796 F1200.000
G1 X-9.0779 Y1.5345 F1200.000
G1 X-8.8131 Y1.0534 F1200.000
G1 X-8.4680 Y0.7431 F1200.000
G1 X-7.9532 Y0.5248 F1200.000
G1 X-1.8225 Y-0.5116 F1200.000
G1 X-1.4051 Y-0.4509 F1200.000
G1 X-1.0240 Y-0.2700 F1200.000
G1 X-0.6580 Y0.0585 F1200.000
M3 S575
G4 P0.030
(Travel to fill-infill path 4)
G1 X-0.9459 Y0.2941 F3000.000
M3 S700
G4 P0.060
(fill-infill path 4, 42 points)
G1 X-0.7568 Y0.6459 F1200.000
G1 X1.6383 Y9.9887 F1200.000
G1 X7.0717 Y9.9887 F1200.000
G1 X12.1775 Y-9.9852 F1200.000
G1 X10.1692 Y-9.9877 F1200.000
G1 X8.7822 Y-4.2982 F1200.000
G1 X8.5768 Y-3.9359 F1200.000
G1 X8.2978 Y-3.6826 F1200.000
G1 X7.7842 Y-3.4974 F1200.000
G1 X1.2733 Y-2.3836 F1200.000
G1 X0.9474 Y-2.4298 F1200.000
G1 X0.6521 Y-2.5752 F1200.000
G1 X0.3921 Y-2.8139 F1200.000
G1 X0.2163 Y-3.1291 F1200.000
G1 X-1.4594 Y-9.9887 F1200.000
G1 X-3.4741 Y-9.9887 F1200.000
G1 X-1.6871 Y-3.0028 F1200.000
G1 X-1.6749 Y-2.6696 F1200.000
G1 X-1.7488 Y-2.3733 F1200.000
G1 X-1.9054 Y-2.1111 F1200.000
G1 X-2.0778 Y-1.9311 F1200.000
G1 X-2.3371 Y-1.7737 F1200.000
G1 X-2.6164 Y-1.6886 F1200.000
G1 X-7.6413 Y-0.8218 F1200.000
G1 X-8.0677 Y-0.8945 F1200.000
G1 X-8.4212 Y-1.1132 F1200.000
G1 X-8.6432 Y-1.4003 F1200.000
G1 X-8.7722 Y-1.8059 F1200.000
G1 X-8.7777 Y-9.9887 F1200.000
G1 X-10.7543 Y-9.9887 F1200.000
G1 X-10.7543 Y9.9938 F1200.000
G1 X-8.7777 Y9.9938 F1200.000
G1 X-8.7777 Y1.9796 F1200.000
G1 X-8.7248 Y1.6515 F1200.000
G1 X-8.5270 Y1.2912 F1200.000
G1 X-8.2580 Y1.0502 F1200.000
G1 X-7.8784 Y0.8892 F1200.000
G1 X-1.8206 Y-0.1396 F1200.000
G1 X-1.5128 Y-0.0949 F1200.000
G1 X-1.2319 Y0.0386 F1200.000
G1 X-0.9459 Y0.2941 F1200.000
M3 S575
G4 P0.030
(Travel to fill-infill path 5)
G1 X-1.2338 Y0.5297 F3000.000
M3 S700
G4 P0.060
(fill-infill path 5, 39 points)
G1 X-1.1121 Y0.7561 F1200.000
G1 X1.3487 Y10.3607 F1200.000
G1 X7.3558 Y10.3607 F1200.000
G1 X12.6583 Y-10.3566 F1200.000
G1 X9.8801 Y-10.3600 F1200.000
G1 X8.4285 Y-4.4134 F1200.000
G1 X8.2963 Y-4.1802 F1200.000
G1 X8.0993 Y-3.9972 F1200.000
G1 X7.7046 Y-3.8608 F1200.000
G1 X1.2668 Y-2.7556 F1200.000
G1 X1.0570 Y-2.7853 F1200.000
G1 X0.8280 Y-2.9065 F1200.000
G1 X0.6479 Y-3.0962 F1200.000
G1 X0.5428 Y-3.3228 F1200.000
G1 X-1.1705 Y-10.3607 F1200.000
G1 X-3.9493 Y-10.3607 F1200.000
G1 X-2.0667 Y-2.9951 F1200.000
G1 X-2.0451 Y-2.7060 F1200.000
G1 X-2.0927 Y-2.5153 F1200.000
G1 X-2.3150 Y-2.2177 F1200.000
G1 X-2.6960 Y-2.0519 F1200.000
G1 X-7.6527 Y-1.1936 F1200.000
G1 X-7.9389 Y-1.2434 F1200.000
G1 X-8.1664 Y-1.3843 F1200.000
G1 X-8.3191 Y-1.5829 F1200.000
G1 X-8.4021 Y-1.8440 F1200.000
G1 X-8.4057 Y-10.3607 F1200.000
G1 X-11.1263 Y-10.3607 F1200.000
G1 X-11.1263 Y10.3658 F1200.000
G1 X-8.4057 Y10.3658 F1200.000
G1 X-8.4057 Y1.9796 F1200.000
G1 X-8.3455 Y1.7017 F1200.000
G1 X-8.2006 Y1.4847 F1200.000
G1 X-7.9911 Y1.3223 F1200.000
G1 X-7.8037 Y1.2536 F1200.000
G1 X-1.8187 Y0.2324 F1200.000
G1 X-1.4397 Y0.3471 F1200.000
G1 X-1.2338 Y0.5297 F1200.000
M3 S575
G4 P0.030
(Travel to fill-infill path 6)
G1 X-0.1068 Y-0.9656 F3000.000
M3 S700
G4 P0.060
(fill-infill path 6, 5 points)
G1 X0.0433 Y-1.2058 F1200.000
G1 X-0.4808 Y-1.5786 F1200.000
G1 X-0.6322 Y-1.3333 F1200.000
G1 X-0.1068 Y-0.9656 F1200.000
M3 S575
G4 P0.030
(Travel to fill-infill path 7)
G1 X1.3164 Y-0.4281 F3000.000
M3 S700
G4 P0.060
(fill-infill path 7, 21 points)
G1 X1.6355 Y-0.7002 F1200.000
G1 X2.0357 Y-0.8345 F1200.000
G1 X6.7630 Y-1.6395 F1200.000
G1 X7.0882 Y-1.5843 F1200.000
G1 X7.3630 Y-1.4510 F1200.000
G1 X7.6123 Y-1.2129 F1200.000
G1 X7.7680 Y-0.9476 F1200.000
G1 X7.8397 Y-0.6485 F1200.000
G1 X7.7997 Y-0.2351 F1200.000
G1 X5.6378 Y8.6702 F1200.000
G1 X5.3769 Y9.0935 F1200.000
G1 X4.9784 Y9.3770 F1200.000
G1 X4.5831 Y9.4553 F1200.000
G1 X3.8359 Y9.4132 F1200.000
G1 X3.4067 Y9.1635 F1200.000
G1 X3.1074 Y8.7634 F1200.000
G1 X1.1159 Y0.6281 F1200.000
G1 X1.0681 Y0.2952 F1200.000
G1 X1.1124 Y-0.0504 F1200.000
G1 X1.3164 Y-0.4281 F1200.000
M3 S575
G4 P0.030
(Travel to fill-infill path 8)
G1 X1.6541 Y-0.2506 F3000.000
M3 S700
G4 P0.060
(fill-infill path 8, 19 points)
G1 X1.8762 Y-0.4042 F1200.000
G1 X2.1154 Y-0.4711 F1200.000
G1 X6.6926 Y-1.2661 F1200.000
G1 X6.9765 Y-1.2295 F1200.000
G1 X7.1533 Y-1.1437 F1200.000
G1 X7.4230 Y-0.8087 F1200.000
G1 X7.4716 Y-0.5499 F1200.000
G1 X7.4372 Y-0.3187 F1200.000
G1 X5.3006 Y8.4937 F1200.000
G1 X5.1596 Y8.7810 F1200.000
G1 X4.8370 Y9.0329 F1200.000
G1 X4.5826 Y9.0833 F1200.000
G1 X3.9411 Y9.0564 F1200.000
G1 X3.6648 Y8.8957 F1200.000
G1 X3.4487 Y8.6155 F1200.000
G1 X1.4400 Y0.2994 F1200.000
G1 X1.4894 Y-0.0028 F1200.000
G1 X1.6541 Y-0.2506 F1200.000
M3 S575
G4 P0.030
(Travel to fill-infill path 9)
G1 X7.9543 Y-2.3959 F3000.000
M3 S700
G4 P0.060
(fill-infill path 9, 7 points)
G1 X8.4561 Y-1.9444 F1200.000
G1 X8.8140 Y-1.3335 F1200.000
G1 X9.2452 Y-3.0174 F1200.000
G1 X8.8932 Y-2.7387 F1200.000
G1 X8.4259 Y-2.5197 F1200.000
G1 X7.9543 Y-2.3959 F1200.000
M3 S575
G4 P0.030
(Travel to junction-centerline path 10)
G1 X8.6019 Y-2.1680 F3000.000
M3 S700
G4 P0.060
(junction-centerline path 10, 2 points)
G1 X8.8033 Y-2.2624 F1200.000
M3 S575
G4 P0.030
(Travel to fill-infill path 11)
G1 X-8.7240 Y0.0284 F3000.000
M3 S700
G4 P0.060
(fill-infill path 11, 6 points)
G1 X-9.1857 Y-0.3002 F1200.000
G1 X-9.6383 Y-0.8984 F1200.000
G1 X-9.6383 Y0.9623 F1200.000
G1 X-9.2559 Y0.4356 F1200.000
G1 X-8.7240 Y0.0284 F1200.000
M3 S575
G4 P0.030
(Travel to junction-centerline path 12)
G1 X-9.2029 Y0.1684 F3000.000
M3 S700
G4 P0.060
(junction-centerline path 12, 2 points)
G1 X-9.4258 Y-0.1226 F1200.000
M3 S575
G4 P0.030
(Travel to crossed-contour-infill path 13)
G1 X-9.6901 Y-1.1894 F3000.000
M3 S700
G4 P0.060
(crossed-contour-infill path 13, 2 points)
G1 X-9.7281 Y-1.2907 F1200.000
M3 S575
G4 P0.030
(Travel to outline path 14)
G1 X-11.4983 Y-10.7327 F3000.000
M3 S700
G4 P0.060
(outline path 14, 31 points)
G1 X-11.4983 Y10.7378 F1200.000
G1 X-8.0337 Y10.7378 F1200.000
G1 X-8.0337 Y1.9796 F1200.000
G1 X-7.9368 Y1.7470 F1200.000
G1 X-7.7289 Y1.6180 F1200.000
G1 X-1.8167 Y0.6044 F1200.000
G1 X-1.6732 Y0.6402 F1200.000
G1 X-1.5410 Y0.7438 F1200.000
G1 X-1.4207 Y1.0212 F1200.000
G1 X1.0570 Y10.7327 F1200.000
G1 X7.6475 Y10.7327 F1200.000
G1 X13.1365 Y-10.7280 F1200.000
G1 X9.5844 Y-10.7324 F1200.000
G1 X8.0827 Y-4.5577 F1200.000
G1 X7.9008 Y-4.3118 F1200.000
G1 X7.6249 Y-4.2241 F1200.000
G1 X1.2603 Y-3.1275 F1200.000
G1 X1.0197 Y-3.2283 F1200.000
G1 X0.8998 Y-3.4273 F1200.000
G1 X-0.8779 Y-10.7327 F1200.000
G1 X-4.4321 Y-10.7327 F1200.000
G1 X-2.4421 Y-2.9636 F1200.000
G1 X-2.4267 Y-2.6848 F1200.000
G1 X-2.5522 Y-2.5043 F1200.000
G1 X-2.7757 Y-2.4153 F1200.000
G1 X-7.6641 Y-1.5655 F1200.000
G1 X-7.9116 Y-1.6553 F1200.000
G1 X-8.0337 Y-1.9128 F1200.000
G1 X-8.0337 Y-10.7327 F1200.000
G1 X-11.4983 Y-10.7327 F1200.000
M3 S575
G4 P0.030
(Travel to outline path 15)
G1 X1.8120 Y0.3037 F3000.000
M3 S700
G4 P0.060
(outline path 15, 15 points)
G1 X1.8461 Y0.1110 F1200.000
G1 X1.9689 Y-0.0327 F1200.000
G1 X2.4247 Y-0.1495 F1200.000
G1 X6.7189 Y-0.8950 F1200.000
G1 X6.9437 Y-0.8364 F1200.000
G1 X7.0876 Y-0.6417 F1200.000
G1 X7.0747 Y-0.4022 F1200.000
G1 X4.9372 Y8.4140 F1200.000
G1 X4.8547 Y8.5635 F1200.000
G1 X4.6683 Y8.6986 F1200.000
G1 X4.0463 Y8.6996 F1200.000
G1 X3.8571 Y8.5644 F1200.000
G1 X3.7796 Y8.4399 F1200.000
G1 X1.8120 Y0.3037 F1200.000
M3 S575
G4 P0.030
(Return to zero with pen up)
G1 X0.0000 Y0.0000 F3000.000
M3 S575
G4 P0.030