(Generated for golf ball plotter)
(Units are angular degrees. X=-180..180 ball rotation, Y=-45..45 arm tilt)
G21
G90
M3 S575
G4 P0.030
G1 X0.6247 Y-2.9820 F3000.000
M3 S700
G4 P0.060
G1 X0.3669 Y-3.0756 F1200.000
M3 S575
G4 P0.030
G1 X-2.4605 Y-3.8127 F3000.000
M3 S700
G4 P0.060
G1 X-2.6438 Y-3.4485 F1200.000
M3 S575
G4 P0.030
G1 X-7.2975 Y-3.8127 F3000.000
M3 S700
G4 P0.060
G1 X-7.5033 Y-3.5008 F1200.000
G1 X-7.7091 Y-3.1888
G1 X-7.7317 Y-2.9928
M3 S575
G4 P0.030
M3 S700
G4 P0.060
G1 X-7.9294 Y-3.1888
M3 S575
G4 P0.030
G1 X-17.0019 Y-3.5315 F3000.000
M3 S700
G4 P0.060
G1 X-17.3489 Y-3.0508 F1200.000
G1 X-17.6967 Y-2.5700
G1 X-18.0455 Y-2.0892
G1 X-18.0401 Y-1.5569
M3 S575
G4 P0.030
G1 X6.1008 Y-3.0832 F3000.000
M3 S700
G4 P0.060
G1 X6.3504 Y-2.9833 F1200.000
M3 S575
G4 P0.030
G1 X6.6332 Y-0.7229 F3000.000
M3 S700
G4 P0.060
G1 X6.9451 Y-0.3065 F1200.000
G1 X7.2574 Y0.1100
G1 X7.4774 Y0.3299
G1 X7.2577 Y0.5498
G1 X7.3198 Y0.8883
M3 S575
G4 P0.030
G1 X10.5466 Y-2.9928 F3000.000
M3 S700
G4 P0.060
G1 X10.3523 Y-3.1888 F1200.000
G1 X10.5725 Y-3.1888
M3 S575
G4 P0.030
M3 S700
G4 P0.060
G1 X10.7670 Y-3.4754
G1 X10.9618 Y-3.7619
M3 S575
G4 P0.030
G1 X13.4389 Y-3.4088 F3000.000
M3 S700
G4 P0.060
G1 X13.6259 Y-3.5927 F1200.000
M3 S575
G4 P0.030
G1 X14.3374 Y-1.1300 F3000.000
M3 S700
G4 P0.060
G1 X14.5161 Y-0.7697 F1200.000
G1 X14.7353 Y-0.5498
M3 S575
G4 P0.030
G1 X14.7150 Y-0.3498 F3000.000
M3 S700
G4 P0.060
G1 X14.5154 Y-0.5498 F1200.000
M3 S575
G4 P0.030
G1 X16.7676 Y-3.3844 F3000.000
M3 S700
G4 P0.060
G1 X17.0209 Y-3.8127 F1200.000
M3 S575
G4 P0.030
G1 X22.9144 Y-1.3935 F3000.000
M3 S700
G4 P0.060
G1 X23.0968 Y-1.2096 F1200.000
G1 X23.7559 Y-1.2096
G1 X24.4151 Y-1.2096
G1 X25.0742 Y-1.2096
G1 X25.7334 Y-1.2096
G1 X26.3925 Y-1.2096
G1 X27.0516 Y-1.2096
G1 X27.7108 Y-1.2096
G1 X28.3699 Y-1.2096
G1 X29.0291 Y-1.2096
G1 X29.6882 Y-1.2096
G1 X30.3474 Y-1.2096
G1 X31.0065 Y-1.2096
G1 X31.6656 Y-1.2096
G1 X32.3248 Y-1.2096
G1 X32.9839 Y-1.2096
G1 X33.6431 Y-1.2096
G1 X34.3022 Y-1.2096
G1 X34.9614 Y-1.2096
G1 X35.6205 Y-1.2096
G1 X36.2796 Y-1.2096
G1 X36.9388 Y-1.2096
G1 X37.5979 Y-1.2096
G1 X38.2571 Y-1.2096
G1 X38.9162 Y-1.2096
G1 X39.5754 Y-1.2096
G1 X40.2345 Y-1.2096
G1 X40.8936 Y-1.2096
G1 X41.5528 Y-1.2096
G1 X42.2119 Y-1.2096
G1 X42.8711 Y-1.2096
G1 X43.5302 Y-1.2096
G1 X44.1894 Y-1.2096
G1 X44.8485 Y-1.2096
G1 X45.5076 Y-1.2096
G1 X46.1668 Y-1.2096
G1 X46.8259 Y-1.2096
G1 X47.4851 Y-1.2096
G1 X48.1442 Y-1.2096
G1 X48.8034 Y-1.2096
G1 X49.4625 Y-1.2096
G1 X50.1217 Y-1.2096
G1 X50.7808 Y-1.2096
G1 X51.4399 Y-1.2096
G1 X52.0991 Y-1.2096
G1 X52.7582 Y-1.2096
G1 X53.4174 Y-1.2096
G1 X54.0765 Y-1.2096
M3 S575
G4 P0.030
G1 X21.5223 Y-1.3033 F3000.000
M3 S700
G4 P0.060
G1 X22.1911 Y-1.3078 F1200.000
G1 X22.8599 Y-1.3124
G1 X23.5287 Y-1.3169
G1 X24.1975 Y-1.3214
G1 X24.8663 Y-1.3259
G1 X25.5351 Y-1.3304
G1 X26.2039 Y-1.3349
G1 X26.8727 Y-1.3394
G1 X27.5415 Y-1.3439
G1 X28.2103 Y-1.3484
G1 X28.8791 Y-1.3529
G1 X29.5479 Y-1.3575
G1 X30.2167 Y-1.3620
G1 X30.8855 Y-1.3665
G1 X31.5544 Y-1.3710
G1 X32.2232 Y-1.3755
G1 X32.8920 Y-1.3800
G1 X33.5608 Y-1.3845
G1 X34.2297 Y-1.3890
G1 X34.8985 Y-1.3935
G1 X34.2297 Y-1.3890
G1 X33.5608 Y-1.3845
G1 X32.8920 Y-1.3800
G1 X32.2232 Y-1.3755
G1 X31.5544 Y-1.3710
G1 X30.8855 Y-1.3665
G1 X30.2167 Y-1.3620
G1 X29.5479 Y-1.3575
G1 X28.8791 Y-1.3529
G1 X28.2103 Y-1.3484
G1 X27.5415 Y-1.3439
G1 X26.8727 Y-1.3394
G1 X26.2039 Y-1.3349
G1 X25.5351 Y-1.3304
G1 X24.8663 Y-1.3259
G1 X24.1975 Y-1.3214
G1 X23.5287 Y-1.3169
G1 X22.8599 Y-1.3124
G1 X22.1911 Y-1.3078
G1 X21.5223 Y-1.3033
M3 S575
G4 P0.030
G1 X-21.5559 Y-1.2096 F3000.000
M3 S700
G4 P0.060
G1 X-22.2250 Y-1.2096 F1200.000
G1 X-22.8942 Y-1.2096
G1 X-23.5633 Y-1.2096
G1 X-24.2324 Y-1.2096
G1 X-24.9015 Y-1.2096
G1 X-25.5706 Y-1.2096
G1 X-26.2397 Y-1.2096
G1 X-26.9089 Y-1.2096
G1 X-27.5780 Y-1.2096
G1 X-28.2471 Y-1.2096
G1 X-28.9162 Y-1.2096
G1 X-29.5853 Y-1.2096
G1 X-30.2545 Y-1.2096
G1 X-30.9236 Y-1.2096
G1 X-31.5927 Y-1.2096
G1 X-32.2618 Y-1.2096
G1 X-32.9309 Y-1.2096
G1 X-33.6000 Y-1.2096
G1 X-34.2692 Y-1.2096
G1 X-34.9383 Y-1.2096
G1 X-35.6074 Y-1.2096
G1 X-36.2765 Y-1.2096
G1 X-36.9456 Y-1.2096
G1 X-37.6148 Y-1.2096
G1 X-38.2839 Y-1.2096
G1 X-38.9530 Y-1.2096
G1 X-39.6221 Y-1.2096
G1 X-40.2912 Y-1.2096
G1 X-40.9603 Y-1.2096
G1 X-41.6295 Y-1.2096
G1 X-42.2986 Y-1.2096
G1 X-42.9677 Y-1.2096
G1 X-43.6368 Y-1.2096
G1 X-44.3059 Y-1.2096
G1 X-44.9751 Y-1.2096
G1 X-45.6442 Y-1.2096
G1 X-46.3133 Y-1.2096
G1 X-46.9824 Y-1.2096
G1 X-47.6515 Y-1.2096
G1 X-48.3206 Y-1.2096
G1 X-48.9898 Y-1.2096
G1 X-49.6589 Y-1.2096
G1 X-50.3280 Y-1.2096
G1 X-50.9971 Y-1.2096
G1 X-51.6662 Y-1.2096
G1 X-52.3354 Y-1.2096
G1 X-53.0045 Y-1.2096
G1 X-53.6736 Y-1.2096
M3 S575
G4 P0.030
G1 X12.1926 Y2.6164 F3000.000
M3 S700
G4 P0.060
G1 X11.7842 Y2.6544 F1200.000
G1 X11.3757 Y2.6925
M3 S575
G4 P0.030
G1 X-14.9599 Y0.6598 F3000.000
M3 S700
G4 P0.060
G1 X-14.2958 Y0.6598 F1200.000
G1 X-13.6316 Y0.6598
M3 S575
G4 P0.030
G1 X-15.4398 Y4.1785 F3000.000
M3 S700
G4 P0.060
G1 X-14.8489 Y4.1785 F1200.000
G1 X-14.2580 Y4.1785
G1 X-13.6670 Y4.1785
M3 S575
G4 P0.030
G1 X-17.9395 Y2.4191 F3000.000
M3 S700
G4 P0.060
G1 X-17.7224 Y2.6390 F1200.000
G1 X-17.5022 Y2.6390
G1 X-17.2836 Y2.7490
G1 X-17.0635 Y2.7490
G1 X-16.8418 Y2.6390
G1 X-16.6247 Y2.8590
G1 X-16.4077 Y3.0789
G1 X-16.1928 Y3.4088
G1 X-15.9743 Y3.5187
G1 X-15.8555 Y2.9689
G1 X-15.7383 Y2.4191
G1 X-15.5182 Y2.4191
G1 X-15.2969 Y2.3092
G1 X-15.0756 Y2.1992
G1 X-14.8556 Y2.1992
G1 X-14.6355 Y2.1992
G1 X-14.4154 Y2.1992
G1 X-14.1953 Y2.1992
G1 X-13.9752 Y2.1992
G1 X-13.7562 Y2.3092
G1 X-13.5361 Y2.3092
G1 X-13.3170 Y2.4191
G1 X-13.0969 Y2.4191
G1 X-12.8768 Y2.4191
G1 X-12.6567 Y2.4191
M3 S575
G4 P0.030
G1 X-14.3616 Y2.2777 F3000.000
M3 S700
G4 P0.060
G1 X-13.9068 Y2.1106 F1200.000
G1 X-13.4522 Y1.9436
G1 X-12.9978 Y1.7765
M3 S575
G4 P0.030
G1 X-11.5489 Y-1.3195 F3000.000
M3 S700
G4 P0.060
G1 X-11.3280 Y-1.0996 F1200.000
G1 X-11.1080 Y-1.0996
G1 X-10.8877 Y-0.9896
G1 X-10.6677 Y-0.9896
G1 X-10.4481 Y-1.0996
G1 X-10.2275 Y-0.8797
G1 X-10.0067 Y-0.4398
G1 X-9.7865 Y-0.1100
G1 X-9.5666 Y0.2199
G1 X-9.3469 Y0.4398
G1 X-9.1271 Y0.5498
G1 X-8.9074 Y0.6598
G1 X-8.6874 Y0.6598
G1 X-8.4675 Y0.6598
G1 X-8.2474 Y0.5498
G1 X-8.0271 Y0.0000
G1 X-7.8072 Y0.0000
G1 X-7.5873 Y-0.1100
G1 X-7.3673 Y0.0000
G1 X-7.1474 Y-0.1100
G1 X-6.9275 Y0.0000
G1 X-6.7076 Y-0.1100
G1 X-6.4877 Y-0.2199
G1 X-6.2677 Y0.1100
M3 S575
G4 P0.030
G1 X7.9162 Y1.7501 F3000.000
M3 S700
G4 P0.060
G1 X8.1230 Y2.3193 F1200.000
G1 X8.3308 Y2.8885
G1 X8.5397 Y3.4577
G1 X8.7496 Y4.0269
M3 S575
G4 P0.030
G1 X8.0414 Y3.4131 F3000.000
M3 S700
G4 P0.060
G1 X8.0379 Y2.9689 F1200.000
G1 X8.0349 Y2.5247
M3 S575
G4 P0.030
G1 X3.3004 Y-1.7594 F3000.000
M3 S700
G4 P0.060
G1 X3.3008 Y-1.9793 F1200.000
G1 X3.4113 Y-2.1992
G1 X3.3017 Y-2.4191
G1 X3.4124 Y-2.6390
G1 X3.5231 Y-2.8590
G1 X3.9643 Y-3.0789
G1 X3.8550 Y-3.2988
G1 X3.3050 Y-3.5187
G1 X2.8647 Y-3.6287
G1 X2.4243 Y-3.7386
G1 X2.2045 Y-3.9586
G1 X1.8189 Y-4.0685
G1 X1.4333 Y-4.1785
M3 S575
G4 P0.030
G1 X11.4362 Y0.4398 F3000.000
M3 S700
G4 P0.060
G1 X11.3260 Y0.2199 F1200.000
G1 X11.3259 Y0.0000
G1 X11.2160 Y-0.2199
G1 X11.1063 Y-0.4398
G1 X11.1067 Y-0.6598
G1 X10.9973 Y-0.8797
G1 X10.8881 Y-1.0996
G1 X10.8889 Y-1.3195
G1 X10.7800 Y-1.5394
G1 X10.7812 Y-1.7594
M3 S575
G4 P0.030
G1 X-3.0620 Y-2.5201 F3000.000
M3 S700
G4 P0.060
G1 X-2.7480 Y-1.9590 F1200.000
G1 X-2.4345 Y-1.3978
G1 X-2.1214 Y-0.8367
G1 X-1.8085 Y-0.2756
G1 X-1.4959 Y0.2856
M3 S575
G4 P0.030
G1 X1.0059 Y-0.2314 F3000.000
M3 S700
G4 P0.060
G1 X1.5326 Y-0.0865 F1200.000
G1 X2.0593 Y0.0584
G1 X2.5860 Y0.2033
G1 X3.1128 Y0.3482
G1 X3.6395 Y0.4931
M3 S575
G4 P0.030
G1 X-15.9337 Y-4.3155 F3000.000
M3 S700
G4 P0.060
G1 X-15.3347 Y-4.1776 F1200.000
G1 X-14.7359 Y-4.0396
G1 X-14.1374 Y-3.9017
G1 X-13.5392 Y-3.7638
G1 X-12.9413 Y-3.6258
M3 S575
G4 P0.030
G1 X19.5540 Y-2.5702 F3000.000
M3 S700
G4 P0.060
G1 X19.9630 Y-2.1747 F1200.000
G1 X20.3728 Y-1.7792
M3 S575
G4 P0.030
G1 X6.7464 Y-4.3891 F3000.000
M3 S700
G4 P0.060
G1 X7.2185 Y-4.2096 F1200.000
G1 X7.6906 Y-4.0302
G1 X8.1624 Y-3.8508
G1 X8.6342 Y-3.6713
M3 S575
G4 P0.030
G1 X-4.5120 Y-2.3048 F3000.000
M3 S700
G4 P0.060
G1 X-4.5108 Y-1.8737 F1200.000
M3 S575
G4 P0.030
G1 X17.6022 Y-2.1992 F3000.000
M3 S700
G4 P0.060
G1 X16.9507 Y-2.1992 F1200.000
M3 S575
G4 P0.030
G1 X-9.7974 Y-4.1772 F3000.000
M3 S700
G4 P0.060
G1 X-9.4836 Y-3.7895 F1200.000
M3 S575
G4 P0.030
G1 X-4.0537 Y0.4961 F3000.000
M3 S700
G4 P0.060
G1 X-3.7783 Y0.5565 F1200.000
M3 S575
G4 P0.030
G1 X-54.1168 Y-1.2096 F3000.000
M3 S700
G4 P0.060
G1 X-53.4567 Y-1.2096 F1200.000
G1 X-52.7966 Y-1.2096
G1 X-52.1366 Y-1.2096
G1 X-51.4765 Y-1.2096
G1 X-50.8164 Y-1.2096
G1 X-50.1563 Y-1.2096
G1 X-49.4962 Y-1.2096
G1 X-48.8361 Y-1.2096
G1 X-48.1761 Y-1.2096
G1 X-47.5160 Y-1.2096
G1 X-46.8559 Y-1.2096
G1 X-46.1958 Y-1.2096
G1 X-45.5357 Y-1.2096
G1 X-44.8757 Y-1.2096
G1 X-44.2156 Y-1.2096
G1 X-43.5555 Y-1.2096
G1 X-42.8954 Y-1.2096
G1 X-42.2353 Y-1.2096
G1 X-41.5752 Y-1.2096
G1 X-40.9152 Y-1.2096
G1 X-40.2551 Y-1.2096
G1 X-39.5950 Y-1.2096
G1 X-38.9349 Y-1.2096
G1 X-38.2748 Y-1.2096
G1 X-37.6148 Y-1.2096
G1 X-36.9547 Y-1.2096
G1 X-36.2946 Y-1.2096
G1 X-35.6345 Y-1.2096
G1 X-34.9744 Y-1.2096
G1 X-34.3143 Y-1.2096
G1 X-33.6543 Y-1.2096
G1 X-32.9942 Y-1.2096
G1 X-32.3341 Y-1.2096
G1 X-31.6740 Y-1.2096
G1 X-31.0139 Y-1.2096
G1 X-30.3539 Y-1.2096
G1 X-29.6938 Y-1.2096
G1 X-29.0337 Y-1.2096
G1 X-28.3736 Y-1.2096
G1 X-27.7135 Y-1.2096
G1 X-27.0534 Y-1.2096
G1 X-26.3934 Y-1.2096
G1 X-25.7333 Y-1.2096
G1 X-25.0732 Y-1.2096
G1 X-24.4131 Y-1.2096
G1 X-23.7530 Y-1.2096
G1 X-23.0930 Y-1.2096
G1 X-22.4329 Y-1.2096
G1 X-21.7728 Y-1.2096
G1 X-21.1127 Y-1.2096
M3 S575
G4 P0.030
G1 X9.1296 Y1.4338 F3000.000
M3 S700
G4 P0.060
G1 X9.1315 Y1.8650 F1200.000
M3 S575
G4 P0.030
G1 X-17.6795 Y1.3351 F3000.000
M3 S700
G4 P0.060
G1 X-17.8715 Y0.7070 F1200.000
G1 X-18.0655 Y0.0790
G1 X-18.0622 Y-0.4396
G1 X-18.0603 Y-0.9581
G1 X-18.0599 Y-1.4767
G1 X-17.8877 Y-1.9232
G1 X-17.7164 Y-2.3696
G1 X-17.5462 Y-2.8161
G1 X-17.1948 Y-3.1936
G1 X-16.8440 Y-3.5711
G1 X-17.3231 Y-3.4510
G1 X-17.6251 Y-3.0436
G1 X-17.9278 Y-2.6363
G1 X-18.2312 Y-2.2289
G1 X-18.2246 Y-1.6093
G1 X-18.2202 Y-0.9896
G1 X-18.2178 Y-0.3700
G1 X-18.2176 Y0.2497
G1 X-17.9478 Y0.7924
G1 X-17.6795 Y1.3351
M3 S575
G4 P0.030
G1 X-11.4311 Y-2.9884 F3000.000
M3 S700
G4 P0.060
G1 X-11.2536 Y-2.7261 F1200.000
G1 X-11.1711 Y-3.2454
G1 X-10.9132 Y-3.5290
G1 X-10.6555 Y-3.8127
G1 X-11.0432 Y-3.4005
G1 X-11.4311 Y-2.9884
M3 S575
G4 P0.030
G1 X-8.0213 Y-3.0755 F3000.000
M3 S700
G4 P0.060
G1 X-7.7294 Y-2.5108 F1200.000
G1 X-7.6836 Y-3.1673
G1 X-7.4276 Y-3.4684
G1 X-7.1718 Y-3.7696
G1 X-7.4364 Y-3.8127
G1 X-7.7288 Y-3.4441
G1 X-8.0213 Y-3.0755
M3 S575
G4 P0.030
G1 X-3.5933 Y-0.7352 F3000.000
M3 S700
G4 P0.060
G1 X-3.9623 Y-0.6867 F1200.000
G1 X-3.9227 Y-0.3310
G1 X-3.5933 Y-0.7352
M3 S575
G4 P0.030
G1 X-2.7857 Y-1.2437 F3000.000
M3 S700
G4 P0.060
G1 X-2.5390 Y-1.2166 F1200.000
G1 X-2.5854 Y-1.4476
G1 X-2.6200 Y-1.4096
G1 X-2.7857 Y-1.2437
M3 S575
G4 P0.030
G1 X-2.8274 Y-3.1896 F3000.000
M3 S700
G4 P0.060
G1 X-2.7167 Y-3.3701 F1200.000
G1 X-2.2815 Y-3.8112
G1 X-2.8293 Y-3.8127
G1 X-2.8274 Y-3.1896
M3 S575
G4 P0.030
G1 X0.2590 Y-2.9678 F3000.000
M3 S700
G4 P0.060
G1 X0.4472 Y-2.6337 F1200.000
G1 X0.5356 Y-2.1156
G1 X0.6241 Y-1.5975
G1 X0.6473 Y-2.1995
G1 X0.6706 Y-2.8015
G1 X0.6940 Y-3.4034
G1 X0.2590 Y-2.9678
M3 S575
G4 P0.030
G1 X0.8826 Y-3.7240 F3000.000
M3 S700
G4 P0.060
G1 X0.8615 Y-3.6486 F1200.000
G1 X1.0262 Y-3.8127
G1 X0.8826 Y-3.7240
M3 S575
G4 P0.030
G1 X5.9132 Y-2.8969 F3000.000
M3 S700
G4 P0.060
G1 X6.2429 Y-2.4826 F1200.000
G1 X6.3469 Y-2.3098
G1 X6.3842 Y-2.8566
G1 X6.4221 Y-3.4034
G1 X6.1675 Y-3.1502
G1 X5.9132 Y-2.8969
M3 S575
G4 P0.030
G1 X6.6126 Y-3.7240 F3000.000
M3 S700
G4 P0.060
G1 X6.5911 Y-3.6486 F1200.000
G1 X6.7568 Y-3.8127
G1 X6.6126 Y-3.7240
M3 S575
G4 P0.030
G1 X10.0498 Y-3.0898 F3000.000
M3 S700
G4 P0.060
G1 X10.2901 Y-2.8115 F1200.000
G1 X10.5305 Y-2.5331
G1 X10.5978 Y-3.1673
G1 X10.8247 Y-3.4343
G1 X11.0520 Y-3.7014
G1 X10.6371 Y-3.8127
G1 X10.3431 Y-3.4512
G1 X10.0498 Y-3.0898
M3 S575
G4 P0.030
G1 X13.1342 Y-3.3116 F3000.000
M3 S700
G4 P0.060
G1 X13.3757 Y-3.0673 F1200.000
G1 X13.6174 Y-2.8229
G1 X13.6214 Y-3.2147
G1 X13.6261 Y-3.6066
G1 X13.4145 Y-3.6777
G1 X13.1342 Y-3.3116
M3 S575
G4 P0.030
G1 X13.8983 Y-1.8686 F3000.000
M3 S700
G4 P0.060
G1 X13.8957 Y-1.5097 F1200.000
G1 X14.0979 Y-1.0005
G1 X14.3011 Y-0.4912
G1 X14.5054 Y0.0180
G1 X14.7103 Y-0.2659
G1 X14.9155 Y-0.5498
G1 X14.5757 Y-0.9894
G1 X14.2366 Y-1.4290
G1 X13.8983 Y-1.8686
M3 S575
G4 P0.030
G1 X16.9737 Y-0.1100 F3000.000
M3 S700
G4 P0.060
G1 X17.5577 Y0.0740 F1200.000
G1 X17.4805 Y-0.3528
G1 X17.4043 Y-0.7797
G1 X17.2744 Y-0.4321
G1 X16.9737 Y-0.1100
M3 S575
G4 P0.030
G1 X16.7005 Y-2.9730 F3000.000
M3 S700
G4 P0.060
G1 X16.8037 Y-3.4587 F1200.000
G1 X17.1160 Y-3.8127
G1 X16.8241 Y-3.8127
G1 X16.5603 Y-3.4701
G1 X16.7005 Y-2.9730
M3 S575
G4 P0.030
G1 X21.3426 Y-1.3935 F3000.000
M3 S700
G4 P0.060
G1 X21.7091 Y-1.2096 F1200.000
G1 X22.0758 Y-1.0256
G1 X22.7424 Y-1.0256
G1 X23.4090 Y-1.0256
G1 X24.0756 Y-1.0256
G1 X24.7422 Y-1.0256
G1 X25.4089 Y-1.0256
G1 X26.0755 Y-1.0256
G1 X26.7421 Y-1.0256
G1 X27.4087 Y-1.0256
G1 X28.0753 Y-1.0256
G1 X28.7419 Y-1.0256
G1 X29.4085 Y-1.0256
G1 X30.0751 Y-1.0256
G1 X30.7417 Y-1.0256
G1 X31.4084 Y-1.0256
G1 X32.0750 Y-1.0256
G1 X32.7416 Y-1.0256
G1 X33.4082 Y-1.0256
G1 X34.0748 Y-1.0256
G1 X34.7414 Y-1.0256
G1 X35.4080 Y-1.0256
G1 X36.0746 Y-1.0256
G1 X36.7412 Y-1.0256
G1 X37.4078 Y-1.0256
G1 X38.0745 Y-1.0256
G1 X38.7411 Y-1.0256
G1 X39.4077 Y-1.0256
G1 X40.0743 Y-1.0256
G1 X40.7409 Y-1.0256
G1 X41.4075 Y-1.0256
G1 X42.0741 Y-1.0256
G1 X42.7407 Y-1.0256
G1 X43.4073 Y-1.0256
G1 X44.0740 Y-1.0256
G1 X44.7406 Y-1.0256
G1 X45.4072 Y-1.0256
G1 X46.0738 Y-1.0256
G1 X46.7404 Y-1.0256
G1 X47.4070 Y-1.0256
G1 X48.0736 Y-1.0256
G1 X48.7402 Y-1.0256
G1 X49.4068 Y-1.0256
G1 X50.0735 Y-1.0256
G1 X50.7401 Y-1.0256
G1 X51.4067 Y-1.0256
G1 X52.0733 Y-1.0256
G1 X52.7399 Y-1.0256
G1 X53.4065 Y-1.0256
G1 X54.0731 Y-1.0256
G1 X54.0805 Y-1.3935
G1 X53.4123 Y-1.3935
G1 X52.7442 Y-1.3935
G1 X52.0761 Y-1.3935
G1 X51.4080 Y-1.3935
G1 X50.7399 Y-1.3935
G1 X50.0717 Y-1.3935
G1 X49.4036 Y-1.3935
G1 X48.7355 Y-1.3935
G1 X48.0674 Y-1.3935
G1 X47.3993 Y-1.3935
G1 X46.7312 Y-1.3935
G1 X46.0630 Y-1.3935
G1 X45.3949 Y-1.3935
G1 X44.7268 Y-1.3935
G1 X44.0587 Y-1.3935
G1 X43.3906 Y-1.3935
G1 X42.7224 Y-1.3935
G1 X42.0543 Y-1.3935
G1 X41.3862 Y-1.3935
G1 X40.7181 Y-1.3935
G1 X40.0500 Y-1.3935
G1 X39.3818 Y-1.3935
G1 X38.7137 Y-1.3935
G1 X38.0456 Y-1.3935
G1 X37.3775 Y-1.3935
G1 X36.7094 Y-1.3935
G1 X36.0413 Y-1.3935
G1 X35.3731 Y-1.3935
G1 X34.7050 Y-1.3935
G1 X34.0369 Y-1.3935
G1 X33.3688 Y-1.3935
G1 X32.7007 Y-1.3935
G1 X32.0325 Y-1.3935
G1 X31.3644 Y-1.3935
G1 X30.6963 Y-1.3935
G1 X30.0282 Y-1.3935
G1 X29.3601 Y-1.3935
G1 X28.6919 Y-1.3935
G1 X28.0238 Y-1.3935
G1 X27.3557 Y-1.3935
G1 X26.6876 Y-1.3935
G1 X26.0195 Y-1.3935
G1 X25.3514 Y-1.3935
G1 X24.6832 Y-1.3935
G1 X24.0151 Y-1.3935
G1 X23.3470 Y-1.3935
G1 X22.6789 Y-1.3935
G1 X22.0108 Y-1.3935
G1 X21.3426 Y-1.3935
M3 S575
G4 P0.030
G1 X6.5666 Y-0.9831 F3000.000
M3 S700
G4 P0.060
G1 X6.6529 Y-0.4433 F1200.000
G1 X6.7398 Y0.0965
G1 X6.8273 Y0.6363
G1 X7.0942 Y1.1680
G1 X7.4130 Y0.8243
G1 X7.7320 Y0.4806
G1 X7.3430 Y-0.0073
G1 X6.9546 Y-0.4952
G1 X6.5666 Y-0.9831
M3 S575
G4 P0.030
G1 X3.3355 Y-1.2088 F3000.000
M3 S700
G4 P0.060
G1 X3.3352 Y-0.9037 F1200.000
G1 X3.4830 Y-0.6816
G1 X3.4833 Y-0.9875
G1 X3.3355 Y-1.2088
M3 S575
G4 P0.030
G1 X-7.4719 Y-2.0393 F3000.000
M3 S700
G4 P0.060
G1 X-7.4444 Y-1.6516 F1200.000
G1 X-7.4092 Y-1.6128
G1 X-7.4719 Y-2.0393
M3 S575
G4 P0.030
G1 X-7.2218 Y-0.5476 F3000.000
M3 S700
G4 P0.060
G1 X-7.2216 Y-0.3658 F1200.000
G1 X-7.1066 Y-0.3638
G1 X-7.1521 Y-0.4237
G1 X-7.2218 Y-0.5476
M3 S575
G4 P0.030
G1 X-11.1789 Y-2.3004 F3000.000
M3 S700
G4 P0.060
G1 X-11.1895 Y-2.3610 F1200.000
G1 X-11.1891 Y-2.3115
G1 X-11.1789 Y-2.3004
M3 S575
G4 P0.030
G1 X-21.1545 Y-1.3935 F3000.000
M3 S700
G4 P0.060
G1 X-21.8131 Y-1.3935 F1200.000
G1 X-22.4716 Y-1.3935
G1 X-23.1301 Y-1.3935
G1 X-23.7886 Y-1.3935
G1 X-24.4471 Y-1.3935
G1 X-25.1057 Y-1.3935
G1 X-25.7642 Y-1.3935
G1 X-26.4227 Y-1.3935
G1 X-27.0812 Y-1.3935
G1 X-27.7397 Y-1.3935
G1 X-28.3982 Y-1.3935
G1 X-29.0568 Y-1.3935
G1 X-29.7153 Y-1.3935
G1 X-30.3738 Y-1.3935
G1 X-31.0323 Y-1.3935
G1 X-31.6908 Y-1.3935
G1 X-32.3494 Y-1.3935
G1 X-33.0079 Y-1.3935
G1 X-33.6664 Y-1.3935
G1 X-34.3249 Y-1.3935
G1 X-34.9834 Y-1.3935
G1 X-35.6419 Y-1.3935
G1 X-36.3005 Y-1.3935
G1 X-36.9590 Y-1.3935
G1 X-37.6175 Y-1.3935
G1 X-38.2760 Y-1.3935
G1 X-38.9345 Y-1.3935
G1 X-39.5931 Y-1.3935
G1 X-40.2516 Y-1.3935
G1 X-40.9101 Y-1.3935
G1 X-41.5686 Y-1.3935
G1 X-42.2271 Y-1.3935
G1 X-42.8856 Y-1.3935
G1 X-43.5442 Y-1.3935
G1 X-44.2027 Y-1.3935
G1 X-44.8612 Y-1.3935
G1 X-45.5197 Y-1.3935
G1 X-46.1782 Y-1.3935
G1 X-46.8368 Y-1.3935
G1 X-47.4953 Y-1.3935
G1 X-48.1538 Y-1.3935
G1 X-48.8123 Y-1.3935
G1 X-49.4708 Y-1.3935
G1 X-50.1293 Y-1.3935
G1 X-50.7879 Y-1.3935
G1 X-51.4464 Y-1.3935
G1 X-52.1049 Y-1.3935
G1 X-52.7634 Y-1.3935
G1 X-53.4219 Y-1.3935
G1 X-54.0805 Y-1.3935
G1 X-54.0731 Y-1.0256
G1 X-53.4147 Y-1.0256
G1 X-52.7563 Y-1.0256
G1 X-52.0978 Y-1.0256
G1 X-51.4394 Y-1.0256
G1 X-50.7810 Y-1.0256
G1 X-50.1225 Y-1.0256
G1 X-49.4641 Y-1.0256
G1 X-48.8057 Y-1.0256
G1 X-48.1473 Y-1.0256
G1 X-47.4888 Y-1.0256
G1 X-46.8304 Y-1.0256
G1 X-46.1720 Y-1.0256
G1 X-45.5135 Y-1.0256
G1 X-44.8551 Y-1.0256
G1 X-44.1967 Y-1.0256
G1 X-43.5383 Y-1.0256
G1 X-42.8798 Y-1.0256
G1 X-42.2214 Y-1.0256
G1 X-41.5630 Y-1.0256
G1 X-40.9045 Y-1.0256
G1 X-40.2461 Y-1.0256
G1 X-39.5877 Y-1.0256
G1 X-38.9293 Y-1.0256
G1 X-38.2708 Y-1.0256
G1 X-37.6124 Y-1.0256
G1 X-36.9540 Y-1.0256
G1 X-36.2955 Y-1.0256
G1 X-35.6371 Y-1.0256
G1 X-34.9787 Y-1.0256
G1 X-34.3203 Y-1.0256
G1 X-33.6618 Y-1.0256
G1 X-33.0034 Y-1.0256
G1 X-32.3450 Y-1.0256
G1 X-31.6865 Y-1.0256
G1 X-31.0281 Y-1.0256
G1 X-30.3697 Y-1.0256
G1 X-29.7113 Y-1.0256
G1 X-29.0528 Y-1.0256
G1 X-28.3944 Y-1.0256
G1 X-27.7360 Y-1.0256
G1 X-27.0775 Y-1.0256
G1 X-26.4191 Y-1.0256
G1 X-25.7607 Y-1.0256
G1 X-25.1023 Y-1.0256
G1 X-24.4438 Y-1.0256
G1 X-23.7854 Y-1.0256
G1 X-23.1270 Y-1.0256
G1 X-22.4685 Y-1.0256
G1 X-21.8101 Y-1.0256
G1 X-21.1517 Y-1.0256
G1 X-21.1545 Y-1.3935
M3 S575
G4 P0.030
G1 X0.0000 Y0.0000 F3000.000
M3 S575
G4 P0.030