(Generated for golf ball plotter)
(Units are angular degrees. X=-180..180 ball rotation, Y=-45..45 arm tilt)
G21
G90
M3 S575
G4 P0.030
G1 X0.7091 Y-1.8752 F3000.000
M3 S700
G4 P0.060
G1 X0.6435 Y-2.3808 F1200.000
G1 X0.5779 Y-2.8865
G1 X0.1881 Y-3.0281
G1 X0.7985 Y-3.3315
M3 S575
G4 P0.030
M3 S700
G4 P0.060
G1 X1.1485 Y-3.8949
M3 S575
G4 P0.030
G1 X-2.1185 Y-3.7661 F3000.000
M3 S700
G4 P0.060
G1 X-2.7268 Y-3.5462 F1200.000
G1 X-2.7255 Y-3.0623
M3 S575
G4 P0.030
G1 X-2.5024 Y-1.3470 F3000.000
M3 S700
G4 P0.060
G1 X-2.7221 Y-1.1271 F1200.000
G1 X-3.0687 Y-1.1271
G1 X-3.8217 Y-0.9072
M3 S575
G4 P0.030
M3 S700
G4 P0.060
G1 X-3.8214 Y-0.5614
G1 X-3.8212 Y-0.2157
M3 S575
G4 P0.030
G1 X-7.3415 Y-1.1992 F3000.000
M3 S700
G4 P0.060
G1 X-7.3425 Y-1.5060 F1200.000
G1 X-7.4303 Y-2.0014
M3 S575
G4 P0.030
M3 S700
G4 P0.060
G1 X-7.6097 Y-2.4439
G1 X-7.7897 Y-2.8865
G1 X-7.7912 Y-3.1064
M3 S575
G4 P0.030
M3 S700
G4 P0.060
G1 X-7.5735 Y-3.4363
G1 X-7.3558 Y-3.7661
G1 X-7.0373 Y-3.7208
M3 S575
G4 P0.030
G1 X-10.5060 Y-3.7661 F3000.000
M3 S700
G4 P0.060
G1 X-10.9105 Y-3.4363 F1200.000
G1 X-11.3151 Y-3.1064
G1 X-11.0868 Y-2.1997
M3 S575
G4 P0.030
M3 S700
G4 P0.060
G1 X-11.0052 Y-1.8351
G1 X-10.9240 Y-1.4706
M3 S575
G4 P0.030
G1 X-16.4210 Y-3.8951 F3000.000
M3 S700
G4 P0.060
G1 X-16.8432 Y-3.6107 F1200.000
G1 X-17.2654 Y-3.3263
G1 X-17.5518 Y-2.8865
G1 X-17.8391 Y-2.4466
G1 X-18.1271 Y-2.0068
G1 X-18.1219 Y-1.4570
G1 X-18.1183 Y-0.9072
G1 X-18.1164 Y-0.3574
G1 X-18.1161 Y0.1924
G1 X-17.9314 Y0.5634
G1 X-17.7474 Y0.9344
G1 X-17.4649 Y1.7967
M3 S575
G4 P0.030
M3 S700
G4 P0.060
G1 X-17.2959 Y2.1434
M3 S575
G4 P0.030
G1 X3.4370 Y-1.2861 F3000.000
M3 S700
G4 P0.060
G1 X3.5671 Y-0.7766 F1200.000
M3 S575
G4 P0.030
G1 X6.5035 Y-0.8089 F3000.000
M3 S700
G4 P0.060
G1 X6.4527 Y-1.3283 F1200.000
G1 X6.4023 Y-1.8477
G1 X6.3525 Y-2.3671
G1 X6.3031 Y-2.8865
G1 X5.9175 Y-3.0409
G1 X6.5261 Y-3.3316
M3 S575
G4 P0.030
M3 S700
G4 P0.060
G1 X6.8797 Y-3.8949
M3 S575
G4 P0.030
G1 X6.5378 Y-0.6575 F3000.000
M3 S700
G4 P0.060
G1 X6.8561 Y-0.2325 F1200.000
G1 X7.1748 Y0.1924
G1 X7.3949 Y0.4124
G1 X7.8091 Y0.5780
G1 X7.1752 Y0.6323
M3 S575
G4 P0.030
M3 S700
G4 P0.060
G1 X7.2651 Y1.1214
M3 S575
G4 P0.030
G1 X11.1066 Y-0.4095 F3000.000
M3 S700
G4 P0.060
G1 X11.0491 Y-0.7586 F1200.000
G1 X10.9921 Y-1.1076
G1 X10.6992 Y-1.8680
M3 S575
G4 P0.030
M3 S700
G4 P0.060
G1 X10.7012 Y-2.1740
G1 X10.4869 Y-2.8865
M3 S575
G4 P0.030
M3 S700
G4 P0.060
G1 X10.2688 Y-3.1064
G1 X10.4890 Y-3.1064
M3 S575
G4 P0.030
M3 S700
G4 P0.060
G1 X10.7904 Y-3.4363
G1 X11.0923 Y-3.7661
M3 S575
G4 P0.030
G1 X13.3551 Y-3.3263 F3000.000
M3 S700
G4 P0.060
G1 X13.5785 Y-3.5462 F1200.000
M3 S575
G4 P0.030
G1 X13.7869 Y-2.6253 F3000.000
M3 S700
G4 P0.060
G1 X13.7809 Y-2.0068 F1200.000
G1 X13.9976 Y-1.5669
G1 X14.2150 Y-1.1271
G1 X14.4332 Y-0.6873
G1 X14.4327 Y-0.4673
M3 S575
G4 P0.030
M3 S700
G4 P0.060
G1 X14.6522 Y-0.2474
G1 X14.8725 Y-0.4673
M3 S575
G4 P0.030
G1 X17.0714 Y-0.2474 F3000.000
M3 S700
G4 P0.060
G1 X17.2917 Y-0.4673 F1200.000
G1 X17.2933 Y-0.9072
G1 X17.2959 Y-1.3470
G1 X17.0886 Y-1.7683
G1 X16.8822 Y-2.1896
G1 X16.8649 Y-2.3035
M3 S575
G4 P0.030
M3 S700
G4 P0.060
G1 X16.8695 Y-2.6600
G1 X16.8400 Y-3.1430
M3 S575
G4 P0.030
M3 S700
G4 P0.060
G1 X16.6594 Y-3.3263
G1 X16.8544 Y-3.6107
G1 X17.0499 Y-3.8950
M3 S575
G4 P0.030
G1 X17.2913 Y-0.2474 F3000.000
M3 S700
G4 P0.060
G1 X17.6142 Y-0.0321 F1200.000
M3 S575
G4 P0.030
G1 X21.7582 Y-1.4768 F3000.000
M3 S700
G4 P0.060
G1 X22.2768 Y-1.4119 F1200.000
G1 X22.7954 Y-1.3470
G1 X23.0135 Y-1.1271
G1 X23.6734 Y-1.1271
G1 X24.3333 Y-1.1271
G1 X24.9932 Y-1.1271
G1 X25.6531 Y-1.1271
G1 X26.3130 Y-1.1271
G1 X26.9729 Y-1.1271
G1 X27.6327 Y-1.1271
G1 X28.2926 Y-1.1271
G1 X28.9525 Y-1.1271
G1 X29.6124 Y-1.1271
G1 X30.2723 Y-1.1271
G1 X30.9322 Y-1.1271
G1 X31.5921 Y-1.1271
G1 X32.2520 Y-1.1271
G1 X32.9119 Y-1.1271
G1 X33.5717 Y-1.1271
G1 X34.2316 Y-1.1271
G1 X34.8915 Y-1.1271
G1 X35.5514 Y-1.1271
G1 X36.2113 Y-1.1271
G1 X36.8712 Y-1.1271
G1 X37.5311 Y-1.1271
G1 X38.1910 Y-1.1271
G1 X38.8508 Y-1.1271
G1 X39.5107 Y-1.1271
G1 X40.1706 Y-1.1271
G1 X40.8305 Y-1.1271
G1 X41.4904 Y-1.1271
G1 X42.1503 Y-1.1271
G1 X42.8102 Y-1.1271
G1 X43.4701 Y-1.1271
G1 X44.1300 Y-1.1271
G1 X44.7898 Y-1.1271
G1 X45.4497 Y-1.1271
G1 X46.1096 Y-1.1271
G1 X46.7695 Y-1.1271
G1 X47.4294 Y-1.1271
G1 X48.0893 Y-1.1271
G1 X48.7492 Y-1.1271
G1 X49.4091 Y-1.1271
G1 X50.0690 Y-1.1271
G1 X50.7288 Y-1.1271
G1 X51.3887 Y-1.1271
G1 X52.0486 Y-1.1271
G1 X52.7085 Y-1.1271
G1 X53.3684 Y-1.1271
G1 X54.0283 Y-1.1271
M3 S575
G4 P0.030
G1 X-21.4737 Y-1.2095 F3000.000
M3 S700
G4 P0.060
G1 X-22.1325 Y-1.2095 F1200.000
G1 X-22.7914 Y-1.2095
G1 X-23.4502 Y-1.2095
G1 X-24.1090 Y-1.2095
G1 X-24.7678 Y-1.2095
G1 X-25.4267 Y-1.2095
G1 X-26.0855 Y-1.2095
G1 X-26.7443 Y-1.2095
G1 X-27.4031 Y-1.2095
G1 X-28.0619 Y-1.2095
G1 X-28.7208 Y-1.2095
G1 X-29.3796 Y-1.2095
G1 X-30.0384 Y-1.2095
G1 X-30.6972 Y-1.2095
G1 X-31.3560 Y-1.2095
G1 X-32.0149 Y-1.2095
G1 X-32.6737 Y-1.2095
G1 X-33.3325 Y-1.2095
G1 X-33.9913 Y-1.2095
G1 X-34.6502 Y-1.2095
G1 X-35.3090 Y-1.2095
G1 X-35.9678 Y-1.2095
G1 X-36.6266 Y-1.2095
G1 X-37.2854 Y-1.2095
G1 X-37.9443 Y-1.2095
G1 X-38.6031 Y-1.2095
G1 X-39.2619 Y-1.2095
G1 X-39.9207 Y-1.2095
G1 X-40.5796 Y-1.2095
G1 X-41.2384 Y-1.2095
G1 X-41.8972 Y-1.2095
G1 X-42.5560 Y-1.2095
G1 X-43.2148 Y-1.2095
G1 X-43.8737 Y-1.2095
G1 X-44.5325 Y-1.2095
G1 X-45.1913 Y-1.2095
G1 X-45.8501 Y-1.2095
G1 X-46.5089 Y-1.2095
G1 X-47.1678 Y-1.2095
G1 X-47.8266 Y-1.2095
G1 X-48.4854 Y-1.2095
G1 X-49.1442 Y-1.2095
G1 X-49.8031 Y-1.2095
G1 X-50.4619 Y-1.2095
G1 X-51.1207 Y-1.2095
G1 X-51.7795 Y-1.2095
G1 X-52.4383 Y-1.2095
G1 X-53.0972 Y-1.2095
G1 X-53.7560 Y-1.2095
M3 S575
G4 P0.030
G1 X12.3524 Y2.6282 F3000.000
M3 S700
G4 P0.060
G1 X11.8491 Y2.6667 F1200.000
G1 X11.3456 Y2.7052
M3 S575
G4 P0.030
G1 X-15.0428 Y0.7422 F3000.000
M3 S700
G4 P0.060
G1 X-14.3786 Y0.7422 F1200.000
G1 X-13.7144 Y0.7422
M3 S575
G4 P0.030
G1 X-14.5230 Y4.4062 F3000.000
M3 S700
G4 P0.060
G1 X-14.2491 Y3.8892 F1200.000
G1 X-13.9768 Y3.3721
G1 X-13.7058 Y2.8550
G1 X-13.4363 Y2.3380
G1 X-13.1680 Y1.8209
G1 X-12.9009 Y1.3039
M3 S575
G4 P0.030
G1 X-15.5242 Y4.2610 F3000.000
M3 S700
G4 P0.060
G1 X-14.9333 Y4.2610 F1200.000
G1 X-14.3423 Y4.2610
G1 X-13.7513 Y4.2610
M3 S575
G4 P0.030
G1 X8.3076 Y3.8970 F3000.000
M3 S700
G4 P0.060
G1 X8.4308 Y3.3029 F1200.000
G1 X8.5548 Y2.7088
G1 X8.6796 Y2.1146
G1 X8.8052 Y1.5205
M3 S575
G4 P0.030
G1 X-10.4851 Y-0.0461 F3000.000
M3 S700
G4 P0.060
G1 X-9.9894 Y0.1165 F1200.000
G1 X-9.4938 Y0.2791
G1 X-8.9982 Y0.4418
G1 X-8.5027 Y0.6044
M3 S575
G4 P0.030
G1 X1.0078 Y-0.1461 F3000.000
M3 S700
G4 P0.060
G1 X1.5285 Y0.1505 F1200.000
G1 X2.0492 Y0.4471
G1 X2.5701 Y0.7436
M3 S575
G4 P0.030
G1 X3.4372 Y-3.2163 F3000.000
M3 S700
G4 P0.060
G1 X4.1067 Y-3.2163 F1200.000
M3 S575
G4 P0.030
G1 X-1.9519 Y0.1924 F3000.000
M3 S700
G4 P0.060
G1 X-1.7320 Y0.3024 F1200.000
G1 X-1.5121 Y0.1924
M3 S575
G4 P0.030
G1 X-54.1978 Y-1.1271 F3000.000
M3 S700
G4 P0.060
G1 X-53.5631 Y-1.1271 F1200.000
G1 X-52.9284 Y-1.1271
G1 X-52.2938 Y-1.1271
G1 X-51.6591 Y-1.1271
G1 X-51.0244 Y-1.1271
G1 X-50.3897 Y-1.1271
G1 X-49.7551 Y-1.1271
G1 X-49.1204 Y-1.1271
G1 X-48.4857 Y-1.1271
G1 X-47.8510 Y-1.1271
G1 X-47.2164 Y-1.1271
G1 X-46.5817 Y-1.1271
G1 X-45.9470 Y-1.1271
M3 S575
G4 P0.030
G1 X-14.6351 Y-3.8761 F3000.000
M3 S700
G4 P0.060
G1 X-14.1899 Y-3.8761 F1200.000
G1 X-13.7447 Y-3.8761
M3 S575
G4 P0.030
G1 X19.3776 Y-2.5265 F3000.000
M3 S700
G4 P0.060
G1 X19.7971 Y-2.0556 F1200.000
G1 X20.2176 Y-1.5848
M3 S575
G4 P0.030
G1 X-17.3395 Y3.2616 F3000.000
M3 S700
G4 P0.060
G1 X-16.9734 Y3.3152 F1200.000
G1 X-16.6072 Y3.3687
M3 S575
G4 P0.030
G1 X-12.6090 Y3.2540 F3000.000
M3 S700
G4 P0.060
G1 X-12.4476 Y3.2540 F1200.000
M3 S575
G4 P0.030
G1 X7.0535 Y3.2540 F3000.000
M3 S700
G4 P0.060
G1 X7.2149 Y3.2540 F1200.000
M3 S575
G4 P0.030
G1 X-17.4497 Y-3.4271 F3000.000
M3 S700
G4 P0.060
G1 X-17.7369 Y-3.0185 F1200.000
G1 X-18.0248 Y-2.6099
G1 X-18.3133 Y-2.2014
G1 X-18.3068 Y-1.5867
G1 X-18.3025 Y-0.9721
G1 X-18.3002 Y-0.3575
G1 X-18.3000 Y0.2571
G1 X-18.0347 Y0.7541
G1 X-17.7706 Y1.2511
G1 X-17.5078 Y1.7480
G1 X-17.2462 Y2.2450
G1 X-17.4238 Y1.6968
G1 X-17.6028 Y1.1486
G1 X-17.7834 Y0.6004
G1 X-17.9655 Y0.0522
G1 X-17.9739 Y-0.6132
G1 X-17.9846 Y-1.2786
G1 X-17.7763 Y-1.8176
G1 X-17.5695 Y-2.3567
G1 X-17.3641 Y-2.8958
G1 X-17.0470 Y-3.2289
G1 X-16.7303 Y-3.5620
G1 X-16.4138 Y-3.8951
G1 X-16.9318 Y-3.6611
G1 X-17.4497 Y-3.4271
M3 S575
G4 P0.030
G1 X-11.5236 Y-2.9515 F3000.000
M3 S700
G4 P0.060
G1 X-11.3823 Y-2.5205 F1200.000
G1 X-11.2417 Y-2.0896
G1 X-11.1018 Y-1.6587
G1 X-10.8028 Y-1.1640
G1 X-10.9248 Y-1.6751
G1 X-11.0478 Y-2.1862
G1 X-11.1717 Y-2.6973
G1 X-11.0538 Y-3.0512
G1 X-10.9362 Y-3.4052
G1 X-10.6318 Y-3.6500
G1 X-10.3273 Y-3.8949
G1 X-10.7920 Y-3.8949
G1 X-11.1576 Y-3.4232
G1 X-11.5236 Y-2.9515
M3 S575
G4 P0.030
G1 X-8.1576 Y-3.0779 F3000.000
M3 S700
G4 P0.060
G1 X-7.9530 Y-2.6099 F1200.000
G1 X-7.7491 Y-2.1419
G1 X-7.5459 Y-1.6739
G1 X-7.3433 Y-1.2058
G1 X-7.3248 Y-0.7405
G1 X-7.3068 Y-0.2753
G1 X-6.9669 Y-0.2242
G1 X-7.1300 Y-0.8507
G1 X-7.2940 Y-1.4771
G1 X-7.4590 Y-2.1036
G1 X-7.6249 Y-2.7300
G1 X-7.5243 Y-3.0570
G1 X-7.4238 Y-3.3840
G1 X-6.9997 Y-3.7471
G1 X-7.4990 Y-3.8949
G1 X-7.8282 Y-3.4864
G1 X-8.1576 Y-3.0779
M3 S575
G4 P0.030
G1 X-3.9202 Y-0.9799 F3000.000
M3 S700
G4 P0.060
G1 X-4.0836 Y-0.6610 F1200.000
G1 X-3.9644 Y-0.3213
G1 X-3.8453 Y0.0184
G1 X-3.7134 Y-0.4618
G1 X-3.4630 Y-0.6891
G1 X-3.2126 Y-0.9164
G1 X-2.7865 Y-0.9335
G1 X-2.3604 Y-0.9505
G1 X-2.4866 Y-1.3234
G1 X-2.6129 Y-1.6962
G1 X-2.9251 Y-1.3522
G1 X-3.2373 Y-1.0081
G1 X-3.5787 Y-0.9940
G1 X-3.9202 Y-0.9799
M3 S575
G4 P0.030
G1 X-2.7568 Y-2.8413 F3000.000
M3 S700
G4 P0.060
G1 X-2.5862 Y-3.3722 F1200.000
G1 X-2.1111 Y-3.7619
G1 X-2.3401 Y-3.8949
G1 X-2.9119 Y-3.8172
G1 X-2.8342 Y-3.3293
G1 X-2.7568 Y-2.8413
M3 S575
G4 P0.030
G1 X0.1229 Y-2.9877 F3000.000
M3 S700
G4 P0.060
G1 X0.3458 Y-2.4422 F1200.000
G1 X0.5686 Y-1.8966
G1 X0.7069 Y-1.2415
G1 X0.7150 Y-1.8746
G1 X0.7232 Y-2.5078
G1 X0.7315 Y-3.1409
G1 X0.9908 Y-3.5179
G1 X1.2504 Y-3.8949
G1 X0.8774 Y-3.8382
G1 X0.5000 Y-3.4130
G1 X0.1229 Y-2.9877
M3 S575
G4 P0.030
G1 X5.8594 Y-2.9739 F3000.000
M3 S700
G4 P0.060
G1 X6.0746 Y-2.5465 F1200.000
G1 X6.2900 Y-2.1191
G1 X6.3849 Y-1.5600
G1 X6.4804 Y-1.0009
G1 X6.5765 Y-0.4418
G1 X6.6731 Y0.1173
G1 X6.7704 Y0.6763
G1 X7.0121 Y1.2099
G1 X7.2546 Y1.7435
G1 X7.2825 Y1.3774
G1 X7.3108 Y1.0113
G1 X7.5935 Y0.7781
G1 X7.8763 Y0.5449
G1 X7.5138 Y-0.0064
G1 X7.1520 Y-0.5578
G1 X6.7907 Y-1.1091
G1 X6.4300 Y-1.6605
G1 X6.4454 Y-2.1786
G1 X6.4612 Y-2.6968
G1 X6.4777 Y-3.2150
G1 X6.7594 Y-3.5549
G1 X7.0416 Y-3.8949
G1 X6.5953 Y-3.8318
G1 X6.2270 Y-3.4028
G1 X5.8594 Y-2.9739
M3 S575
G4 P0.030
G1 X9.9374 Y-3.0898 F3000.000
M3 S700
G4 P0.060
G1 X10.2900 Y-2.5539 F1200.000
G1 X10.6433 Y-2.0180
G1 X10.6865 Y-1.6579
G1 X10.7301 Y-1.2977
G1 X10.9253 Y-0.8819
G1 X11.1210 Y-0.4661
G1 X11.3173 Y-0.0503
G1 X11.1404 Y-0.6633
G1 X10.9647 Y-1.2762
G1 X10.7901 Y-1.8892
G1 X10.6167 Y-2.5021
G1 X10.6689 Y-2.8492
G1 X10.7214 Y-3.1964
G1 X10.9651 Y-3.4459
G1 X11.2090 Y-3.6955
G1 X10.6819 Y-3.8949
G1 X10.3092 Y-3.4924
G1 X9.9374 Y-3.0898
M3 S575
G4 P0.030
G1 X12.9880 Y-3.3428 F3000.000
M3 S700
G4 P0.060
G1 X13.3344 Y-2.9474 F1200.000
G1 X13.6813 Y-2.5521
G1 X13.7396 Y-2.0494
G1 X13.7989 Y-1.5467
G1 X14.0611 Y-0.9850
G1 X14.3245 Y-0.4234
G1 X14.5893 Y0.1382
G1 X14.8101 Y-0.1850
G1 X15.0314 Y-0.5082
G1 X14.6781 Y-1.0062
G1 X14.3258 Y-1.5042
G1 X13.9745 Y-2.0022
G1 X13.8759 Y-2.5705
G1 X13.7785 Y-3.1387
G1 X13.6824 Y-3.7070
G1 X13.4772 Y-3.7897
G1 X12.9880 Y-3.3428
M3 S575
G4 P0.030
G1 X16.9138 Y-0.1145 F3000.000
M3 S700
G4 P0.060
G1 X17.2600 Y0.0209 F1200.000
G1 X17.6064 Y0.1563
G1 X17.6308 Y-0.4188
G1 X17.4242 Y-1.0429
G1 X17.2197 Y-1.6669
G1 X17.0171 Y-2.2910
G1 X16.8163 Y-2.9151
G1 X17.0603 Y-3.4050
G1 X17.3057 Y-3.8950
G1 X16.7500 Y-3.8951
G1 X16.4782 Y-3.4933
G1 X16.6593 Y-2.8856
G1 X16.8420 Y-2.2780
G1 X17.0265 Y-1.6704
G1 X17.2127 Y-1.0628
G1 X17.0627 Y-0.5886
G1 X16.9138 Y-0.1145
M3 S575
G4 P0.030
G1 X21.1238 Y-1.4768 F3000.000
M3 S700
G4 P0.060
G1 X21.6208 Y-1.2100 F1200.000
G1 X22.1183 Y-0.9431
G1 X22.7857 Y-0.9431
G1 X23.4531 Y-0.9431
G1 X24.1205 Y-0.9431
G1 X24.7879 Y-0.9431
G1 X25.4554 Y-0.9431
G1 X26.1228 Y-0.9431
G1 X26.7902 Y-0.9431
G1 X27.4576 Y-0.9431
G1 X28.1250 Y-0.9431
G1 X28.7924 Y-0.9431
G1 X29.4598 Y-0.9432
G1 X30.1272 Y-0.9432
G1 X30.7946 Y-0.9432
G1 X31.4621 Y-0.9432
G1 X32.1295 Y-0.9432
G1 X32.7969 Y-0.9432
G1 X33.4643 Y-0.9432
G1 X34.1317 Y-0.9432
G1 X34.7991 Y-0.9432
G1 X35.4665 Y-0.9432
G1 X36.1339 Y-0.9432
G1 X36.8014 Y-0.9432
G1 X37.4688 Y-0.9432
G1 X38.1362 Y-0.9432
G1 X38.8036 Y-0.9432
G1 X39.4710 Y-0.9432
G1 X40.1384 Y-0.9432
G1 X40.8058 Y-0.9432
G1 X41.4732 Y-0.9432
G1 X42.1406 Y-0.9432
G1 X42.8081 Y-0.9432
G1 X43.4755 Y-0.9432
G1 X44.1429 Y-0.9432
G1 X44.8103 Y-0.9432
G1 X45.4777 Y-0.9432
G1 X46.1451 Y-0.9433
G1 X46.8125 Y-0.9433
G1 X47.4799 Y-0.9433
G1 X48.1473 Y-0.9433
G1 X48.8148 Y-0.9433
G1 X49.4822 Y-0.9433
G1 X50.1496 Y-0.9433
G1 X50.8170 Y-0.9433
G1 X51.4844 Y-0.9433
G1 X52.1518 Y-0.9433
G1 X52.8192 Y-0.9433
G1 X53.4866 Y-0.9433
G1 X54.1540 Y-0.9433
G1 X54.1647 Y-1.4760
G1 X53.5039 Y-1.4760
G1 X52.8431 Y-1.4761
G1 X52.1823 Y-1.4761
G1 X51.5215 Y-1.4761
G1 X50.8606 Y-1.4761
G1 X50.1998 Y-1.4761
G1 X49.5390 Y-1.4761
G1 X48.8782 Y-1.4762
G1 X48.2174 Y-1.4762
G1 X47.5565 Y-1.4762
G1 X46.8957 Y-1.4762
G1 X46.2349 Y-1.4762
G1 X45.5741 Y-1.4762
G1 X44.9133 Y-1.4762
G1 X44.2524 Y-1.4763
G1 X43.5916 Y-1.4763
G1 X42.9308 Y-1.4763
G1 X42.2700 Y-1.4763
G1 X41.6092 Y-1.4763
G1 X40.9483 Y-1.4763
G1 X40.2875 Y-1.4764
G1 X39.6267 Y-1.4764
G1 X38.9659 Y-1.4764
G1 X38.3051 Y-1.4764
G1 X37.6443 Y-1.4764
G1 X36.9834 Y-1.4764
G1 X36.3226 Y-1.4764
G1 X35.6618 Y-1.4765
G1 X35.0010 Y-1.4765
G1 X34.3402 Y-1.4765
G1 X33.6793 Y-1.4765
G1 X33.0185 Y-1.4765
G1 X32.3577 Y-1.4765
G1 X31.6969 Y-1.4766
G1 X31.0361 Y-1.4766
G1 X30.3752 Y-1.4766
G1 X29.7144 Y-1.4766
G1 X29.0536 Y-1.4766
G1 X28.3928 Y-1.4766
G1 X27.7320 Y-1.4766
G1 X27.0711 Y-1.4767
G1 X26.4103 Y-1.4767
G1 X25.7495 Y-1.4767
G1 X25.0887 Y-1.4767
G1 X24.4279 Y-1.4767
G1 X23.7670 Y-1.4767
G1 X23.1062 Y-1.4768
G1 X22.4454 Y-1.4768
G1 X21.7846 Y-1.4768
G1 X21.1238 Y-1.4768
M3 S575
G4 P0.030
G1 X8.8636 Y3.8950 F3000.000
M3 S700
G4 P0.060
G1 X8.7990 Y3.8926 F1200.000
G1 X8.7711 Y3.8926
G1 X8.8636 Y3.8950
M3 S575
G4 P0.030
G1 X3.3503 Y-1.9188 F3000.000
M3 S700
G4 P0.060
G1 X3.3014 Y-1.4091 F1200.000
G1 X3.2528 Y-0.8994
G1 X3.5365 Y-0.3631
G1 X3.5359 Y0.1563
G1 X3.6870 Y0.1563
G1 X3.6024 Y-0.3625
G1 X3.5181 Y-0.8812
G1 X3.4341 Y-1.4000
G1 X3.3503 Y-1.9188
M3 S575
G4 P0.030
G1 X-13.0653 Y1.6144 F3000.000
M3 S700
G4 P0.060
G1 X-13.1439 Y1.4150 F1200.000
G1 X-13.1906 Y1.3680
G1 X-13.0653 Y1.6144
M3 S575
G4 P0.030
G1 X-13.7485 Y0.8077 F3000.000
M3 S700
G4 P0.060
G1 X-13.8299 Y0.7260 F1200.000
G1 X-13.9284 Y0.6685
G1 X-13.7485 Y0.8077
M3 S575
G4 P0.030
G1 X-21.0731 Y-1.4758 F3000.000
M3 S700
G4 P0.060
G1 X-21.7349 Y-1.4758 F1200.000
G1 X-22.3968 Y-1.4758
G1 X-23.0586 Y-1.4758
G1 X-23.7204 Y-1.4758
G1 X-24.3823 Y-1.4758
G1 X-25.0441 Y-1.4758
G1 X-25.7059 Y-1.4758
G1 X-26.3678 Y-1.4758
G1 X-27.0296 Y-1.4758
G1 X-27.6914 Y-1.4758
G1 X-28.3533 Y-1.4758
G1 X-29.0151 Y-1.4758
G1 X-29.6769 Y-1.4758
G1 X-30.3388 Y-1.4758
G1 X-31.0006 Y-1.4758
G1 X-31.6624 Y-1.4758
G1 X-32.3243 Y-1.4758
G1 X-32.9861 Y-1.4758
G1 X-33.6479 Y-1.4758
G1 X-34.3098 Y-1.4758
G1 X-34.9716 Y-1.4758
G1 X-35.6334 Y-1.4758
G1 X-36.2953 Y-1.4758
G1 X-36.9571 Y-1.4758
G1 X-37.6190 Y-1.4758
G1 X-38.2808 Y-1.4758
G1 X-38.9426 Y-1.4758
G1 X-39.6045 Y-1.4758
G1 X-40.2663 Y-1.4758
G1 X-40.9281 Y-1.4758
G1 X-41.5900 Y-1.4758
G1 X-42.2518 Y-1.4758
G1 X-42.9136 Y-1.4758
G1 X-43.5755 Y-1.4758
G1 X-44.2373 Y-1.4758
G1 X-44.8991 Y-1.4758
G1 X-45.5610 Y-1.4758
G1 X-46.2228 Y-1.4758
G1 X-46.8846 Y-1.4758
G1 X-47.5465 Y-1.4758
G1 X-48.2083 Y-1.4758
G1 X-48.8701 Y-1.4758
G1 X-49.5320 Y-1.4758
G1 X-50.1938 Y-1.4758
G1 X-50.8556 Y-1.4758
G1 X-51.5175 Y-1.4758
G1 X-52.1793 Y-1.4758
G1 X-52.8411 Y-1.4758
G1 X-53.5030 Y-1.4758
G1 X-54.1648 Y-1.4758
G1 X-54.1542 Y-0.9433
G1 X-53.4925 Y-0.9433
G1 X-52.8308 Y-0.9433
G1 X-52.1691 Y-0.9433
G1 X-51.5074 Y-0.9433
G1 X-50.8457 Y-0.9433
G1 X-50.1839 Y-0.9433
G1 X-49.5222 Y-0.9433
G1 X-48.8605 Y-0.9433
G1 X-48.1988 Y-0.9433
G1 X-47.5371 Y-0.9433
G1 X-46.8754 Y-0.9433
G1 X-46.2137 Y-0.9433
G1 X-45.5520 Y-0.9432
G1 X-44.8903 Y-0.9432
G1 X-44.2286 Y-0.9432
G1 X-43.5669 Y-0.9432
G1 X-42.9052 Y-0.9432
G1 X-42.2435 Y-0.9432
G1 X-41.5818 Y-0.9432
G1 X-40.9201 Y-0.9432
G1 X-40.2584 Y-0.9432
G1 X-39.5967 Y-0.9432
G1 X-38.9350 Y-0.9432
G1 X-38.2733 Y-0.9432
G1 X-37.6116 Y-0.9432
G1 X-36.9499 Y-0.9432
G1 X-36.2882 Y-0.9432
G1 X-35.6265 Y-0.9432
G1 X-34.9648 Y-0.9432
G1 X-34.3030 Y-0.9432
G1 X-33.6413 Y-0.9432
G1 X-32.9796 Y-0.9432
G1 X-32.3179 Y-0.9432
G1 X-31.6562 Y-0.9432
G1 X-30.9945 Y-0.9432
G1 X-30.3328 Y-0.9432
G1 X-29.6711 Y-0.9432
G1 X-29.0094 Y-0.9432
G1 X-28.3477 Y-0.9432
G1 X-27.6860 Y-0.9431
G1 X-27.0243 Y-0.9431
G1 X-26.3626 Y-0.9431
G1 X-25.7009 Y-0.9431
G1 X-25.0392 Y-0.9431
G1 X-24.3775 Y-0.9431
G1 X-23.7158 Y-0.9431
G1 X-23.0541 Y-0.9431
G1 X-22.3924 Y-0.9431
G1 X-21.7307 Y-0.9431
G1 X-21.0690 Y-0.9431
G1 X-21.0731 Y-1.4758
M3 S575
G4 P0.030
G1 X0.0000 Y0.0000 F3000.000
M3 S575
G4 P0.030