(Generated for golf ball plotter)
(Units are angular degrees. X=-180..180 ball rotation, Y=-45..45 arm tilt)
$X
G21
G90
M3 S575
G4 P0.030
M3 S700
G4 P0.060
(fill-infill path 1, 73 points)
G1 X2.2702 Y9.1727 F1200.000
G1 X2.4005 Y9.1727 F1200.000
G1 X2.1250 Y8.2530 F1200.000
G1 X0.2872 Y0.6672 F1200.000
G1 X0.2628 Y0.0548 F1200.000
G1 X0.3877 Y-0.4472 F1200.000
G1 X0.6461 Y-0.8954 F1200.000
G1 X0.9326 Y-1.2012 F1200.000
G1 X1.2415 Y-1.4148 F1200.000
G1 X1.5870 Y-1.5620 F1200.000
G1 X6.4374 Y-2.4310 F1200.000
G1 X6.7808 Y-2.4553 F1200.000
G1 X7.1573 Y-2.4088 F1200.000
G1 X7.5039 Y-2.2996 F1200.000
G1 X7.8228 Y-2.1251 F1200.000
G1 X8.1016 Y-1.8920 F1200.000
G1 X8.3554 Y-1.5770 F1200.000
G1 X8.5249 Y-1.2525 F1200.000
G1 X8.6276 Y-0.9011 F1200.000
G1 X8.6595 Y-0.5364 F1200.000
G1 X8.4966 Y0.3600 F1200.000
G1 X6.5028 Y8.5819 F1200.000
G1 X6.3099 Y9.1727 F1200.000
G1 X6.4350 Y9.1727 F1200.000
G1 X11.1277 Y-9.1705 F1200.000
G1 X10.8119 Y-9.1709 F1200.000
G1 X9.5580 Y-4.0454 F1200.000
G1 X9.3075 Y-3.5467 F1200.000
G1 X8.8811 Y-3.0961 F1200.000
G1 X8.5759 Y-2.9036 F1200.000
G1 X8.0629 Y-2.7211 F1200.000
G1 X1.2876 Y-1.5678 F1200.000
G1 X0.7070 Y-1.6501 F1200.000
G1 X0.3467 Y-1.8044 F1200.000
G1 X-0.1331 Y-2.1748 F1200.000
G1 X-0.4745 Y-2.6769 F1200.000
G1 X-0.6494 Y-3.1938 F1200.000
G1 X-2.1024 Y-9.1727 F1200.000
G1 X-2.4208 Y-9.1727 F1200.000
G1 X-0.8845 Y-3.1504 F1200.000
G1 X-0.8539 Y-2.7716 F1200.000
G1 X-0.8894 Y-2.4099 F1200.000
G1 X-1.0721 Y-1.8974 F1200.000
G1 X-1.2735 Y-1.5948 F1200.000
G1 X-1.5576 Y-1.3025 F1200.000
G1 X-1.8566 Y-1.1004 F1200.000
G1 X-2.1891 Y-0.9599 F1200.000
G1 X-7.6163 Y-0.0062 F1200.000
G1 X-7.9674 Y-0.0287 F1200.000
G1 X-8.3503 Y-0.1290 F1200.000
G1 X-8.8382 Y-0.3981 F1200.000
G1 X-9.1094 Y-0.6530 F1200.000
G1 X-9.3541 Y-0.9997 F1200.000
G1 X-9.5546 Y-1.5337 F1200.000
G1 X-9.5937 Y-1.9128 F1200.000
G1 X-9.5937 Y-9.1727 F1200.000
G1 X-9.9383 Y-9.1727 F1200.000
G1 X-9.9383 Y9.1778 F1200.000
G1 X-9.5937 Y9.1778 F1200.000
G1 X-9.5937 Y1.9796 F1200.000
G1 X-9.4994 Y1.3950 F1200.000
G1 X-9.3425 Y1.0418 F1200.000
G1 X-9.1545 Y0.7696 F1200.000
G1 X-8.8659 Y0.4884 F1200.000
G1 X-8.5612 Y0.2800 F1200.000
G1 X-8.0424 Y0.0898 F1200.000
G1 X-2.5171 Y-0.8711 F1200.000
G1 X-1.8248 Y-0.9556 F1200.000
G1 X-1.2765 Y-0.8759 F1200.000
G1 X-0.7760 Y-0.6382 F1200.000
G1 X-0.3144 Y-0.2227 F1200.000
G1 X-0.0386 Y0.2360 F1200.000
M3 S575
G4 P0.030
(Travel to fill-infill path 2)
G1 X-0.3982 Y0.3868 F3000.000
M3 S700
G4 P0.060
(fill-infill path 2, 64 points)
G1 X1.9667 Y9.5627 F1200.000
G1 X3.2166 Y9.5627 F1200.000
G1 X2.8573 Y9.1860 F1200.000
G1 X2.6280 Y8.6567 F1200.000
G1 X0.6698 Y0.5917 F1200.000
G1 X0.6427 Y0.2319 F1200.000
G1 X0.7042 Y-0.1723 F1200.000
G1 X0.8746 Y-0.5440 F1200.000
G1 X1.0777 Y-0.8024 F1200.000
G1 X1.3035 Y-0.9950 F1200.000
G1 X1.7028 Y-1.1896 F1200.000
G1 X6.7723 Y-2.0654 F1200.000
G1 X7.3510 Y-1.9408 F1200.000
G1 X7.8234 Y-1.6187 F1200.000
G1 X8.0292 Y-1.3632 F1200.000
G1 X8.1632 Y-1.1068 F1200.000
G1 X8.2695 Y-0.5408 F1200.000
G1 X8.2148 Y-0.1395 F1200.000
G1 X6.0432 Y8.8010 F1200.000
G1 X5.8570 Y9.1804 F1200.000
G1 X5.4946 Y9.5627 F1200.000
G1 X6.7388 Y9.5627 F1200.000
G1 X11.6319 Y-9.5599 F1200.000
G1 X10.5015 Y-9.5613 F1200.000
G1 X9.1872 Y-4.1662 F1200.000
G1 X8.9892 Y-3.7721 F1200.000
G1 X8.6420 Y-3.4042 F1200.000
G1 X8.2702 Y-3.1942 F1200.000
G1 X7.8755 Y-3.0813 F1200.000
G1 X1.2808 Y-1.9577 F1200.000
G1 X0.8219 Y-2.0228 F1200.000
G1 X0.4060 Y-2.2275 F1200.000
G1 X0.0559 Y-2.5523 F1200.000
G1 X-0.1801 Y-2.9731 F1200.000
G1 X-1.7974 Y-9.5627 F1200.000
G1 X-2.9224 Y-9.5627 F1200.000
G1 X-1.2681 Y-3.0798 F1200.000
G1 X-1.2719 Y-2.4858 F1200.000
G1 X-1.4164 Y-2.0807 F1200.000
G1 X-1.6052 Y-1.8053 F1200.000
G1 X-1.9205 Y-1.5173 F1200.000
G1 X-2.1713 Y-1.3813 F1200.000
G1 X-2.5252 Y-1.2725 F1200.000
G1 X-7.6282 Y-0.3960 F1200.000
G1 X-8.2153 Y-0.4948 F1200.000
G1 X-8.6008 Y-0.7075 F1200.000
G1 X-8.9337 Y-1.0638 F1200.000
G1 X-9.1345 Y-1.4674 F1200.000
G1 X-9.2037 Y-1.9128 F1200.000
G1 X-9.2037 Y-9.5627 F1200.000
G1 X-10.3283 Y-9.5627 F1200.000
G1 X-10.3283 Y9.5678 F1200.000
G1 X-9.2037 Y9.5678 F1200.000
G1 X-9.2037 Y1.9796 F1200.000
G1 X-9.1292 Y1.5176 F1200.000
G1 X-8.8546 Y1.0189 F1200.000
G1 X-8.4985 Y0.6985 F1200.000
G1 X-7.9640 Y0.4719 F1200.000
G1 X-1.8228 Y-0.5656 F1200.000
G1 X-1.3895 Y-0.5026 F1200.000
G1 X-0.9939 Y-0.3147 F1200.000
G1 X-0.6162 Y0.0243 F1200.000
G1 X-0.3982 Y0.3868 F1200.000
M3 S575
G4 P0.030
(Travel to fill-infill path 3)
G1 X-0.7224 Y0.6353 F3000.000
M3 S700
G4 P0.060
(fill-infill path 3, 42 points)
G1 X1.6674 Y9.9527 F1200.000
G1 X7.0426 Y9.9527 F1200.000
G1 X12.1324 Y-9.9492 F1200.000
G1 X10.1987 Y-9.9516 F1200.000
G1 X8.8164 Y-4.2870 F1200.000
G1 X8.6040 Y-3.9123 F1200.000
G1 X8.3170 Y-3.6521 F1200.000
G1 X7.7920 Y-3.4622 F1200.000
G1 X1.2740 Y-2.3476 F1200.000
G1 X0.9368 Y-2.3954 F1200.000
G1 X0.6313 Y-2.5458 F1200.000
G1 X0.3637 Y-2.7918 F1200.000
G1 X0.1828 Y-3.1160 F1200.000
G1 X-1.4891 Y-9.9527 F1200.000
G1 X-3.4268 Y-9.9527 F1200.000
G1 X-1.6517 Y-3.0093 F1200.000
G1 X-1.6390 Y-2.6661 F1200.000
G1 X-1.7156 Y-2.3596 F1200.000
G1 X-1.8775 Y-2.0883 F1200.000
G1 X-2.0549 Y-1.9034 F1200.000
G1 X-2.3231 Y-1.7406 F1200.000
G1 X-2.6087 Y-1.6534 F1200.000
G1 X-7.6402 Y-0.7858 F1200.000
G1 X-8.0802 Y-0.8607 F1200.000
G1 X-8.4459 Y-1.0870 F1200.000
G1 X-8.6746 Y-1.3826 F1200.000
G1 X-8.8080 Y-1.8022 F1200.000
G1 X-8.8137 Y-9.9527 F1200.000
G1 X-10.7183 Y-9.9527 F1200.000
G1 X-10.7183 Y9.9578 F1200.000
G1 X-8.8137 Y9.9578 F1200.000
G1 X-8.8137 Y1.9796 F1200.000
G1 X-8.7589 Y1.6402 F1200.000
G1 X-8.5547 Y1.2682 F1200.000
G1 X-8.2783 Y1.0204 F1200.000
G1 X-7.8856 Y0.8539 F1200.000
G1 X-1.8208 Y-0.1756 F1200.000
G1 X-1.5024 Y-0.1293 F1200.000
G1 X-1.2118 Y0.0087 F1200.000
G1 X-0.9181 Y0.2713 F1200.000
G1 X-0.7224 Y0.6353 F1200.000
M3 S575
G4 P0.030
(Travel to fill-infill path 4)
G1 X-1.0949 Y0.7508 F3000.000
M3 S700
G4 P0.060
(fill-infill path 4, 40 points)
G1 X1.3624 Y10.3427 F1200.000
G1 X7.3420 Y10.3427 F1200.000
G1 X12.6368 Y-10.3386 F1200.000
G1 X9.8938 Y-10.3420 F1200.000
G1 X8.4456 Y-4.4078 F1200.000
G1 X8.3099 Y-4.1684 F1200.000
G1 X8.1089 Y-3.9820 F1200.000
G1 X7.7085 Y-3.8432 F1200.000
G1 X1.2671 Y-2.7376 F1200.000
G1 X1.0517 Y-2.7681 F1200.000
G1 X0.8176 Y-2.8918 F1200.000
G1 X0.6327 Y-3.0866 F1200.000
G1 X0.5255 Y-3.3178 F1200.000
G1 X-1.1841 Y-10.3427 F1200.000
G1 X-3.9277 Y-10.3427 F1200.000
G1 X-2.0494 Y-2.9999 F1200.000
G1 X-2.0272 Y-2.7042 F1200.000
G1 X-2.0761 Y-2.5084 F1200.000
G1 X-2.3036 Y-2.2038 F1200.000
G1 X-2.6922 Y-2.0344 F1200.000
G1 X-7.6521 Y-1.1757 F1200.000
G1 X-7.9451 Y-1.2266 F1200.000
G1 X-8.1787 Y-1.3711 F1200.000
G1 X-8.3348 Y-1.5741 F1200.000
G1 X-8.4200 Y-1.8421 F1200.000
G1 X-8.4237 Y-10.3427 F1200.000
G1 X-11.1083 Y-10.3427 F1200.000
G1 X-11.1083 Y10.3478 F1200.000
G1 X-8.4237 Y10.3478 F1200.000
G1 X-8.4237 Y1.9796 F1200.000
G1 X-8.3619 Y1.6943 F1200.000
G1 X-8.2134 Y1.4720 F1200.000
G1 X-7.9997 Y1.3065 F1200.000
G1 X-7.8073 Y1.2359 F1200.000
G1 X-1.8188 Y0.2144 F1200.000
G1 X-1.6154 Y0.2440 F1200.000
G1 X-1.4297 Y0.3321 F1200.000
G1 X-1.2199 Y0.5183 F1200.000
G1 X-1.0949 Y0.7508 F1200.000
M3 S575
G4 P0.030
(Travel to fill-infill path 5)
G1 X-0.0159 Y-0.4734 F3000.000
M3 S700
G4 P0.060
(fill-infill path 5, 9 points)
G1 X0.2177 Y-0.9645 F1200.000
G1 X0.4907 Y-1.3146 F1200.000
G1 X-0.0835 Y-1.6183 F1200.000
G1 X-0.5711 Y-2.0897 F1200.000
G1 X-0.7279 Y-1.7141 F1200.000
G1 X-1.0834 Y-1.2205 F1200.000
G1 X-0.5581 Y-0.9616 F1200.000
G1 X-0.0159 Y-0.4734 F1200.000
M3 S575
G4 P0.030
(Travel to fill-infill path 6)
G1 X-0.1355 Y-1.1319 F3000.000
M3 S700
G4 P0.060
(fill-infill path 6, 6 points)
G1 X-0.1119 Y-1.1728 F1200.000
G1 X-0.4537 Y-1.4135 F1200.000
G1 X-0.4800 Y-1.3695 F1200.000
G1 X-0.3402 Y-1.2851 F1200.000
G1 X-0.1355 Y-1.1319 F1200.000
M3 S575
G4 P0.030
(Travel to fill-infill path 7)
G1 X1.2880 Y-0.4502 F3000.000
M3 S700
G4 P0.060
(fill-infill path 7, 21 points)
G1 X1.6181 Y-0.7317 F1200.000
G1 X2.0280 Y-0.8697 F1200.000
G1 X6.7637 Y-1.6755 F1200.000
G1 X7.0990 Y-1.6187 F1200.000
G1 X7.3832 Y-1.4807 F1200.000
G1 X7.6403 Y-1.2355 F1200.000
G1 X7.8014 Y-0.9611 F1200.000
G1 X7.8755 Y-0.6516 F1200.000
G1 X7.8348 Y-0.2271 F1200.000
G1 X5.6721 Y8.6813 F1200.000
G1 X5.4022 Y9.1191 F1200.000
G1 X4.9920 Y9.4103 F1200.000
G1 X4.5832 Y9.4913 F1200.000
G1 X3.8257 Y9.4478 F1200.000
G1 X3.3817 Y9.1895 F1200.000
G1 X3.0743 Y8.7777 F1200.000
G1 X1.0808 Y0.6362 F1200.000
G1 X1.0321 Y0.2948 F1200.000
G1 X1.0779 Y-0.0607 F1200.000
G1 X1.2880 Y-0.4502 F1200.000
M3 S575
G4 P0.030
(Travel to fill-infill path 8)
G1 X1.6411 Y-0.2631 F3000.000
M3 S700
G4 P0.060
(fill-infill path 8, 19 points)
G1 X1.8691 Y-0.4207 F1200.000
G1 X2.1115 Y-0.4887 F1200.000
G1 X6.6913 Y-1.2841 F1200.000
G1 X6.9819 Y-1.2467 F1200.000
G1 X7.1635 Y-1.1586 F1200.000
G1 X7.4397 Y-0.8154 F1200.000
G1 X7.4896 Y-0.5497 F1200.000
G1 X7.4547 Y-0.3146 F1200.000
G1 X5.3182 Y8.4975 F1200.000
G1 X5.1734 Y8.7925 F1200.000
G1 X4.8439 Y9.0496 F1200.000
G1 X4.5827 Y9.1013 F1200.000
G1 X3.9360 Y9.0737 F1200.000
G1 X3.6523 Y8.9087 F1200.000
G1 X3.4322 Y8.6227 F1200.000
G1 X1.4220 Y0.2992 F1200.000
G1 X1.4727 Y-0.0095 F1200.000
G1 X1.6411 Y-0.2631 F1200.000
M3 S575
G4 P0.030
(Travel to fill-infill path 9)
G1 X8.1741 Y-2.3478 F3000.000
M3 S700
G4 P0.060
(fill-infill path 9, 6 points)
G1 X8.5262 Y-2.0009 F1200.000
G1 X8.7898 Y-1.6064 F1200.000
G1 X9.0890 Y-2.7661 F1200.000
G1 X8.7510 Y-2.5551 F1200.000
G1 X8.1741 Y-2.3478 F1200.000
M3 S575
G4 P0.030
(Travel to fill-infill path 10)
G1 X-8.9013 Y0.0317 F3000.000
M3 S700
G4 P0.060
(fill-infill path 10, 6 points)
G1 X-9.2473 Y-0.2346 F1200.000
G1 X-9.5483 Y-0.5821 F1200.000
G1 X-9.5483 Y0.6441 F1200.000
G1 X-9.3197 Y0.3722 F1200.000
G1 X-8.9013 Y0.0317 F1200.000
M3 S575
G4 P0.030
(Travel to outline path 11)
G1 X-11.4983 Y-10.7327 F3000.000
M3 S700
G4 P0.060
(outline path 11, 31 points)
G1 X-11.4983 Y10.7378 F1200.000
G1 X-8.0337 Y10.7378 F1200.000
G1 X-8.0337 Y1.9796 F1200.000
G1 X-7.9368 Y1.7470 F1200.000
G1 X-7.7289 Y1.6180 F1200.000
G1 X-1.8167 Y0.6044 F1200.000
G1 X-1.6732 Y0.6402 F1200.000
G1 X-1.5410 Y0.7438 F1200.000
G1 X-1.4207 Y1.0212 F1200.000
G1 X1.0570 Y10.7327 F1200.000
G1 X7.6475 Y10.7327 F1200.000
G1 X13.1365 Y-10.7280 F1200.000
G1 X9.5844 Y-10.7324 F1200.000
G1 X8.0827 Y-4.5577 F1200.000
G1 X7.9008 Y-4.3118 F1200.000
G1 X7.6249 Y-4.2241 F1200.000
G1 X1.2603 Y-3.1275 F1200.000
G1 X1.0197 Y-3.2283 F1200.000
G1 X0.8998 Y-3.4273 F1200.000
G1 X-0.8779 Y-10.7327 F1200.000
G1 X-4.4321 Y-10.7327 F1200.000
G1 X-2.4421 Y-2.9636 F1200.000
G1 X-2.4267 Y-2.6848 F1200.000
G1 X-2.5522 Y-2.5043 F1200.000
G1 X-2.7757 Y-2.4153 F1200.000
G1 X-7.6641 Y-1.5655 F1200.000
G1 X-7.9116 Y-1.6553 F1200.000
G1 X-8.0337 Y-1.9128 F1200.000
G1 X-8.0337 Y-10.7327 F1200.000
G1 X-11.4983 Y-10.7327 F1200.000
M3 S575
G4 P0.030
(Travel to outline path 12)
G1 X1.8120 Y0.3037 F3000.000
M3 S700
G4 P0.060
(outline path 12, 15 points)
G1 X1.8461 Y0.1110 F1200.000
G1 X1.9689 Y-0.0327 F1200.000
G1 X2.4247 Y-0.1495 F1200.000
G1 X6.7189 Y-0.8950 F1200.000
G1 X6.9437 Y-0.8364 F1200.000
G1 X7.0876 Y-0.6417 F1200.000
G1 X7.0747 Y-0.4022 F1200.000
G1 X4.9372 Y8.4140 F1200.000
G1 X4.8547 Y8.5635 F1200.000
G1 X4.6683 Y8.6986 F1200.000
G1 X4.0463 Y8.6996 F1200.000
G1 X3.8571 Y8.5644 F1200.000
G1 X3.7796 Y8.4399 F1200.000
G1 X1.8120 Y0.3037 F1200.000
M3 S575
G4 P0.030
(Return to zero with pen up)
G1 X0.0000 Y0.0000 F3000.000
M3 S575
G4 P0.030