(Generated for golf ball plotter)
(Units are angular degrees. X=-180..180 ball rotation, Y=-45..45 arm tilt)
G21
G90
M3 S575
G4 P0.030
(Travel to fill-infill path 1)
G1 X2.1575 Y-13.8609 F3000.000
M3 S700
G4 P0.060
(PATH_START id=fill-infill_001 kind=fill-infill space=machine_deg source=component_unknown points=211 max_surface_segment_mm=0.2381)
(fill-infill path 1, 211 points)
G1 X2.1634 Y-14.4805 F1200.000
G1 X2.1696 Y-15.1001
G1 X2.1761 Y-15.7197
G1 X2.1829 Y-16.3393
G1 X2.1899 Y-16.9589
G1 X2.1973 Y-17.5786
G1 X2.2050 Y-18.1982
G1 X2.2130 Y-18.8178
G1 X2.2213 Y-19.4374
G1 X1.5943 Y-19.4743
G1 X0.9670 Y-19.5111
G1 X0.3394 Y-19.5480
G1 X-0.3388 Y-19.5271
G1 X-1.0169 Y-19.5061
G1 X-1.6948 Y-19.4852
G1 X-2.3661 Y-19.4017
G1 X-3.0368 Y-19.3182
G1 X-3.7068 Y-19.2348
G1 X-4.3626 Y-19.0895
G1 X-5.0173 Y-18.9443
G1 X-5.6709 Y-18.7991
G1 X-6.3030 Y-18.5935
G1 X-6.9336 Y-18.3880
G1 X-7.5628 Y-18.1824
G1 X-8.1637 Y-17.9184
G1 X-8.7629 Y-17.6545
G1 X-9.3606 Y-17.3906
G1 X-9.9238 Y-17.0708
G1 X-10.4854 Y-16.7510
G1 X-11.0454 Y-16.4313
G1 X-11.5654 Y-16.0587
G1 X-12.0840 Y-15.6862
G1 X-12.6013 Y-15.3137
G1 X-13.0738 Y-14.8920
G1 X-13.5452 Y-14.4704
G1 X-14.0155 Y-14.0487
G1 X-14.4372 Y-13.5819
G1 X-14.8582 Y-13.1151
G1 X-15.2786 Y-12.6484
G1 X-15.6472 Y-12.1410
G1 X-16.0155 Y-11.6336
G1 X-16.3838 Y-11.1262
G1 X-16.6976 Y-10.5832
G1 X-17.0118 Y-10.0401
G1 X-17.3265 Y-9.4970
G1 X-17.5847 Y-8.9234
G1 X-17.8438 Y-8.3498
G1 X-18.1040 Y-7.7762
G1 X-18.3063 Y-7.1777
G1 X-18.5100 Y-6.5791
G1 X-18.7153 Y-5.9806
G1 X-18.8615 Y-5.3628
G1 X-19.0096 Y-4.7451
G1 X-19.1597 Y-4.1274
G1 X-19.2500 Y-3.4964
G1 X-19.3425 Y-2.8654
G1 X-19.4373 Y-2.2344
G1 X-19.4719 Y-1.5962
G1 X-19.5089 Y-0.9580
G1 X-19.5483 Y-0.3199
G1 X-19.5274 Y0.3193
G1 X-19.5089 Y0.9585
G1 X-19.4928 Y1.5977
G1 X-19.4165 Y2.2318
G1 X-19.3424 Y2.8658
G1 X-19.2707 Y3.4999
G1 X-19.1391 Y4.1227
G1 X-19.0095 Y4.7455
G1 X-18.8819 Y5.3684
G1 X-18.6951 Y5.9740
G1 X-18.5099 Y6.5796
G1 X-18.3263 Y7.1852
G1 X-18.0844 Y7.7677
G1 X-17.8437 Y8.3502
G1 X-17.6041 Y8.9327
G1 X-17.3075 Y9.4866
G1 X-17.0116 Y10.0404
G1 X-16.7162 Y10.5943
G1 X-16.3657 Y11.1141
G1 X-16.0153 Y11.6340
G1 X-15.6648 Y12.1538
G1 X-15.2616 Y12.6347
G1 X-14.8579 Y13.1155
G1 X-14.4537 Y13.5963
G1 X-13.9998 Y14.0335
G1 X-13.5449 Y14.4707
G1 X-13.0889 Y14.9079
G1 X-12.5869 Y15.2972
G1 X-12.0837 Y15.6865
G1 X-11.5790 Y16.0758
G1 X-11.0328 Y16.4135
G1 X-10.4850 Y16.7513
G1 X-9.9356 Y17.0890
G1 X-9.3499 Y17.3718
G1 X-8.7625 Y17.6547
G1 X-8.1735 Y17.9376
G1 X-7.5541 Y18.1628
G1 X-6.9331 Y18.3881
G1 X-6.3107 Y18.6134
G1 X-5.6644 Y18.7789
G1 X-5.0168 Y18.9444
G1 X-4.3681 Y19.1100
G1 X-3.7026 Y19.2141
G1 X-3.0363 Y19.3183
G1 X-2.3692 Y19.4225
G1 X-1.7773 Y19.4545
G1 X-1.1851 Y19.4865
G1 X-0.5927 Y19.5186
G1 X-0.0000 Y19.5506
G1 X0.5556 Y19.5223
G1 X1.1110 Y19.4940
G1 X1.6663 Y19.4657
G1 X2.2213 Y19.4374
G1 X2.2130 Y18.8178
G1 X2.2050 Y18.1982
G1 X2.1973 Y17.5786
G1 X2.1899 Y16.9589
G1 X2.1829 Y16.3393
G1 X2.1761 Y15.7197
G1 X2.1696 Y15.1001
G1 X2.1634 Y14.4805
G1 X2.1575 Y13.8609
G1 X1.6016 Y13.9107
G1 X1.0454 Y13.9605
G1 X0.4890 Y14.0104
G1 X-0.0621 Y13.9979
G1 X-0.6132 Y13.9853
G1 X-1.1643 Y13.9728
G1 X-1.7097 Y13.8992
G1 X-2.2548 Y13.8257
G1 X-2.7996 Y13.7521
G1 X-3.3309 Y13.6185
G1 X-3.8617 Y13.4849
G1 X-4.3919 Y13.3512
G1 X-4.9012 Y13.1593
G1 X-5.4098 Y12.9673
G1 X-5.9176 Y12.7754
G1 X-6.3975 Y12.5276
G1 X-6.8766 Y12.2799
G1 X-7.3549 Y12.0321
G1 X-7.7989 Y11.7318
G1 X-8.2422 Y11.4315
G1 X-8.6847 Y11.1312
G1 X-9.0872 Y10.7822
G1 X-9.4891 Y10.4333
G1 X-9.8904 Y10.0844
G1 X-10.2468 Y9.6914
G1 X-10.6027 Y9.2984
G1 X-10.9584 Y8.9054
G1 X-11.2649 Y8.4735
G1 X-11.5713 Y8.0416
G1 X-11.8778 Y7.6097
G1 X-12.1316 Y7.1446
G1 X-12.3856 Y6.6795
G1 X-12.6400 Y6.2144
G1 X-12.8390 Y5.7221
G1 X-13.0386 Y5.2298
G1 X-13.2388 Y4.7376
G1 X-13.3816 Y4.2246
G1 X-13.5253 Y3.7116
G1 X-13.6699 Y3.1987
G1 X-13.7556 Y2.6717
G1 X-13.8424 Y2.1448
G1 X-13.9303 Y1.6178
G1 X-13.9585 Y1.0838
G1 X-13.9878 Y0.5498
G1 X-14.0184 Y0.0158
G1 X-13.9890 Y-0.5183
G1 X-13.9607 Y-1.0523
G1 X-13.9337 Y-1.5864
G1 X-13.8205 Y-2.1298
G1 X-13.7086 Y-2.6732
G1 X-13.5977 Y-3.2166
G1 X-13.4879 Y-3.7599
G1 X-13.3793 Y-4.3033
G1 X-13.1498 Y-4.8418
G1 X-12.9211 Y-5.3802
G1 X-12.6932 Y-5.9186
G1 X-12.4660 Y-6.4571
G1 X-12.2393 Y-6.9955
G1 X-11.9250 Y-7.4474
G1 X-11.6108 Y-7.8992
G1 X-11.2966 Y-8.3511
G1 X-10.9823 Y-8.8030
G1 X-10.6680 Y-9.2549
G1 X-10.2723 Y-9.6301
G1 X-9.8762 Y-10.0054
G1 X-9.4796 Y-10.3807
G1 X-9.0825 Y-10.7559
G1 X-8.6847 Y-11.1312
G1 X-8.2170 Y-11.4209
G1 X-7.7485 Y-11.7106
G1 X-7.2792 Y-12.0003
G1 X-6.8091 Y-12.2900
G1 X-6.3381 Y-12.5797
G1 X-5.7763 Y-12.7827
G1 X-5.2135 Y-12.9856
G1 X-4.6500 Y-13.1886
G1 X-4.0855 Y-13.3915
G1 X-3.5202 Y-13.5944
G1 X-2.9554 Y-13.6760
G1 X-2.3903 Y-13.7576
G1 X-1.8248 Y-13.8392
G1 X-1.2589 Y-13.9207
G1 X-0.6926 Y-14.0023
G1 X-0.1223 Y-13.9740
G1 X0.4479 Y-13.9457
G1 X1.0179 Y-13.9174
G1 X1.5878 Y-13.8892
G1 X2.1575 Y-13.8609
M3 S575
G4 P0.030
(PATH_END id=fill-infill_001)
(Travel to fill-infill path 2)
G1 X1.0014 Y-15.1154 F3000.000
M3 S700
G4 P0.060
(PATH_START id=fill-infill_002 kind=fill-infill space=machine_deg source=component_unknown points=197 max_surface_segment_mm=0.2488)
(fill-infill path 2, 197 points)
G1 X1.0046 Y-15.7717 F1200.000
G1 X1.0079 Y-16.4280
G1 X1.0114 Y-17.0843
G1 X1.0151 Y-17.7406
G1 X1.0189 Y-18.3968
G1 X0.3617 Y-18.3980
G1 X-0.2955 Y-18.3992
G1 X-0.9527 Y-18.4004
G1 X-1.5842 Y-18.3414
G1 X-2.2152 Y-18.2823
G1 X-2.8459 Y-18.2232
G1 X-3.4658 Y-18.1057
G1 X-4.0849 Y-17.9881
G1 X-4.7033 Y-17.8705
G1 X-5.3040 Y-17.6956
G1 X-5.9036 Y-17.5207
G1 X-6.5021 Y-17.3457
G1 X-7.0765 Y-17.1151
G1 X-7.6497 Y-16.8845
G1 X-8.2216 Y-16.6539
G1 X-8.7634 Y-16.3698
G1 X-9.3039 Y-16.0857
G1 X-9.8431 Y-15.8016
G1 X-10.3469 Y-15.4668
G1 X-10.8495 Y-15.1320
G1 X-11.3508 Y-14.7972
G1 X-11.8121 Y-14.4149
G1 X-12.2723 Y-14.0326
G1 X-12.7315 Y-13.6503
G1 X-13.1466 Y-13.2241
G1 X-13.5610 Y-12.7980
G1 X-13.9748 Y-12.3719
G1 X-14.3411 Y-11.9060
G1 X-14.7071 Y-11.4402
G1 X-15.0728 Y-10.9743
G1 X-15.3884 Y-10.4733
G1 X-15.7041 Y-9.9722
G1 X-16.0200 Y-9.4711
G1 X-16.2835 Y-8.9396
G1 X-16.5476 Y-8.4082
G1 X-16.8125 Y-7.8767
G1 X-17.0232 Y-7.3199
G1 X-17.2350 Y-6.7632
G1 X-17.4480 Y-6.2064
G1 X-17.6056 Y-5.6297
G1 X-17.7646 Y-5.0530
G1 X-17.9252 Y-4.4763
G1 X-18.0295 Y-3.8853
G1 X-18.1356 Y-3.2942
G1 X-18.2435 Y-2.7032
G1 X-18.2946 Y-2.1034
G1 X-18.3477 Y-1.5037
G1 X-18.4027 Y-0.9040
G1 X-18.4007 Y-0.3013
G1 X-18.4007 Y0.3013
G1 X-18.4027 Y0.9040
G1 X-18.3477 Y1.5037
G1 X-18.2946 Y2.1034
G1 X-18.2435 Y2.7032
G1 X-18.1356 Y3.2942
G1 X-18.0295 Y3.8853
G1 X-17.9252 Y4.4763
G1 X-17.7646 Y5.0530
G1 X-17.6056 Y5.6297
G1 X-17.4480 Y6.2064
G1 X-17.2350 Y6.7632
G1 X-17.0232 Y7.3199
G1 X-16.8125 Y7.8767
G1 X-16.5476 Y8.4082
G1 X-16.2835 Y8.9396
G1 X-16.0200 Y9.4711
G1 X-15.7041 Y9.9722
G1 X-15.3884 Y10.4733
G1 X-15.0728 Y10.9743
G1 X-14.7071 Y11.4402
G1 X-14.3411 Y11.9060
G1 X-13.9748 Y12.3719
G1 X-13.5610 Y12.7980
G1 X-13.1466 Y13.2241
G1 X-12.7315 Y13.6503
G1 X-12.2723 Y14.0326
G1 X-11.8121 Y14.4149
G1 X-11.3508 Y14.7972
G1 X-10.8495 Y15.1320
G1 X-10.3469 Y15.4668
G1 X-9.8431 Y15.8016
G1 X-9.3039 Y16.0857
G1 X-8.7634 Y16.3698
G1 X-8.2216 Y16.6539
G1 X-7.6497 Y16.8845
G1 X-7.0765 Y17.1151
G1 X-6.5021 Y17.3457
G1 X-5.9036 Y17.5207
G1 X-5.3040 Y17.6956
G1 X-4.7033 Y17.8705
G1 X-4.0849 Y17.9881
G1 X-3.4658 Y18.1057
G1 X-2.8459 Y18.2232
G1 X-2.2152 Y18.2823
G1 X-1.5842 Y18.3414
G1 X-0.9527 Y18.4004
G1 X-0.2955 Y18.3992
G1 X0.3617 Y18.3980
G1 X1.0189 Y18.3968
G1 X1.0151 Y17.7406
G1 X1.0114 Y17.0843
G1 X1.0079 Y16.4280
G1 X1.0046 Y15.7717
G1 X1.0014 Y15.1154
G1 X0.4879 Y15.1227
G1 X-0.0257 Y15.1300
G1 X-0.5393 Y15.1374
G1 X-1.1182 Y15.0869
G1 X-1.6967 Y15.0365
G1 X-2.2750 Y14.9860
G1 X-2.7937 Y14.8861
G1 X-3.3119 Y14.7862
G1 X-3.8297 Y14.6863
G1 X-4.3802 Y14.5190
G1 X-4.9299 Y14.3516
G1 X-5.4789 Y14.1843
G1 X-5.9582 Y13.9806
G1 X-6.4368 Y13.7769
G1 X-6.9146 Y13.5732
G1 X-7.4085 Y13.2966
G1 X-7.9014 Y13.0199
G1 X-8.3933 Y12.7432
G1 X-8.8099 Y12.4449
G1 X-9.2257 Y12.1466
G1 X-9.6409 Y11.8483
G1 X-10.0554 Y11.4748
G1 X-10.4693 Y11.1013
G1 X-10.8825 Y10.7278
G1 X-11.2554 Y10.2610
G1 X-11.6279 Y9.7943
G1 X-12.0002 Y9.3275
G1 X-12.3722 Y8.8608
G1 X-12.7441 Y8.3940
G1 X-13.0161 Y7.9102
G1 X-13.2883 Y7.4265
G1 X-13.5609 Y6.9427
G1 X-13.7606 Y6.4762
G1 X-13.9609 Y6.0097
G1 X-14.1617 Y5.5432
G1 X-14.3263 Y5.0103
G1 X-14.4919 Y4.4773
G1 X-14.6584 Y3.9443
G1 X-14.7585 Y3.4437
G1 X-14.8595 Y2.9431
G1 X-14.9617 Y2.4425
G1 X-15.0158 Y1.8844
G1 X-15.0713 Y1.3263
G1 X-15.1282 Y0.7682
G1 X-15.1270 Y0.2561
G1 X-15.1270 Y-0.2561
G1 X-15.1282 Y-0.7682
G1 X-15.0389 Y-1.4299
G1 X-14.9515 Y-2.0916
G1 X-14.8661 Y-2.7533
G1 X-14.7826 Y-3.4150
G1 X-14.5990 Y-4.0161
G1 X-14.4168 Y-4.6172
G1 X-14.2359 Y-5.2183
G1 X-14.0562 Y-5.8194
G1 X-13.7597 Y-6.4112
G1 X-13.4639 Y-7.0030
G1 X-13.1689 Y-7.5948
G1 X-12.8744 Y-8.1866
G1 X-12.5023 Y-8.6875
G1 X-12.1302 Y-9.1884
G1 X-11.7579 Y-9.6893
G1 X-11.3854 Y-10.1902
G1 X-10.9804 Y-10.5948
G1 X-10.5748 Y-10.9995
G1 X-10.1686 Y-11.4041
G1 X-9.7292 Y-11.7494
G1 X-9.2890 Y-12.0947
G1 X-8.8481 Y-12.4401
G1 X-8.3533 Y-12.7420
G1 X-7.8575 Y-13.0440
G1 X-7.3608 Y-13.3460
G1 X-6.8291 Y-13.5897
G1 X-6.2965 Y-13.8334
G1 X-5.7629 Y-14.0771
G1 X-5.2016 Y-14.2593
G1 X-4.6394 Y-14.4415
G1 X-4.0764 Y-14.6237
G1 X-3.5608 Y-14.7318
G1 X-3.0447 Y-14.8399
G1 X-2.5281 Y-14.9481
G1 X-1.9337 Y-15.0085
G1 X-1.3390 Y-15.0689
G1 X-0.7440 Y-15.1293
G1 X-0.1621 Y-15.1247
G1 X0.4197 Y-15.1200
G1 X1.0014 Y-15.1154
M3 S575
G4 P0.030
(PATH_END id=fill-infill_002)
(Travel to fill-infill path 3)
G1 X-0.1679 Y-16.2731 F3000.000
M3 S700
G4 P0.060
(PATH_START id=fill-infill_003 kind=fill-infill space=machine_deg source=component_unknown points=183 max_surface_segment_mm=0.2476)
(fill-infill path 3, 183 points)
G1 X-0.1683 Y-16.7832 F1200.000
G1 X-0.1688 Y-17.2934
G1 X-0.8415 Y-17.2272
G1 X-1.5137 Y-17.1610
G1 X-2.1854 Y-17.0948
G1 X-2.8567 Y-17.0286
G1 X-3.5275 Y-16.9624
G1 X-4.0982 Y-16.8249
G1 X-4.6682 Y-16.6874
G1 X-5.2374 Y-16.5500
G1 X-5.7874 Y-16.3594
G1 X-6.3363 Y-16.1688
G1 X-6.8844 Y-15.9782
G1 X-7.4074 Y-15.7363
G1 X-7.9294 Y-15.4944
G1 X-8.4503 Y-15.2525
G1 X-8.9410 Y-14.9617
G1 X-9.4306 Y-14.6708
G1 X-9.9192 Y-14.3800
G1 X-10.3728 Y-14.0430
G1 X-10.8255 Y-13.7060
G1 X-11.2772 Y-13.3690
G1 X-11.6899 Y-12.9890
G1 X-12.1019 Y-12.6091
G1 X-12.5131 Y-12.2292
G1 X-12.8818 Y-11.8100
G1 X-13.2500 Y-11.3908
G1 X-13.6179 Y-10.9716
G1 X-13.9402 Y-10.5172
G1 X-14.2624 Y-10.0628
G1 X-14.5846 Y-9.6084
G1 X-14.8588 Y-9.1232
G1 X-15.1333 Y-8.6379
G1 X-15.4083 Y-8.1527
G1 X-15.6332 Y-7.6412
G1 X-15.8589 Y-7.1298
G1 X-16.0854 Y-6.6184
G1 X-16.2604 Y-6.0857
G1 X-16.4365 Y-5.5530
G1 X-16.6137 Y-5.0204
G1 X-16.7384 Y-4.4716
G1 X-16.8644 Y-3.9228
G1 X-16.9918 Y-3.3740
G1 X-17.0660 Y-2.8144
G1 X-17.1417 Y-2.2548
G1 X-17.2189 Y-1.6952
G1 X-17.2425 Y-1.1301
G1 X-17.2678 Y-0.5651
G1 X-17.2947 Y-0.0000
G1 X-17.2678 Y0.5651
G1 X-17.2425 Y1.1301
G1 X-17.2189 Y1.6952
G1 X-17.1417 Y2.2548
G1 X-17.0660 Y2.8144
G1 X-16.9918 Y3.3740
G1 X-16.8644 Y3.9228
G1 X-16.7384 Y4.4716
G1 X-16.6137 Y5.0204
G1 X-16.4365 Y5.5530
G1 X-16.2604 Y6.0857
G1 X-16.0854 Y6.6184
G1 X-15.8589 Y7.1298
G1 X-15.6332 Y7.6412
G1 X-15.4083 Y8.1527
G1 X-15.1333 Y8.6379
G1 X-14.8588 Y9.1232
G1 X-14.5846 Y9.6084
G1 X-14.2624 Y10.0628
G1 X-13.9402 Y10.5172
G1 X-13.6179 Y10.9716
G1 X-13.2500 Y11.3908
G1 X-12.8818 Y11.8100
G1 X-12.5131 Y12.2292
G1 X-12.1019 Y12.6091
G1 X-11.6899 Y12.9890
G1 X-11.2772 Y13.3690
G1 X-10.8255 Y13.7060
G1 X-10.3728 Y14.0430
G1 X-9.9192 Y14.3800
G1 X-9.4306 Y14.6708
G1 X-8.9410 Y14.9617
G1 X-8.4503 Y15.2525
G1 X-7.9294 Y15.4944
G1 X-7.4074 Y15.7363
G1 X-6.8844 Y15.9782
G1 X-6.3363 Y16.1688
G1 X-5.7874 Y16.3594
G1 X-5.2374 Y16.5500
G1 X-4.6682 Y16.6874
G1 X-4.0982 Y16.8249
G1 X-3.5275 Y16.9624
G1 X-2.8567 Y17.0286
G1 X-2.1854 Y17.0948
G1 X-1.5137 Y17.1610
G1 X-0.8415 Y17.2272
G1 X-0.1688 Y17.2934
G1 X-0.1683 Y16.7832
G1 X-0.1679 Y16.2731
G1 X-0.8375 Y16.2286
G1 X-1.5069 Y16.1840
G1 X-2.1760 Y16.1394
G1 X-2.8327 Y16.0190
G1 X-3.4886 Y15.8986
G1 X-4.1437 Y15.7781
G1 X-4.7549 Y15.5918
G1 X-5.3650 Y15.4054
G1 X-5.9742 Y15.2190
G1 X-6.4539 Y15.0064
G1 X-6.9328 Y14.7939
G1 X-7.4109 Y14.5813
G1 X-7.8881 Y14.3687
G1 X-8.3506 Y14.0730
G1 X-8.8121 Y13.7773
G1 X-9.2726 Y13.4817
G1 X-9.7323 Y13.1860
G1 X-10.1911 Y12.8903
G1 X-10.6768 Y12.4427
G1 X-11.1615 Y11.9951
G1 X-11.6453 Y11.5475
G1 X-12.1282 Y11.0999
G1 X-12.4949 Y10.6045
G1 X-12.8613 Y10.1091
G1 X-13.2275 Y9.6137
G1 X-13.5936 Y9.1184
G1 X-13.9598 Y8.6230
G1 X-14.2079 Y8.1010
G1 X-14.4565 Y7.5789
G1 X-14.7058 Y7.0569
G1 X-14.9557 Y6.5349
G1 X-15.2063 Y6.0129
G1 X-15.3609 Y5.4386
G1 X-15.5167 Y4.8643
G1 X-15.6739 Y4.2899
G1 X-15.8323 Y3.7156
G1 X-15.9922 Y3.1413
G1 X-16.0449 Y2.5199
G1 X-16.0994 Y1.8985
G1 X-16.1558 Y1.2771
G1 X-16.2140 Y0.6557
G1 X-16.2742 Y0.0343
G1 X-16.2211 Y-0.5620
G1 X-16.1699 Y-1.1583
G1 X-16.1203 Y-1.7545
G1 X-16.0725 Y-2.3508
G1 X-16.0263 Y-2.9471
G1 X-15.8641 Y-3.5475
G1 X-15.7034 Y-4.1479
G1 X-15.5441 Y-4.7483
G1 X-15.3863 Y-5.3487
G1 X-15.2299 Y-5.9491
G1 X-14.9745 Y-6.4839
G1 X-14.7198 Y-7.0187
G1 X-14.4658 Y-7.5534
G1 X-14.2125 Y-8.0882
G1 X-13.9598 Y-8.6230
G1 X-13.5936 Y-9.1184
G1 X-13.2275 Y-9.6137
G1 X-12.8613 Y-10.1091
G1 X-12.4949 Y-10.6045
G1 X-12.1282 Y-11.0999
G1 X-11.7312 Y-11.4663
G1 X-11.3336 Y-11.8327
G1 X-10.9354 Y-12.1992
G1 X-10.5366 Y-12.5656
G1 X-10.1370 Y-12.9320
G1 X-9.5768 Y-13.2912
G1 X-9.0153 Y-13.6504
G1 X-8.4524 Y-14.0095
G1 X-7.8881 Y-14.3687
G1 X-7.3144 Y-14.6284
G1 X-6.7395 Y-14.8881
G1 X-6.1633 Y-15.1479
G1 X-5.6595 Y-15.3054
G1 X-5.1549 Y-15.4630
G1 X-4.6497 Y-15.6206
G1 X-4.1437 Y-15.7781
G1 X-3.4886 Y-15.8986
G1 X-2.8327 Y-16.0190
G1 X-2.1760 Y-16.1394
G1 X-1.5069 Y-16.1840
G1 X-0.8375 Y-16.2286
G1 X-0.1679 Y-16.2731
M3 S575
G4 P0.030
(PATH_END id=fill-infill_003)
(Travel to outline path 4)
G1 X3.4388 Y-20.4252 F3000.000
M3 S700
G4 P0.060
(PATH_START id=outline_001 kind=outline space=machine_deg source=component_unknown points=248 max_surface_segment_mm=0.2465)
(outline path 4, 248 points)
G1 X2.7749 Y-20.4949 F1200.000
G1 X2.1103 Y-20.5646
G1 X1.4452 Y-20.6343
G1 X0.9032 Y-20.6426
G1 X0.3611 Y-20.6509
G1 X-0.1810 Y-20.6592
G1 X-0.7231 Y-20.6675
G1 X-1.2632 Y-20.6260
G1 X-1.8029 Y-20.5846
G1 X-2.3424 Y-20.5431
G1 X-2.8816 Y-20.5016
G1 X-3.4125 Y-20.4108
G1 X-3.9427 Y-20.3200
G1 X-4.4723 Y-20.2292
G1 X-5.0014 Y-20.1384
G1 X-5.5161 Y-19.9991
G1 X-6.0299 Y-19.8598
G1 X-6.5428 Y-19.7205
G1 X-7.0549 Y-19.5811
G1 X-7.5470 Y-19.3947
G1 X-8.0380 Y-19.2082
G1 X-8.5280 Y-19.0218
G1 X-9.0170 Y-18.8353
G1 X-9.4808 Y-18.6035
G1 X-9.9435 Y-18.3717
G1 X-10.4052 Y-18.1400
G1 X-10.8657 Y-17.9082
G1 X-11.2964 Y-17.6332
G1 X-11.7261 Y-17.3583
G1 X-12.1547 Y-17.0834
G1 X-12.5824 Y-16.8085
G1 X-12.9761 Y-16.4931
G1 X-13.3689 Y-16.1777
G1 X-13.7609 Y-15.8623
G1 X-14.1521 Y-15.5470
G1 X-14.5060 Y-15.1941
G1 X-14.8591 Y-14.8413
G1 X-15.2117 Y-14.4885
G1 X-15.5638 Y-14.1357
G1 X-15.8756 Y-13.7489
G1 X-16.1872 Y-13.3620
G1 X-16.4984 Y-12.9752
G1 X-16.8095 Y-12.5883
G1 X-17.0780 Y-12.1711
G1 X-17.3466 Y-11.7540
G1 X-17.6153 Y-11.3368
G1 X-17.8841 Y-10.9197
G1 X-18.1086 Y-10.4762
G1 X-18.3335 Y-10.0328
G1 X-18.5589 Y-9.5893
G1 X-18.7848 Y-9.1459
G1 X-18.9651 Y-8.6804
G1 X-19.1461 Y-8.2150
G1 X-19.3279 Y-7.7495
G1 X-19.5106 Y-7.2840
G1 X-19.6466 Y-6.8010
G1 X-19.7837 Y-6.3180
G1 X-19.9220 Y-5.8350
G1 X-20.0614 Y-5.3520
G1 X-20.1534 Y-4.8561
G1 X-20.2468 Y-4.3602
G1 X-20.3415 Y-3.8643
G1 X-20.4377 Y-3.3684
G1 X-20.4859 Y-2.8644
G1 X-20.5357 Y-2.3604
G1 X-20.5871 Y-1.8564
G1 X-20.6400 Y-1.3524
G1 X-20.6448 Y-0.8452
G1 X-20.6512 Y-0.3379
G1 X-20.6593 Y0.1693
G1 X-20.6689 Y0.6766
G1 X-20.6304 Y1.1822
G1 X-20.5935 Y1.6878
G1 X-20.5582 Y2.1935
G1 X-20.5244 Y2.6991
G1 X-20.4427 Y3.1982
G1 X-20.3624 Y3.6974
G1 X-20.2836 Y4.1965
G1 X-20.2062 Y4.6956
G1 X-20.0812 Y5.1834
G1 X-19.9574 Y5.6713
G1 X-19.8349 Y6.1591
G1 X-19.7137 Y6.6469
G1 X-19.5454 Y7.1187
G1 X-19.3780 Y7.5905
G1 X-19.2117 Y8.0624
G1 X-19.0462 Y8.5342
G1 X-18.8347 Y8.9855
G1 X-18.6238 Y9.4367
G1 X-18.4135 Y9.8880
G1 X-18.2037 Y10.3393
G1 X-17.9492 Y10.7657
G1 X-17.6948 Y11.1920
G1 X-17.4408 Y11.6184
G1 X-17.1869 Y12.0448
G1 X-16.8898 Y12.4422
G1 X-16.5926 Y12.8396
G1 X-16.2953 Y13.2369
G1 X-15.9978 Y13.6343
G1 X-15.6592 Y13.9989
G1 X-15.3202 Y14.3634
G1 X-14.9807 Y14.7280
G1 X-14.6407 Y15.0925
G1 X-14.2623 Y15.4207
G1 X-13.8832 Y15.7490
G1 X-13.5033 Y16.0772
G1 X-13.1226 Y16.4054
G1 X-12.7067 Y16.6941
G1 X-12.2899 Y16.9828
G1 X-11.8722 Y17.2716
G1 X-11.4534 Y17.5603
G1 X-11.0034 Y17.8067
G1 X-10.5523 Y18.0532
G1 X-10.1001 Y18.2996
G1 X-9.6469 Y18.5460
G1 X-9.1668 Y18.7478
G1 X-8.6857 Y18.9496
G1 X-8.2035 Y19.1514
G1 X-7.7203 Y19.3532
G1 X-7.2152 Y19.5084
G1 X-6.7093 Y19.6636
G1 X-6.2024 Y19.8188
G1 X-5.6945 Y19.9739
G1 X-5.1704 Y20.0811
G1 X-4.6456 Y20.1882
G1 X-4.1201 Y20.2953
G1 X-3.5939 Y20.4024
G1 X-2.9958 Y20.4484
G1 X-2.3974 Y20.4944
G1 X-1.7986 Y20.5405
G1 X-1.1994 Y20.5865
G1 X-0.5999 Y20.6325
G1 X-0.0000 Y20.6786
G1 X0.6887 Y20.6279
G1 X1.3769 Y20.5772
G1 X2.0647 Y20.5265
G1 X2.7520 Y20.4759
G1 X3.4388 Y20.4252
G1 X3.4243 Y19.7632
G1 X3.4104 Y19.1011
G1 X3.3970 Y18.4391
G1 X3.3842 Y17.7771
G1 X3.3720 Y17.1150
G1 X3.3602 Y16.4530
G1 X3.3490 Y15.7910
G1 X3.3383 Y15.1289
G1 X3.3282 Y14.4669
G1 X3.3185 Y13.8049
G1 X3.3093 Y13.1428
G1 X3.3006 Y12.4808
G1 X2.7737 Y12.5809
G1 X2.2463 Y12.6810
G1 X1.7186 Y12.7811
G1 X1.1482 Y12.8176
G1 X0.5775 Y12.8540
G1 X0.0068 Y12.8905
G1 X-0.5014 Y12.8621
G1 X-1.0095 Y12.8337
G1 X-1.5175 Y12.8053
G1 X-2.0793 Y12.7055
G1 X-2.6407 Y12.6056
G1 X-3.2017 Y12.5058
G1 X-3.6848 Y12.3579
G1 X-4.1674 Y12.2099
G1 X-4.6495 Y12.0620
G1 X-5.1645 Y11.8318
G1 X-5.6788 Y11.6017
G1 X-6.1923 Y11.3715
G1 X-6.6184 Y11.1129
G1 X-7.0439 Y10.8543
G1 X-7.4688 Y10.5957
G1 X-7.9076 Y10.2461
G1 X-8.3457 Y9.8964
G1 X-8.7833 Y9.5468
G1 X-9.1660 Y9.1461
G1 X-9.5483 Y8.7454
G1 X-9.9302 Y8.3446
G1 X-10.2222 Y7.9485
G1 X-10.5141 Y7.5523
G1 X-10.8059 Y7.1561
G1 X-11.0775 Y6.6692
G1 X-11.3493 Y6.1823
G1 X-11.6214 Y5.6954
G1 X-11.8258 Y5.1802
G1 X-12.0307 Y4.6650
G1 X-12.2364 Y4.1498
G1 X-12.3620 Y3.6715
G1 X-12.4884 Y3.1932
G1 X-12.6155 Y2.7149
G1 X-12.6923 Y2.1633
G1 X-12.7701 Y1.6116
G1 X-12.8491 Y1.0600
G1 X-12.8597 Y0.5639
G1 X-12.8712 Y0.0678
G1 X-12.8838 Y-0.4284
G1 X-12.8306 Y-0.9833
G1 X-12.7787 Y-1.5383
G1 X-12.7279 Y-2.0933
G1 X-12.5869 Y-2.6209
G1 X-12.4468 Y-3.1485
G1 X-12.3076 Y-3.6761
G1 X-12.1693 Y-4.2037
G1 X-12.0318 Y-4.7313
G1 X-11.7508 Y-5.2962
G1 X-11.4705 Y-5.8611
G1 X-11.1907 Y-6.4259
G1 X-10.9114 Y-6.9908
G1 X-10.5766 Y-7.4147
G1 X-10.2417 Y-7.8386
G1 X-9.9067 Y-8.2625
G1 X-9.5715 Y-8.6864
G1 X-9.2361 Y-9.1103
G1 X-8.8136 Y-9.4543
G1 X-8.3905 Y-9.7983
G1 X-7.9668 Y-10.1423
G1 X-7.5425 Y-10.4863
G1 X-7.1176 Y-10.8302
G1 X-6.5489 Y-11.1204
G1 X-5.9793 Y-11.4105
G1 X-5.4086 Y-11.7007
G1 X-4.8369 Y-11.9908
G1 X-4.2998 Y-12.1365
G1 X-3.7622 Y-12.2823
G1 X-3.2241 Y-12.4280
G1 X-2.6853 Y-12.5737
G1 X-2.1460 Y-12.7194
G1 X-1.5886 Y-12.7506
G1 X-1.0312 Y-12.7818
G1 X-0.4736 Y-12.8130
G1 X0.0842 Y-12.8441
G1 X0.6421 Y-12.8753
G1 X1.3075 Y-12.7767
G1 X1.9724 Y-12.6781
G1 X2.6368 Y-12.5794
G1 X3.3006 Y-12.4808
G1 X3.3093 Y-13.1428
G1 X3.3185 Y-13.8049
G1 X3.3282 Y-14.4669
G1 X3.3383 Y-15.1289
G1 X3.3490 Y-15.7910
G1 X3.3602 Y-16.4530
G1 X3.3720 Y-17.1150
G1 X3.3842 Y-17.7771
G1 X3.3970 Y-18.4391
G1 X3.4104 Y-19.1011
G1 X3.4243 Y-19.7632
G1 X3.4388 Y-20.4252
M3 S575
G4 P0.030
(PATH_END id=outline_001)
(Return to zero with pen up)
G1 X0.0000 Y0.0000 F3000.000
M3 S575
G4 P0.030
