(Generated for golf ball plotter)
(Units are angular degrees. X=-180..180 ball rotation, Y=-45..45 arm tilt)
G21
G90
M3 S575
G4 P0.030
(Travel to fill-infill path 1)
G1 X2.4191 Y2.4170 F3000.000
M3 S700
G4 P0.060
(PATH_START id=fill-infill_001 kind=fill-infill space=machine_deg source=component_unknown points=101 max_surface_segment_mm=0.2480)
(fill-infill path 1, 101 points)
G1 X2.4205 Y3.0830 F1200.000
G1 X2.4222 Y3.7490
G1 X2.4242 Y4.4150
G1 X2.4265 Y5.0810
G1 X2.4292 Y5.7470
G1 X2.4322 Y6.4130
G1 X2.4355 Y7.0791
G1 X2.4392 Y7.7451
G1 X2.4433 Y8.4111
G1 X2.4476 Y9.0771
G1 X2.4523 Y9.7431
G1 X2.4574 Y10.4091
G1 X2.4628 Y11.0751
G1 X2.4686 Y11.7411
G1 X2.4748 Y12.4071
G1 X2.4813 Y13.0732
G1 X2.4882 Y13.7392
G1 X2.4954 Y14.4052
G1 X2.5031 Y15.0712
G1 X2.5111 Y15.7372
G1 X2.5195 Y16.4032
G1 X2.5283 Y17.0692
G1 X2.5376 Y17.7352
G1 X2.5472 Y18.4013
G1 X2.5573 Y19.0673
G1 X3.2620 Y19.0673
G1 X3.9666 Y19.0673
G1 X4.6713 Y19.0673
G1 X5.3760 Y19.0673
G1 X6.0806 Y19.0673
G1 X6.7853 Y19.0673
G1 X7.4900 Y19.0673
G1 X8.1947 Y19.0673
G1 X8.8993 Y19.0673
G1 X9.6040 Y19.0673
G1 X10.3087 Y19.0673
G1 X11.0134 Y19.0673
G1 X11.7180 Y19.0673
G1 X12.4227 Y19.0673
G1 X13.1274 Y19.0673
G1 X13.8320 Y19.0673
G1 X14.5367 Y19.0673
G1 X15.2414 Y19.0673
G1 X15.9461 Y19.0673
G1 X16.6507 Y19.0673
G1 X17.3554 Y19.0673
G1 X18.0601 Y19.0673
G1 X18.7648 Y19.0673
G1 X19.4694 Y19.0673
G1 X20.1741 Y19.0673
G1 X20.0947 Y18.4013
G1 X20.0187 Y17.7352
G1 X19.9459 Y17.0692
G1 X19.8763 Y16.4032
G1 X19.8098 Y15.7372
G1 X19.7465 Y15.0712
G1 X19.6862 Y14.4052
G1 X19.6289 Y13.7392
G1 X19.5746 Y13.0732
G1 X19.5232 Y12.4071
G1 X19.4747 Y11.7411
G1 X19.4291 Y11.0751
G1 X19.3863 Y10.4091
G1 X19.3463 Y9.7431
G1 X19.3091 Y9.0771
G1 X19.2746 Y8.4111
G1 X19.2428 Y7.7451
G1 X19.2137 Y7.0791
G1 X19.1873 Y6.4130
G1 X19.1636 Y5.7470
G1 X19.1425 Y5.0810
G1 X19.1240 Y4.4150
G1 X19.1082 Y3.7490
G1 X19.0949 Y3.0830
G1 X19.0842 Y2.4170
G1 X18.4176 Y2.4170
G1 X17.7510 Y2.4170
G1 X17.0844 Y2.4170
G1 X16.4178 Y2.4170
G1 X15.7512 Y2.4170
G1 X15.0846 Y2.4170
G1 X14.4180 Y2.4170
G1 X13.7514 Y2.4170
G1 X13.0848 Y2.4170
G1 X12.4182 Y2.4170
G1 X11.7516 Y2.4170
G1 X11.0850 Y2.4170
G1 X10.4184 Y2.4170
G1 X9.7518 Y2.4170
G1 X9.0852 Y2.4170
G1 X8.4186 Y2.4170
G1 X7.7520 Y2.4170
G1 X7.0854 Y2.4170
G1 X6.4188 Y2.4170
G1 X5.7522 Y2.4170
G1 X5.0855 Y2.4170
G1 X4.4189 Y2.4170
G1 X3.7523 Y2.4170
G1 X3.0857 Y2.4170
G1 X2.4191 Y2.4170
M3 S575
G4 P0.030
(PATH_END id=fill-infill_001)
(Travel to fill-infill path 2)
G1 X4.0383 Y4.0283 F3000.000
M3 S700
G4 P0.060
(PATH_START id=fill-infill_002 kind=fill-infill space=machine_deg source=component_unknown points=81 max_surface_segment_mm=0.2500)
(fill-infill path 2, 81 points)
G1 X4.0419 Y4.6997 F1200.000
G1 X4.0461 Y5.3711
G1 X4.0508 Y6.0424
G1 X4.0561 Y6.7138
G1 X4.0620 Y7.3852
G1 X4.0684 Y8.0566
G1 X4.0755 Y8.7280
G1 X4.0831 Y9.3994
G1 X4.0913 Y10.0707
G1 X4.1001 Y10.7421
G1 X4.1096 Y11.4135
G1 X4.1196 Y12.0849
G1 X4.1302 Y12.7563
G1 X4.1415 Y13.4276
G1 X4.1534 Y14.0990
G1 X4.1660 Y14.7704
G1 X4.1792 Y15.4418
G1 X4.1930 Y16.1132
G1 X4.2075 Y16.7846
G1 X4.2228 Y17.4559
G1 X4.9266 Y17.4559
G1 X5.6303 Y17.4559
G1 X6.3341 Y17.4559
G1 X7.0379 Y17.4559
G1 X7.7417 Y17.4559
G1 X8.4455 Y17.4559
G1 X9.1493 Y17.4559
G1 X9.8531 Y17.4559
G1 X10.5569 Y17.4559
G1 X11.2607 Y17.4559
G1 X11.9645 Y17.4559
G1 X12.6683 Y17.4559
G1 X13.3721 Y17.4559
G1 X14.0759 Y17.4559
G1 X14.7797 Y17.4559
G1 X15.4835 Y17.4559
G1 X16.1873 Y17.4559
G1 X16.8910 Y17.4559
G1 X17.5948 Y17.4559
G1 X18.2986 Y17.4559
G1 X18.2327 Y16.7846
G1 X18.1697 Y16.1132
G1 X18.1097 Y15.4418
G1 X18.0525 Y14.7704
G1 X17.9981 Y14.0990
G1 X17.9465 Y13.4276
G1 X17.8977 Y12.7563
G1 X17.8516 Y12.0849
G1 X17.8081 Y11.4135
G1 X17.7673 Y10.7421
G1 X17.7291 Y10.0707
G1 X17.6935 Y9.3994
G1 X17.6605 Y8.7280
G1 X17.6299 Y8.0566
G1 X17.6020 Y7.3852
G1 X17.5765 Y6.7138
G1 X17.5535 Y6.0424
G1 X17.5329 Y5.3711
G1 X17.5148 Y4.6997
G1 X17.4992 Y4.0283
G1 X16.8261 Y4.0283
G1 X16.1531 Y4.0283
G1 X15.4800 Y4.0283
G1 X14.8070 Y4.0283
G1 X14.1339 Y4.0283
G1 X13.4609 Y4.0283
G1 X12.7879 Y4.0283
G1 X12.1148 Y4.0283
G1 X11.4418 Y4.0283
G1 X10.7687 Y4.0283
G1 X10.0957 Y4.0283
G1 X9.4226 Y4.0283
G1 X8.7496 Y4.0283
G1 X8.0765 Y4.0283
G1 X7.4035 Y4.0283
G1 X6.7305 Y4.0283
G1 X6.0574 Y4.0283
G1 X5.3844 Y4.0283
G1 X4.7113 Y4.0283
G1 X4.0383 Y4.0283
M3 S575
G4 P0.030
(PATH_END id=fill-infill_002)
(Travel to fill-infill path 3)
G1 X5.6670 Y5.6396 F3000.000
M3 S700
G4 P0.060
(PATH_START id=fill-infill_003 kind=fill-infill space=machine_deg source=component_unknown points=65 max_surface_segment_mm=0.2375)
(fill-infill path 3, 65 points)
G1 X5.6736 Y6.2774 F1200.000
G1 X5.6809 Y6.9152
G1 X5.6890 Y7.5531
G1 X5.6977 Y8.1909
G1 X5.7072 Y8.8287
G1 X5.7175 Y9.4665
G1 X5.7285 Y10.1043
G1 X5.7402 Y10.7421
G1 X5.7527 Y11.3799
G1 X5.7660 Y12.0177
G1 X5.7800 Y12.6556
G1 X5.7949 Y13.2934
G1 X5.8105 Y13.9312
G1 X5.8270 Y14.5690
G1 X5.8442 Y15.2068
G1 X5.8623 Y15.8446
G1 X6.5254 Y15.8446
G1 X7.1884 Y15.8446
G1 X7.8514 Y15.8446
G1 X8.5144 Y15.8446
G1 X9.1774 Y15.8446
G1 X9.8404 Y15.8446
G1 X10.5034 Y15.8446
G1 X11.1664 Y15.8446
G1 X11.8294 Y15.8446
G1 X12.4924 Y15.8446
G1 X13.1554 Y15.8446
G1 X13.8184 Y15.8446
G1 X14.4814 Y15.8446
G1 X15.1444 Y15.8446
G1 X15.8074 Y15.8446
G1 X16.4704 Y15.8446
G1 X16.4196 Y15.2068
G1 X16.3710 Y14.5690
G1 X16.3248 Y13.9312
G1 X16.2809 Y13.2934
G1 X16.2392 Y12.6556
G1 X16.1997 Y12.0177
G1 X16.1624 Y11.3799
G1 X16.1272 Y10.7421
G1 X16.0942 Y10.1043
G1 X16.0634 Y9.4665
G1 X16.0346 Y8.8287
G1 X16.0079 Y8.1909
G1 X15.9833 Y7.5531
G1 X15.9607 Y6.9152
G1 X15.9402 Y6.2774
G1 X15.9217 Y5.6396
G1 X15.2808 Y5.6396
G1 X14.6399 Y5.6396
G1 X13.9989 Y5.6396
G1 X13.3580 Y5.6396
G1 X12.7171 Y5.6396
G1 X12.0762 Y5.6396
G1 X11.4353 Y5.6396
G1 X10.7944 Y5.6396
G1 X10.1535 Y5.6396
G1 X9.5125 Y5.6396
G1 X8.8716 Y5.6396
G1 X8.2307 Y5.6396
G1 X7.5898 Y5.6396
G1 X6.9489 Y5.6396
G1 X6.3080 Y5.6396
G1 X5.6670 Y5.6396
M3 S575
G4 P0.030
(PATH_END id=fill-infill_003)
(Travel to fill-infill path 4)
G1 X7.3094 Y7.2509 F3000.000
M3 S700
G4 P0.060
(PATH_START id=fill-infill_004 kind=fill-infill space=machine_deg source=component_unknown points=45 max_surface_segment_mm=0.2364)
(fill-infill path 4, 45 points)
G1 X7.3202 Y7.8857 F1200.000
G1 X7.3319 Y8.5205
G1 X7.3445 Y9.1552
G1 X7.3581 Y9.7900
G1 X7.3726 Y10.4247
G1 X7.3881 Y11.0595
G1 X7.4046 Y11.6943
G1 X7.4221 Y12.3290
G1 X7.4406 Y12.9638
G1 X7.4601 Y13.5985
G1 X7.4806 Y14.2333
G1 X8.1354 Y14.2333
G1 X8.7903 Y14.2333
G1 X9.4452 Y14.2333
G1 X10.1000 Y14.2333
G1 X10.7549 Y14.2333
G1 X11.4098 Y14.2333
G1 X12.0646 Y14.2333
G1 X12.7195 Y14.2333
G1 X13.3743 Y14.2333
G1 X14.0292 Y14.2333
G1 X14.6841 Y14.2333
G1 X14.6438 Y13.5985
G1 X14.6056 Y12.9638
G1 X14.5693 Y12.3290
G1 X14.5350 Y11.6943
G1 X14.5026 Y11.0595
G1 X14.4722 Y10.4247
G1 X14.4436 Y9.7900
G1 X14.4170 Y9.1552
G1 X14.3922 Y8.5205
G1 X14.3692 Y7.8857
G1 X14.3481 Y7.2509
G1 X13.7082 Y7.2509
G1 X13.0683 Y7.2509
G1 X12.4284 Y7.2509
G1 X11.7885 Y7.2509
G1 X11.1487 Y7.2509
G1 X10.5088 Y7.2509
G1 X9.8689 Y7.2509
G1 X9.2290 Y7.2509
G1 X8.5891 Y7.2509
G1 X7.9493 Y7.2509
G1 X7.3094 Y7.2509
M3 S575
G4 P0.030
(PATH_END id=fill-infill_004)
(Travel to fill-infill path 5)
G1 X8.9693 Y8.8622 F3000.000
M3 S700
G4 P0.060
(PATH_START id=fill-infill_005 kind=fill-infill space=machine_deg source=component_unknown points=25 max_surface_segment_mm=0.2333)
(fill-infill path 5, 25 points)
G1 X8.9852 Y9.4889 F1200.000
G1 X9.0022 Y10.1155
G1 X9.0203 Y10.7421
G1 X9.0396 Y11.3687
G1 X9.0601 Y11.9954
G1 X9.0817 Y12.6220
G1 X9.7239 Y12.6220
G1 X10.3660 Y12.6220
G1 X11.0082 Y12.6220
G1 X11.6503 Y12.6220
G1 X12.2924 Y12.6220
G1 X12.9346 Y12.6220
G1 X12.9038 Y11.9954
G1 X12.8746 Y11.3687
G1 X12.8471 Y10.7421
G1 X12.8213 Y10.1155
G1 X12.7971 Y9.4889
G1 X12.7745 Y8.8622
G1 X12.1403 Y8.8622
G1 X11.5061 Y8.8622
G1 X10.8719 Y8.8622
G1 X10.2377 Y8.8622
G1 X9.6035 Y8.8622
G1 X8.9693 Y8.8622
M3 S575
G4 P0.030
(PATH_END id=fill-infill_005)
(Travel to fill-infill path 6)
G1 X10.6510 Y10.4736 F3000.000
M3 S700
G4 P0.060
(PATH_START id=fill-infill_006 kind=fill-infill space=machine_deg source=component_unknown points=5 max_surface_segment_mm=0.2000)
(fill-infill path 6, 5 points)
G1 X10.6700 Y11.0107 F1200.000
G1 X11.2172 Y11.0107
G1 X11.1972 Y10.4736
G1 X10.6510 Y10.4736
M3 S575
G4 P0.030
(PATH_END id=fill-infill_006)
(Travel to outline path 7)
G1 X0.8057 Y0.8057 F3000.000
M3 S700
G4 P0.060
(PATH_START id=outline_001 kind=outline space=machine_deg source=component_unknown points=121 max_surface_segment_mm=0.2467)
(outline path 7, 121 points)
G1 X0.8059 Y1.4681 F1200.000
G1 X0.8062 Y2.1305
G1 X0.8066 Y2.7930
G1 X0.8071 Y3.4554
G1 X0.8077 Y4.1178
G1 X0.8085 Y4.7802
G1 X0.8093 Y5.4427
G1 X0.8103 Y6.1051
G1 X0.8113 Y6.7675
G1 X0.8125 Y7.4300
G1 X0.8138 Y8.0924
G1 X0.8152 Y8.7548
G1 X0.8167 Y9.4173
G1 X0.8183 Y10.0797
G1 X0.8200 Y10.7421
G1 X0.8219 Y11.4046
G1 X0.8239 Y12.0670
G1 X0.8260 Y12.7294
G1 X0.8282 Y13.3918
G1 X0.8305 Y14.0543
G1 X0.8330 Y14.7167
G1 X0.8356 Y15.3791
G1 X0.8383 Y16.0416
G1 X0.8412 Y16.7040
G1 X0.8441 Y17.3664
G1 X0.8473 Y18.0289
G1 X0.8505 Y18.6913
G1 X0.8539 Y19.3537
G1 X0.8575 Y20.0161
G1 X0.8611 Y20.6786
G1 X1.5692 Y20.6786
G1 X2.2772 Y20.6786
G1 X2.9853 Y20.6786
G1 X3.6933 Y20.6786
G1 X4.4014 Y20.6786
G1 X5.1094 Y20.6786
G1 X5.8175 Y20.6786
G1 X6.5255 Y20.6786
G1 X7.2335 Y20.6786
G1 X7.9416 Y20.6786
G1 X8.6496 Y20.6786
G1 X9.3577 Y20.6786
G1 X10.0657 Y20.6786
G1 X10.7738 Y20.6786
G1 X11.4818 Y20.6786
G1 X12.1899 Y20.6786
G1 X12.8979 Y20.6786
G1 X13.6060 Y20.6786
G1 X14.3140 Y20.6786
G1 X15.0221 Y20.6786
G1 X15.7301 Y20.6786
G1 X16.4381 Y20.6786
G1 X17.1462 Y20.6786
G1 X17.8542 Y20.6786
G1 X18.5623 Y20.6786
G1 X19.2703 Y20.6786
G1 X19.9784 Y20.6786
G1 X20.6864 Y20.6786
G1 X21.3945 Y20.6786
G1 X22.1025 Y20.6786
G1 X22.0079 Y20.0161
G1 X21.9171 Y19.3537
G1 X21.8299 Y18.6913
G1 X21.7463 Y18.0289
G1 X21.6662 Y17.3664
G1 X21.5896 Y16.7040
G1 X21.5164 Y16.0416
G1 X21.4465 Y15.3791
G1 X21.3800 Y14.7167
G1 X21.3167 Y14.0543
G1 X21.2566 Y13.3918
G1 X21.1996 Y12.7294
G1 X21.1458 Y12.0670
G1 X21.0951 Y11.4046
G1 X21.0474 Y10.7421
G1 X21.0028 Y10.0797
G1 X20.9611 Y9.4173
G1 X20.9224 Y8.7548
G1 X20.8866 Y8.0924
G1 X20.8537 Y7.4300
G1 X20.8237 Y6.7675
G1 X20.7965 Y6.1051
G1 X20.7722 Y5.4427
G1 X20.7508 Y4.7802
G1 X20.7321 Y4.1178
G1 X20.7162 Y3.4554
G1 X20.7032 Y2.7930
G1 X20.6929 Y2.1305
G1 X20.6854 Y1.4681
G1 X20.6806 Y0.8057
G1 X20.0181 Y0.8057
G1 X19.3556 Y0.8057
G1 X18.6931 Y0.8057
G1 X18.0306 Y0.8057
G1 X17.3681 Y0.8057
G1 X16.7056 Y0.8057
G1 X16.0432 Y0.8057
G1 X15.3807 Y0.8057
G1 X14.7182 Y0.8057
G1 X14.0557 Y0.8057
G1 X13.3932 Y0.8057
G1 X12.7307 Y0.8057
G1 X12.0682 Y0.8057
G1 X11.4057 Y0.8057
G1 X10.7432 Y0.8057
G1 X10.0807 Y0.8057
G1 X9.4182 Y0.8057
G1 X8.7557 Y0.8057
G1 X8.0932 Y0.8057
G1 X7.4307 Y0.8057
G1 X6.7682 Y0.8057
G1 X6.1057 Y0.8057
G1 X5.4432 Y0.8057
G1 X4.7807 Y0.8057
G1 X4.1182 Y0.8057
G1 X3.4557 Y0.8057
G1 X2.7932 Y0.8057
G1 X2.1307 Y0.8057
G1 X1.4682 Y0.8057
G1 X0.8057 Y0.8057
M3 S575
G4 P0.030
(PATH_END id=outline_001)
(Return to zero with pen up)
G1 X0.0000 Y0.0000 F3000.000
M3 S575
G4 P0.030
