(Generated for golf ball plotter)
(Units are angular degrees. X=-180..180 ball rotation, Y=-45..45 arm tilt)
G21
G90
M3 S575
G4 P0.030
(Travel to fill-infill path 1)
G1 X-4.4592 Y2.4802 F3000.000
M3 S700
G4 P0.060
(PATH_START id=fill-infill_001 kind=fill-infill space=machine_deg source=component_002 points=39 max_surface_segment_mm=0.0979)
(fill-infill path 1, 39 points)
G1 X-4.1964 Y2.4656 F1200.000
G1 X-3.9335 Y2.4510
G1 X-3.6706 Y2.4363
G1 X-3.4077 Y2.4217
G1 X-3.1448 Y2.4071
G1 X-2.8820 Y2.3925
G1 X-2.6191 Y2.3778
G1 X-2.3563 Y2.3632
G1 X-2.0934 Y2.3486
G1 X-1.8306 Y2.3339
G1 X-1.5678 Y2.3193
G1 X-1.3049 Y2.3047
G1 X-1.0421 Y2.2900
G1 X-0.7793 Y2.2754
G1 X-0.5165 Y2.2608
G1 X-0.2537 Y2.2462
G1 X0.0091 Y2.2315
G1 X0.2719 Y2.2169
G1 X0.5347 Y2.2023
G1 X0.7975 Y2.1876
G1 X1.0603 Y2.1730
G1 X1.3231 Y2.1584
G1 X1.5858 Y2.1437
G1 X1.8486 Y2.1291
G1 X2.1114 Y2.1145
G1 X2.3741 Y2.0999
G1 X2.6369 Y2.0852
G1 X2.8996 Y2.0706
G1 X3.1624 Y2.0560
G1 X3.4251 Y2.0413
G1 X3.6878 Y2.0267
G1 X3.9506 Y2.0121
G1 X4.2133 Y1.9974
G1 X4.4760 Y1.9828
G1 X4.7387 Y1.9682
G1 X5.0014 Y1.9536
G1 X5.2641 Y1.9389
G1 X5.5269 Y1.9243
(Safe converted infill-to-infill connector to fill-infill path 2)
G1 X5.6991 Y1.2422
(fill-infill path 2, 141 points)
G1 X5.4324 Y1.2570
G1 X5.1656 Y1.2719
G1 X4.8989 Y1.2868
G1 X4.6321 Y1.3016
G1 X4.3653 Y1.3165
G1 X4.0986 Y1.3313
G1 X3.8318 Y1.3462
G1 X3.5650 Y1.3611
G1 X3.2983 Y1.3759
G1 X3.0315 Y1.3908
G1 X2.7647 Y1.4056
G1 X2.4979 Y1.4205
G1 X2.2311 Y1.4353
G1 X1.9643 Y1.4502
G1 X1.6975 Y1.4651
G1 X1.4307 Y1.4799
G1 X1.1639 Y1.4948
G1 X0.8971 Y1.5096
G1 X0.6303 Y1.5245
G1 X0.3635 Y1.5394
G1 X0.0967 Y1.5542
G1 X-0.1701 Y1.5691
G1 X-0.4369 Y1.5839
G1 X-0.7038 Y1.5988
G1 X-0.9706 Y1.6137
G1 X-1.2374 Y1.6285
G1 X-1.5043 Y1.6434
G1 X-1.7711 Y1.6582
G1 X-2.0379 Y1.6731
G1 X-2.3048 Y1.6880
G1 X-2.5716 Y1.7028
G1 X-2.8385 Y1.7177
G1 X-3.1054 Y1.7325
G1 X-3.3722 Y1.7474
G1 X-3.6391 Y1.7623
G1 X-3.9060 Y1.7771
G1 X-4.1729 Y1.7920
G1 X-4.4398 Y1.8068
G1 X-4.7066 Y1.8217
G1 X-4.9735 Y1.8366
G1 X-5.2404 Y1.8514
G1 X-5.5073 Y1.8663
G1 X-5.7743 Y1.8811
G1 X-6.0412 Y1.8960
G1 X-6.3081 Y1.9108
G1 X-6.5750 Y1.9257
G1 X-6.8419 Y1.9406
G1 X-7.1089 Y1.9554
G1 X-7.3758 Y1.9703
G1 X-7.6428 Y1.9851
G1 X-7.9097 Y2.0000
G1 X-8.1767 Y2.0149
G1 X-8.4436 Y2.0297
G1 X-8.7106 Y2.0446
G1 X-8.9776 Y2.0594
G1 X-9.2445 Y2.0743
G1 X-9.5115 Y2.0892
G1 X-9.7785 Y2.1040
G1 X-10.0455 Y2.1189
G1 X-10.3125 Y2.1337
G1 X-10.5795 Y2.1486
G1 X-10.8465 Y2.1635
G1 X-11.1135 Y2.1783
G1 X-11.3806 Y2.1932
G1 X-11.6476 Y2.2080
G1 X-11.9146 Y2.2229
G1 X-12.1817 Y2.2378
G1 X-12.4487 Y2.2526
G1 X-12.7158 Y2.2675
G1 X-12.9828 Y2.2823
G1 X-13.2499 Y2.2972
G1 X-13.5170 Y2.3121
G1 X-13.7841 Y2.3269
G1 X-14.0512 Y2.3418
G1 X-14.3183 Y2.3566
G1 X-14.5854 Y2.3715
G1 X-14.8525 Y2.3863
G1 X-15.1196 Y2.4012
G1 X-15.3867 Y2.4161
G1 X-15.6538 Y2.4309
G1 X-15.9210 Y2.4458
G1 X-16.1881 Y2.4606
G1 X-16.4553 Y2.4755
G1 X-16.7224 Y2.4904
G1 X-16.9896 Y2.5052
G1 X-17.2567 Y2.5201
G1 X-17.5239 Y2.5349
G1 X-17.7911 Y2.5498
G1 X-18.0583 Y2.5647
G1 X-18.3255 Y2.5795
G1 X-18.5927 Y2.5944
G1 X-18.8599 Y2.6092
G1 X-19.1271 Y2.6241
G1 X-19.3944 Y2.6390
G1 X-19.6616 Y2.6538
G1 X-19.9289 Y2.6687
G1 X-20.1961 Y2.6835
G1 X-20.4634 Y2.6984
G1 X-20.7306 Y2.7133
G1 X-20.9979 Y2.7281
G1 X-21.2652 Y2.7430
G1 X-21.5325 Y2.7578
G1 X-21.7998 Y2.7727
G1 X-22.0671 Y2.7876
G1 X-22.3344 Y2.8024
G1 X-22.6017 Y2.8173
G1 X-22.8691 Y2.8321
G1 X-23.1364 Y2.8470
G1 X-23.4038 Y2.8618
G1 X-23.6711 Y2.8767
G1 X-23.9385 Y2.8916
G1 X-24.2059 Y2.9064
G1 X-24.4733 Y2.9213
G1 X-24.7407 Y2.9361
G1 X-25.0081 Y2.9510
G1 X-25.2755 Y2.9659
G1 X-25.5429 Y2.9807
G1 X-25.8103 Y2.9956
G1 X-26.0778 Y3.0104
G1 X-26.3452 Y3.0253
G1 X-26.6127 Y3.0402
G1 X-26.8801 Y3.0550
G1 X-27.1476 Y3.0699
G1 X-27.4151 Y3.0847
G1 X-27.6826 Y3.0996
G1 X-27.9501 Y3.1145
G1 X-28.2176 Y3.1293
G1 X-28.4851 Y3.1442
G1 X-28.7527 Y3.1590
G1 X-29.0202 Y3.1739
G1 X-29.2878 Y3.1888
G1 X-29.5553 Y3.2036
G1 X-29.8229 Y3.2185
G1 X-30.0905 Y3.2333
G1 X-30.3581 Y3.2482
G1 X-30.6257 Y3.2631
G1 X-30.8933 Y3.2779
G1 X-31.1609 Y3.2928
G1 X-31.4285 Y3.3076
G1 X-31.6962 Y3.3225
(Safe converted infill-to-infill connector to fill-infill path 3)
G1 X-31.7199 Y3.9949
(fill-infill path 3, 98 points)
G1 X-31.4518 Y3.9800
G1 X-31.1836 Y3.9652
G1 X-30.9155 Y3.9503
G1 X-30.6474 Y3.9354
G1 X-30.3792 Y3.9206
G1 X-30.1111 Y3.9057
G1 X-29.8430 Y3.8908
G1 X-29.5750 Y3.8759
G1 X-29.3069 Y3.8611
G1 X-29.0388 Y3.8462
G1 X-28.7708 Y3.8313
G1 X-28.5027 Y3.8164
G1 X-28.2347 Y3.8016
G1 X-27.9667 Y3.7867
G1 X-27.6987 Y3.7718
G1 X-27.4307 Y3.7570
G1 X-27.1627 Y3.7421
G1 X-26.8947 Y3.7272
G1 X-26.6268 Y3.7123
G1 X-26.3588 Y3.6975
G1 X-26.0909 Y3.6826
G1 X-25.8230 Y3.6677
G1 X-25.5550 Y3.6529
G1 X-25.2871 Y3.6380
G1 X-25.0192 Y3.6231
G1 X-24.7513 Y3.6082
G1 X-24.4835 Y3.5934
G1 X-24.2156 Y3.5785
G1 X-23.9478 Y3.5636
G1 X-23.6799 Y3.5488
G1 X-23.4121 Y3.5339
G1 X-23.1442 Y3.5190
G1 X-22.8764 Y3.5041
G1 X-22.6086 Y3.4893
G1 X-22.3408 Y3.4744
G1 X-22.0730 Y3.4595
G1 X-21.8053 Y3.4446
G1 X-21.5375 Y3.4298
G1 X-21.2698 Y3.4149
G1 X-21.0020 Y3.4000
G1 X-20.7343 Y3.3852
G1 X-20.4665 Y3.3703
G1 X-20.1988 Y3.3554
G1 X-19.9311 Y3.3405
G1 X-19.6634 Y3.3257
G1 X-19.3957 Y3.3108
G1 X-19.1281 Y3.2959
G1 X-18.8604 Y3.2811
G1 X-18.5927 Y3.2662
G1 X-18.3251 Y3.2513
G1 X-18.0574 Y3.2364
G1 X-17.7898 Y3.2216
G1 X-17.5222 Y3.2067
G1 X-17.2546 Y3.1918
G1 X-16.9870 Y3.1770
G1 X-16.7194 Y3.1621
G1 X-16.4518 Y3.1472
G1 X-16.1842 Y3.1323
G1 X-15.9166 Y3.1175
G1 X-15.6491 Y3.1026
G1 X-15.3815 Y3.0877
G1 X-15.1140 Y3.0728
G1 X-14.8464 Y3.0580
G1 X-14.5789 Y3.0431
G1 X-14.3114 Y3.0282
G1 X-14.0439 Y3.0134
G1 X-13.7764 Y2.9985
G1 X-13.5089 Y2.9836
G1 X-13.2414 Y2.9687
G1 X-12.9739 Y2.9539
G1 X-12.7064 Y2.9390
G1 X-12.4390 Y2.9241
G1 X-12.1715 Y2.9093
G1 X-11.9041 Y2.8944
G1 X-11.6366 Y2.8795
G1 X-11.3692 Y2.8646
G1 X-11.1018 Y2.8498
G1 X-10.8344 Y2.8349
G1 X-10.5669 Y2.8200
G1 X-10.2995 Y2.8052
G1 X-10.0322 Y2.7903
G1 X-9.7648 Y2.7754
G1 X-9.4974 Y2.7605
G1 X-9.2300 Y2.7457
G1 X-8.9627 Y2.7308
G1 X-8.6953 Y2.7159
G1 X-8.4279 Y2.7010
G1 X-8.1606 Y2.6862
G1 X-7.8933 Y2.6713
G1 X-7.6259 Y2.6564
G1 X-7.3586 Y2.6416
G1 X-7.0913 Y2.6267
G1 X-6.8240 Y2.6118
G1 X-6.5567 Y2.5969
G1 X-6.2894 Y2.5821
G1 X-6.0221 Y2.5672
G1 X-5.7548 Y2.5523
M3 S575
G4 P0.030
(PATH_END id=fill-infill_001)
(Travel to fill-infill path 4)
G1 X-4.5651 Y3.1584 F3000.000
M3 S700
G4 P0.060
(PATH_START id=fill-infill_004 kind=fill-infill space=machine_deg source=component_002 points=41 max_surface_segment_mm=0.0982)
(fill-infill path 4, 41 points)
G1 X-4.3012 Y3.1437 F1200.000
G1 X-4.0373 Y3.1290
G1 X-3.7735 Y3.1144
G1 X-3.5096 Y3.0997
G1 X-3.2458 Y3.0850
G1 X-2.9820 Y3.0703
G1 X-2.7181 Y3.0557
G1 X-2.4543 Y3.0410
G1 X-2.1905 Y3.0263
G1 X-1.9267 Y3.0116
G1 X-1.6629 Y2.9970
G1 X-1.3991 Y2.9823
G1 X-1.1354 Y2.9676
G1 X-0.8716 Y2.9529
G1 X-0.6078 Y2.9383
G1 X-0.3441 Y2.9236
G1 X-0.0803 Y2.9089
G1 X0.1834 Y2.8943
G1 X0.4472 Y2.8796
G1 X0.7109 Y2.8649
G1 X0.9746 Y2.8502
G1 X1.2383 Y2.8356
G1 X1.5021 Y2.8209
G1 X1.7658 Y2.8062
G1 X2.0295 Y2.7915
G1 X2.2931 Y2.7769
G1 X2.5568 Y2.7622
G1 X2.8205 Y2.7475
G1 X3.0842 Y2.7328
G1 X3.3478 Y2.7182
G1 X3.6115 Y2.7035
G1 X3.8752 Y2.6888
G1 X4.1388 Y2.6741
G1 X4.4024 Y2.6595
G1 X4.6661 Y2.6448
G1 X4.9297 Y2.6301
G1 X5.1933 Y2.6154
G1 X5.4570 Y2.6008
G1 X5.7206 Y2.5861
G1 X5.9842 Y2.5714
(Safe converted infill-to-infill connector to fill-infill path 5)
G1 X5.8554 Y3.2512
(fill-infill path 5, 38 points)
G1 X5.5874 Y3.2661
G1 X5.3194 Y3.2810
G1 X5.0514 Y3.2959
G1 X4.7834 Y3.3108
G1 X4.5154 Y3.3257
G1 X4.2473 Y3.3407
G1 X3.9793 Y3.3556
G1 X3.7113 Y3.3705
G1 X3.4432 Y3.3854
G1 X3.1751 Y3.4003
G1 X2.9071 Y3.4152
G1 X2.6390 Y3.4301
G1 X2.3709 Y3.4450
G1 X2.1028 Y3.4599
G1 X1.8347 Y3.4749
G1 X1.5666 Y3.4898
G1 X1.2985 Y3.5047
G1 X1.0303 Y3.5196
G1 X0.7622 Y3.5345
G1 X0.4940 Y3.5494
G1 X0.2259 Y3.5643
G1 X-0.0423 Y3.5792
G1 X-0.3105 Y3.5941
G1 X-0.5786 Y3.6091
G1 X-0.8468 Y3.6240
G1 X-1.1150 Y3.6389
G1 X-1.3832 Y3.6538
G1 X-1.6515 Y3.6687
G1 X-1.9197 Y3.6836
G1 X-2.1879 Y3.6985
G1 X-2.4562 Y3.7134
G1 X-2.7244 Y3.7283
G1 X-2.9927 Y3.7433
G1 X-3.2610 Y3.7582
G1 X-3.5292 Y3.7731
G1 X-3.7975 Y3.7880
G1 X-4.0658 Y3.8029
(Safe converted infill-to-infill connector to fill-infill path 6)
G1 X-4.1827 Y4.4816
(fill-infill path 6, 41 points)
G1 X-3.9190 Y4.4670
G1 X-3.6554 Y4.4523
G1 X-3.3917 Y4.4377
G1 X-3.1280 Y4.4231
G1 X-2.8644 Y4.4084
G1 X-2.6007 Y4.3938
G1 X-2.3371 Y4.3791
G1 X-2.0735 Y4.3645
G1 X-1.8099 Y4.3498
G1 X-1.5463 Y4.3352
G1 X-1.2827 Y4.3206
G1 X-1.0191 Y4.3059
G1 X-0.7556 Y4.2913
G1 X-0.4920 Y4.2766
G1 X-0.2285 Y4.2620
G1 X0.0351 Y4.2474
G1 X0.2986 Y4.2327
G1 X0.5621 Y4.2181
G1 X0.8256 Y4.2034
G1 X1.0891 Y4.1888
G1 X1.3526 Y4.1741
G1 X1.6161 Y4.1595
G1 X1.8795 Y4.1449
G1 X2.1430 Y4.1302
G1 X2.4064 Y4.1156
G1 X2.6699 Y4.1009
G1 X2.9333 Y4.0863
G1 X3.1967 Y4.0717
G1 X3.4601 Y4.0570
G1 X3.7235 Y4.0424
G1 X3.9869 Y4.0277
G1 X4.2503 Y4.0131
G1 X4.5136 Y3.9985
G1 X4.7770 Y3.9838
G1 X5.0404 Y3.9692
G1 X5.3037 Y3.9545
G1 X5.5670 Y3.9399
G1 X5.8304 Y3.9252
G1 X6.0937 Y3.9106
G1 X6.3570 Y3.8960
(Safe converted infill-to-infill connector to fill-infill path 7)
G1 X6.1880 Y4.5781
(fill-infill path 7, 38 points)
G1 X5.9201 Y4.5930
G1 X5.6523 Y4.6078
G1 X5.3844 Y4.6227
G1 X5.1165 Y4.6376
G1 X4.8486 Y4.6525
G1 X4.5807 Y4.6674
G1 X4.3127 Y4.6823
G1 X4.0448 Y4.6971
G1 X3.7769 Y4.7120
G1 X3.5089 Y4.7269
G1 X3.2409 Y4.7418
G1 X2.9729 Y4.7567
G1 X2.7050 Y4.7716
G1 X2.4369 Y4.7864
G1 X2.1689 Y4.8013
G1 X1.9009 Y4.8162
G1 X1.6329 Y4.8311
G1 X1.3648 Y4.8460
G1 X1.0967 Y4.8608
G1 X0.8287 Y4.8757
G1 X0.5606 Y4.8906
G1 X0.2925 Y4.9055
G1 X0.0244 Y4.9204
G1 X-0.2437 Y4.9353
G1 X-0.5119 Y4.9501
G1 X-0.7800 Y4.9650
G1 X-1.0482 Y4.9799
G1 X-1.3164 Y4.9948
G1 X-1.5845 Y5.0097
G1 X-1.8527 Y5.0246
G1 X-2.1209 Y5.0394
G1 X-2.3892 Y5.0543
G1 X-2.6574 Y5.0692
G1 X-2.9256 Y5.0841
G1 X-3.1939 Y5.0990
G1 X-3.4622 Y5.1138
G1 X-3.7305 Y5.1287
(Safe converted infill-to-infill connector to fill-infill path 8)
G1 X-3.8426 Y5.8071
(fill-infill path 8, 41 points)
G1 X-3.5790 Y5.7925
G1 X-3.3153 Y5.7779
G1 X-3.0517 Y5.7633
G1 X-2.7881 Y5.7487
G1 X-2.5246 Y5.7341
G1 X-2.2610 Y5.7195
G1 X-1.9975 Y5.7049
G1 X-1.7339 Y5.6903
G1 X-1.4704 Y5.6757
G1 X-1.2069 Y5.6611
G1 X-0.9434 Y5.6465
G1 X-0.6799 Y5.6318
G1 X-0.4165 Y5.6172
G1 X-0.1530 Y5.6026
G1 X0.1104 Y5.5880
G1 X0.3739 Y5.5734
G1 X0.6373 Y5.5588
G1 X0.9007 Y5.5442
G1 X1.1641 Y5.5296
G1 X1.4275 Y5.5150
G1 X1.6908 Y5.5004
G1 X1.9542 Y5.4858
G1 X2.2175 Y5.4712
G1 X2.4808 Y5.4566
G1 X2.7441 Y5.4420
G1 X3.0074 Y5.4274
G1 X3.2707 Y5.4127
G1 X3.5340 Y5.3981
G1 X3.7973 Y5.3835
G1 X4.0605 Y5.3689
G1 X4.3238 Y5.3543
G1 X4.5870 Y5.3397
G1 X4.8502 Y5.3251
G1 X5.1134 Y5.3105
G1 X5.3766 Y5.2959
G1 X5.6398 Y5.2813
G1 X5.9029 Y5.2667
G1 X6.1661 Y5.2521
G1 X6.4292 Y5.2375
G1 X6.6924 Y5.2229
(Safe converted infill-to-infill connector to fill-infill path 9)
G1 X6.5251 Y5.9050
(fill-infill path 9, 38 points)
G1 X6.2576 Y5.9198
G1 X5.9900 Y5.9347
G1 X5.7223 Y5.9495
G1 X5.4547 Y5.9643
G1 X5.1871 Y5.9792
G1 X4.9194 Y5.9940
G1 X4.6517 Y6.0088
G1 X4.3840 Y6.0237
G1 X4.1163 Y6.0385
G1 X3.8486 Y6.0534
G1 X3.5809 Y6.0682
G1 X3.3131 Y6.0830
G1 X3.0454 Y6.0979
G1 X2.7776 Y6.1127
G1 X2.5098 Y6.1275
G1 X2.2420 Y6.1424
G1 X1.9742 Y6.1572
G1 X1.7063 Y6.1721
G1 X1.4385 Y6.1869
G1 X1.1706 Y6.2017
G1 X0.9027 Y6.2166
G1 X0.6348 Y6.2314
G1 X0.3669 Y6.2463
G1 X0.0990 Y6.2611
G1 X-0.1689 Y6.2759
G1 X-0.4369 Y6.2908
G1 X-0.7049 Y6.3056
G1 X-0.9729 Y6.3204
G1 X-1.2409 Y6.3353
G1 X-1.5089 Y6.3501
G1 X-1.7769 Y6.3650
G1 X-2.0450 Y6.3798
G1 X-2.3130 Y6.3946
G1 X-2.5811 Y6.4095
G1 X-2.8492 Y6.4243
G1 X-3.1173 Y6.4392
G1 X-3.3854 Y6.4540
(Safe converted infill-to-infill connector to fill-infill path 10)
G1 X-3.5611 Y7.1359
(fill-infill path 10, 41 points)
G1 X-3.2960 Y7.1212
G1 X-3.0308 Y7.1066
G1 X-2.7657 Y7.0919
G1 X-2.5006 Y7.0772
G1 X-2.2355 Y7.0626
G1 X-1.9704 Y7.0479
G1 X-1.7053 Y7.0333
G1 X-1.4403 Y7.0186
G1 X-1.1752 Y7.0040
G1 X-0.9102 Y6.9893
G1 X-0.6452 Y6.9747
G1 X-0.3802 Y6.9600
G1 X-0.1153 Y6.9454
G1 X0.1497 Y6.9307
G1 X0.4146 Y6.9161
G1 X0.6795 Y6.9014
G1 X0.9444 Y6.8868
G1 X1.2093 Y6.8721
G1 X1.4742 Y6.8575
G1 X1.7390 Y6.8428
G1 X2.0039 Y6.8282
G1 X2.2687 Y6.8135
G1 X2.5335 Y6.7988
G1 X2.7983 Y6.7842
G1 X3.0630 Y6.7695
G1 X3.3278 Y6.7549
G1 X3.5925 Y6.7402
G1 X3.8573 Y6.7256
G1 X4.1220 Y6.7109
G1 X4.3867 Y6.6963
G1 X4.6513 Y6.6816
G1 X4.9160 Y6.6670
G1 X5.1806 Y6.6523
G1 X5.4453 Y6.6377
G1 X5.7099 Y6.6230
G1 X5.9745 Y6.6084
G1 X6.2391 Y6.5937
G1 X6.5036 Y6.5791
G1 X6.7682 Y6.5644
G1 X7.0327 Y6.5497
(Safe converted infill-to-infill connector to fill-infill path 11)
G1 X6.8895 Y7.2306
(fill-infill path 11, 38 points)
G1 X6.6209 Y7.2455
G1 X6.3523 Y7.2604
G1 X6.0836 Y7.2752
G1 X5.8150 Y7.2901
G1 X5.5463 Y7.3049
G1 X5.2776 Y7.3198
G1 X5.0089 Y7.3347
G1 X4.7401 Y7.3495
G1 X4.4714 Y7.3644
G1 X4.2026 Y7.3792
G1 X3.9338 Y7.3941
G1 X3.6650 Y7.4089
G1 X3.3962 Y7.4238
G1 X3.1274 Y7.4387
G1 X2.8585 Y7.4535
G1 X2.5896 Y7.4684
G1 X2.3207 Y7.4832
G1 X2.0518 Y7.4981
G1 X1.7829 Y7.5129
G1 X1.5139 Y7.5278
G1 X1.2450 Y7.5427
G1 X0.9760 Y7.5575
G1 X0.7070 Y7.5724
G1 X0.4379 Y7.5872
G1 X0.1689 Y7.6021
G1 X-0.1002 Y7.6170
G1 X-0.3692 Y7.6318
G1 X-0.6383 Y7.6467
G1 X-0.9075 Y7.6615
G1 X-1.1766 Y7.6764
G1 X-1.4457 Y7.6912
G1 X-1.7149 Y7.7061
G1 X-1.9841 Y7.7210
G1 X-2.2533 Y7.7358
G1 X-2.5226 Y7.7507
G1 X-2.7918 Y7.7655
G1 X-3.0611 Y7.7804
(Safe converted infill-to-infill connector to fill-infill path 12)
G1 X-3.1569 Y8.4578
(fill-infill path 12, 41 points)
G1 X-2.8921 Y8.4432
G1 X-2.6274 Y8.4286
G1 X-2.3626 Y8.4141
G1 X-2.0979 Y8.3995
G1 X-1.8332 Y8.3849
G1 X-1.5686 Y8.3703
G1 X-1.3039 Y8.3557
G1 X-1.0393 Y8.3411
G1 X-0.7746 Y8.3265
G1 X-0.5100 Y8.3120
G1 X-0.2455 Y8.2974
G1 X0.0191 Y8.2828
G1 X0.2836 Y8.2682
G1 X0.5481 Y8.2536
G1 X0.8126 Y8.2390
G1 X1.0771 Y8.2245
G1 X1.3416 Y8.2099
G1 X1.6060 Y8.1953
G1 X1.8704 Y8.1807
G1 X2.1348 Y8.1661
G1 X2.3992 Y8.1515
G1 X2.6636 Y8.1369
G1 X2.9279 Y8.1224
G1 X3.1923 Y8.1078
G1 X3.4566 Y8.0932
G1 X3.7209 Y8.0786
G1 X3.9851 Y8.0640
G1 X4.2494 Y8.0494
G1 X4.5136 Y8.0349
G1 X4.7778 Y8.0203
G1 X5.0420 Y8.0057
G1 X5.3062 Y7.9911
G1 X5.5703 Y7.9765
G1 X5.8345 Y7.9619
G1 X6.0986 Y7.9473
G1 X6.3627 Y7.9328
G1 X6.6268 Y7.9182
G1 X6.8909 Y7.9036
G1 X7.1549 Y7.8890
G1 X7.4189 Y7.8744
(Safe converted infill-to-infill connector to fill-infill path 13)
G1 X7.2154 Y8.5588
(fill-infill path 13, 38 points)
G1 X6.9477 Y8.5735
G1 X6.6801 Y8.5883
G1 X6.4123 Y8.6030
G1 X6.1446 Y8.6178
G1 X5.8769 Y8.6326
G1 X5.6091 Y8.6473
G1 X5.3413 Y8.6621
G1 X5.0735 Y8.6769
G1 X4.8057 Y8.6916
G1 X4.5378 Y8.7064
G1 X4.2700 Y8.7211
G1 X4.0021 Y8.7359
G1 X3.7341 Y8.7507
G1 X3.4662 Y8.7654
G1 X3.1983 Y8.7802
G1 X2.9303 Y8.7949
G1 X2.6623 Y8.8097
G1 X2.3943 Y8.8245
G1 X2.1262 Y8.8392
G1 X1.8582 Y8.8540
G1 X1.5901 Y8.8687
G1 X1.3220 Y8.8835
G1 X1.0538 Y8.8983
G1 X0.7857 Y8.9130
G1 X0.5175 Y8.9278
G1 X0.2493 Y8.9425
G1 X-0.0189 Y8.9573
G1 X-0.2871 Y8.9721
G1 X-0.5554 Y8.9868
G1 X-0.8236 Y9.0016
G1 X-1.0920 Y9.0164
G1 X-1.3603 Y9.0311
G1 X-1.6286 Y9.0459
G1 X-1.8970 Y9.0606
G1 X-2.1654 Y9.0754
G1 X-2.4338 Y9.0902
G1 X-2.7022 Y9.1049
(Safe converted infill-to-infill connector to fill-infill path 14)
G1 X-2.8416 Y9.7847
(fill-infill path 14, 40 points)
G1 X-2.5701 Y9.7698
G1 X-2.2986 Y9.7549
G1 X-2.0271 Y9.7400
G1 X-1.7556 Y9.7251
G1 X-1.4842 Y9.7102
G1 X-1.2128 Y9.6953
G1 X-0.9414 Y9.6804
G1 X-0.6700 Y9.6655
G1 X-0.3986 Y9.6506
G1 X-0.1273 Y9.6357
G1 X0.1440 Y9.6208
G1 X0.4153 Y9.6059
G1 X0.6865 Y9.5910
G1 X0.9577 Y9.5761
G1 X1.2289 Y9.5612
G1 X1.5001 Y9.5463
G1 X1.7713 Y9.5314
G1 X2.0424 Y9.5165
G1 X2.3135 Y9.5016
G1 X2.5846 Y9.4867
G1 X2.8557 Y9.4718
G1 X3.1267 Y9.4569
G1 X3.3977 Y9.4420
G1 X3.6687 Y9.4271
G1 X3.9397 Y9.4122
G1 X4.2106 Y9.3973
G1 X4.4816 Y9.3824
G1 X4.7525 Y9.3675
G1 X5.0233 Y9.3526
G1 X5.2942 Y9.3377
G1 X5.5650 Y9.3227
G1 X5.8358 Y9.3078
G1 X6.1066 Y9.2929
G1 X6.3774 Y9.2780
G1 X6.6481 Y9.2631
G1 X6.9189 Y9.2482
G1 X7.1896 Y9.2333
G1 X7.4602 Y9.2184
G1 X7.7309 Y9.2035
(Safe converted infill-to-infill connector to fill-infill path 15)
G1 X7.5697 Y9.8857
(fill-infill path 15, 38 points)
G1 X7.3011 Y9.9004
G1 X7.0325 Y9.9152
G1 X6.7638 Y9.9299
G1 X6.4951 Y9.9447
G1 X6.2264 Y9.9595
G1 X5.9577 Y9.9742
G1 X5.6889 Y9.9890
G1 X5.4201 Y10.0037
G1 X5.1513 Y10.0185
G1 X4.8825 Y10.0333
G1 X4.6136 Y10.0480
G1 X4.3447 Y10.0628
G1 X4.0758 Y10.0775
G1 X3.8069 Y10.0923
G1 X3.5379 Y10.1071
G1 X3.2690 Y10.1218
G1 X3.0000 Y10.1366
G1 X2.7309 Y10.1514
G1 X2.4619 Y10.1661
G1 X2.1928 Y10.1809
G1 X1.9237 Y10.1956
G1 X1.6546 Y10.2104
G1 X1.3854 Y10.2252
G1 X1.1162 Y10.2399
G1 X0.8470 Y10.2547
G1 X0.5778 Y10.2694
G1 X0.3086 Y10.2842
G1 X0.0393 Y10.2990
G1 X-0.2300 Y10.3137
G1 X-0.4993 Y10.3285
G1 X-0.7687 Y10.3432
G1 X-1.0381 Y10.3580
G1 X-1.3075 Y10.3728
G1 X-1.5769 Y10.3875
G1 X-1.8463 Y10.4023
G1 X-2.1158 Y10.4170
G1 X-2.3853 Y10.4318
(Safe converted infill-to-infill connector to fill-infill path 16)
G1 X-2.5254 Y11.1116
(fill-infill path 16, 40 points)
G1 X-2.2538 Y11.0968
G1 X-1.9822 Y11.0819
G1 X-1.7106 Y11.0671
G1 X-1.4391 Y11.0522
G1 X-1.1676 Y11.0374
G1 X-0.8962 Y11.0225
G1 X-0.6247 Y11.0077
G1 X-0.3533 Y10.9929
G1 X-0.0819 Y10.9780
G1 X0.1895 Y10.9632
G1 X0.4608 Y10.9483
G1 X0.7321 Y10.9335
G1 X1.0034 Y10.9187
G1 X1.2746 Y10.9038
G1 X1.5459 Y10.8890
G1 X1.8170 Y10.8741
G1 X2.0882 Y10.8593
G1 X2.3594 Y10.8444
G1 X2.6305 Y10.8296
G1 X2.9016 Y10.8148
G1 X3.1726 Y10.7999
G1 X3.4437 Y10.7851
G1 X3.7147 Y10.7702
G1 X3.9857 Y10.7554
G1 X4.2566 Y10.7405
G1 X4.5276 Y10.7257
G1 X4.7985 Y10.7109
G1 X5.0694 Y10.6960
G1 X5.3402 Y10.6812
G1 X5.6110 Y10.6663
G1 X5.8818 Y10.6515
G1 X6.1526 Y10.6367
G1 X6.4234 Y10.6218
G1 X6.6941 Y10.6070
G1 X6.9648 Y10.5921
G1 X7.2355 Y10.5773
G1 X7.5061 Y10.5624
G1 X7.7767 Y10.5476
G1 X8.0473 Y10.5328
(Safe converted infill-to-infill connector to fill-infill path 17)
G1 X7.9310 Y11.2125
(fill-infill path 17, 38 points)
G1 X7.6612 Y11.2273
G1 X7.3915 Y11.2421
G1 X7.1217 Y11.2568
G1 X6.8519 Y11.2716
G1 X6.5821 Y11.2864
G1 X6.3123 Y11.3011
G1 X6.0424 Y11.3159
G1 X5.7725 Y11.3306
G1 X5.5025 Y11.3454
G1 X5.2326 Y11.3602
G1 X4.9626 Y11.3749
G1 X4.6926 Y11.3897
G1 X4.4225 Y11.4044
G1 X4.1525 Y11.4192
G1 X3.8824 Y11.4340
G1 X3.6122 Y11.4487
G1 X3.3421 Y11.4635
G1 X3.0719 Y11.4782
G1 X2.8017 Y11.4930
G1 X2.5314 Y11.5078
G1 X2.2612 Y11.5225
G1 X1.9909 Y11.5373
G1 X1.7205 Y11.5521
G1 X1.4502 Y11.5668
G1 X1.1798 Y11.5816
G1 X0.9094 Y11.5963
G1 X0.6390 Y11.6111
G1 X0.3685 Y11.6259
G1 X0.0980 Y11.6406
G1 X-0.1725 Y11.6554
G1 X-0.4431 Y11.6701
G1 X-0.7137 Y11.6849
G1 X-0.9843 Y11.6997
G1 X-1.2549 Y11.7144
G1 X-1.5256 Y11.7292
G1 X-1.7963 Y11.7439
G1 X-2.0670 Y11.7587
(Safe converted infill-to-infill connector to fill-infill path 18)
G1 X-2.2076 Y12.4385
(fill-infill path 18, 40 points)
G1 X-1.9336 Y12.4236
G1 X-1.6596 Y12.4087
G1 X-1.3856 Y12.3938
G1 X-1.1117 Y12.3789
G1 X-0.8378 Y12.3640
G1 X-0.5640 Y12.3491
G1 X-0.2901 Y12.3342
G1 X-0.0163 Y12.3193
G1 X0.2574 Y12.3044
G1 X0.5312 Y12.2895
G1 X0.8049 Y12.2746
G1 X1.0786 Y12.2597
G1 X1.3522 Y12.2448
G1 X1.6258 Y12.2299
G1 X1.8994 Y12.2150
G1 X2.1729 Y12.2001
G1 X2.4465 Y12.1852
G1 X2.7200 Y12.1703
G1 X2.9934 Y12.1554
G1 X3.2669 Y12.1405
G1 X3.5403 Y12.1256
G1 X3.8136 Y12.1107
G1 X4.0870 Y12.0958
G1 X4.3603 Y12.0808
G1 X4.6335 Y12.0659
G1 X4.9068 Y12.0510
G1 X5.1800 Y12.0361
G1 X5.4532 Y12.0212
G1 X5.7264 Y12.0063
G1 X5.9995 Y11.9914
G1 X6.2726 Y11.9765
G1 X6.5457 Y11.9616
G1 X6.8187 Y11.9467
G1 X7.0917 Y11.9318
G1 X7.3647 Y11.9169
G1 X7.6376 Y11.9020
G1 X7.9106 Y11.8871
G1 X8.1835 Y11.8722
G1 X8.4563 Y11.8573
(Safe converted infill-to-infill connector to fill-infill path 19)
G1 X8.2998 Y12.5394
(fill-infill path 19, 38 points)
G1 X8.0297 Y12.5542
G1 X7.7596 Y12.5689
G1 X7.4894 Y12.5836
G1 X7.2192 Y12.5983
G1 X6.9490 Y12.6130
G1 X6.6787 Y12.6277
G1 X6.4085 Y12.6424
G1 X6.1381 Y12.6572
G1 X5.8678 Y12.6719
G1 X5.5974 Y12.6866
G1 X5.3270 Y12.7013
G1 X5.0566 Y12.7160
G1 X4.7861 Y12.7307
G1 X4.5156 Y12.7454
G1 X4.2451 Y12.7602
G1 X3.9745 Y12.7749
G1 X3.7039 Y12.7896
G1 X3.4333 Y12.8043
G1 X3.1626 Y12.8190
G1 X2.8919 Y12.8337
G1 X2.6212 Y12.8484
G1 X2.3504 Y12.8631
G1 X2.0797 Y12.8779
G1 X1.8088 Y12.8926
G1 X1.5380 Y12.9073
G1 X1.2671 Y12.9220
G1 X0.9962 Y12.9367
G1 X0.7253 Y12.9514
G1 X0.4543 Y12.9661
G1 X0.1833 Y12.9809
G1 X-0.0878 Y12.9956
G1 X-0.3588 Y13.0103
G1 X-0.6299 Y13.0250
G1 X-0.9011 Y13.0397
G1 X-1.1723 Y13.0544
G1 X-1.4435 Y13.0691
G1 X-1.7147 Y13.0839
(Safe converted infill-to-infill connector to fill-infill path 20)
G1 X-1.8371 Y13.7626
(fill-infill path 20, 40 points)
G1 X-1.5630 Y13.7478
G1 X-1.2888 Y13.7330
G1 X-1.0147 Y13.7182
G1 X-0.7406 Y13.7033
G1 X-0.4666 Y13.6885
G1 X-0.1925 Y13.6737
G1 X0.0814 Y13.6588
G1 X0.3554 Y13.6440
G1 X0.6293 Y13.6292
G1 X0.9032 Y13.6143
G1 X1.1770 Y13.5995
G1 X1.4508 Y13.5847
G1 X1.7246 Y13.5698
G1 X1.9983 Y13.5550
G1 X2.2720 Y13.5402
G1 X2.5457 Y13.5253
G1 X2.8193 Y13.5105
G1 X3.0930 Y13.4957
G1 X3.3665 Y13.4808
G1 X3.6401 Y13.4660
G1 X3.9136 Y13.4512
G1 X4.1870 Y13.4364
G1 X4.4605 Y13.4215
G1 X4.7339 Y13.4067
G1 X5.0072 Y13.3919
G1 X5.2806 Y13.3770
G1 X5.5539 Y13.3622
G1 X5.8271 Y13.3474
G1 X6.1004 Y13.3325
G1 X6.3736 Y13.3177
G1 X6.6467 Y13.3029
G1 X6.9199 Y13.2880
G1 X7.1930 Y13.2732
G1 X7.4661 Y13.2584
G1 X7.7391 Y13.2435
G1 X8.0121 Y13.2287
G1 X8.2851 Y13.2139
G1 X8.5580 Y13.1990
G1 X8.8309 Y13.1842
(Safe converted infill-to-infill connector to fill-infill path 21)
G1 X8.6770 Y13.8663
(fill-infill path 21, 38 points)
G1 X8.4065 Y13.8810
G1 X8.1359 Y13.8957
G1 X7.8654 Y13.9103
G1 X7.5947 Y13.9250
G1 X7.3241 Y13.9396
G1 X7.0534 Y13.9543
G1 X6.7827 Y13.9690
G1 X6.5120 Y13.9836
G1 X6.2412 Y13.9983
G1 X5.9704 Y14.0129
G1 X5.6995 Y14.0276
G1 X5.4287 Y14.0423
G1 X5.1577 Y14.0569
G1 X4.8868 Y14.0716
G1 X4.6158 Y14.0862
G1 X4.3448 Y14.1009
G1 X4.0737 Y14.1156
G1 X3.8026 Y14.1302
G1 X3.5315 Y14.1449
G1 X3.2604 Y14.1595
G1 X2.9892 Y14.1742
G1 X2.7179 Y14.1889
G1 X2.4467 Y14.2035
G1 X2.1754 Y14.2182
G1 X1.9041 Y14.2328
G1 X1.6327 Y14.2475
G1 X1.3613 Y14.2622
G1 X1.0899 Y14.2768
G1 X0.8184 Y14.2915
G1 X0.5469 Y14.3061
G1 X0.2753 Y14.3208
G1 X0.0037 Y14.3355
G1 X-0.2679 Y14.3501
G1 X-0.5395 Y14.3648
G1 X-0.8112 Y14.3794
G1 X-1.0829 Y14.3941
G1 X-1.3547 Y14.4088
(Safe converted infill-to-infill connector to fill-infill path 22)
G1 X-1.5252 Y15.0901
(fill-infill path 22, 40 points)
G1 X-1.2502 Y15.0753
G1 X-0.9753 Y15.0605
G1 X-0.7004 Y15.0458
G1 X-0.4255 Y15.0310
G1 X-0.1507 Y15.0162
G1 X0.1241 Y15.0014
G1 X0.3989 Y14.9866
G1 X0.6736 Y14.9718
G1 X0.9483 Y14.9570
G1 X1.2229 Y14.9423
G1 X1.4975 Y14.9275
G1 X1.7721 Y14.9127
G1 X2.0466 Y14.8979
G1 X2.3211 Y14.8831
G1 X2.5955 Y14.8683
G1 X2.8699 Y14.8535
G1 X3.1443 Y14.8387
G1 X3.4186 Y14.8240
G1 X3.6929 Y14.8092
G1 X3.9672 Y14.7944
G1 X4.2414 Y14.7796
G1 X4.5156 Y14.7648
G1 X4.7898 Y14.7500
G1 X5.0639 Y14.7352
G1 X5.3379 Y14.7205
G1 X5.6120 Y14.7057
G1 X5.8860 Y14.6909
G1 X6.1600 Y14.6761
G1 X6.4339 Y14.6613
G1 X6.7078 Y14.6465
G1 X6.9816 Y14.6317
G1 X7.2555 Y14.6169
G1 X7.5292 Y14.6022
G1 X7.8030 Y14.5874
G1 X8.0767 Y14.5726
G1 X8.3504 Y14.5578
G1 X8.6240 Y14.5430
G1 X8.8976 Y14.5282
G1 X9.1712 Y14.5134
(Safe converted infill-to-infill connector to fill-infill path 23)
G1 X9.0715 Y15.1928
(fill-infill path 23, 38 points)
G1 X8.7996 Y15.2074
G1 X8.5276 Y15.2221
G1 X8.2557 Y15.2367
G1 X7.9836 Y15.2514
G1 X7.7116 Y15.2660
G1 X7.4395 Y15.2807
G1 X7.1674 Y15.2953
G1 X6.8952 Y15.3100
G1 X6.6230 Y15.3246
G1 X6.3508 Y15.3393
G1 X6.0785 Y15.3539
G1 X5.8062 Y15.3686
G1 X5.5338 Y15.3833
G1 X5.2614 Y15.3979
G1 X4.9890 Y15.4126
G1 X4.7165 Y15.4272
G1 X4.4440 Y15.4419
G1 X4.1714 Y15.4565
G1 X3.8989 Y15.4712
G1 X3.6262 Y15.4858
G1 X3.3536 Y15.5005
G1 X3.0809 Y15.5151
G1 X2.8081 Y15.5298
G1 X2.5354 Y15.5444
G1 X2.2625 Y15.5591
G1 X1.9897 Y15.5737
G1 X1.7168 Y15.5884
G1 X1.4439 Y15.6030
G1 X1.1709 Y15.6177
G1 X0.8979 Y15.6323
G1 X0.6248 Y15.6470
G1 X0.3517 Y15.6616
G1 X0.0786 Y15.6763
G1 X-0.1946 Y15.6909
G1 X-0.4678 Y15.7056
G1 X-0.7410 Y15.7202
G1 X-1.0143 Y15.7349
(Safe converted infill-to-infill connector to fill-infill path 24)
G1 X-1.1555 Y16.4147
(fill-infill path 24, 40 points)
G1 X-0.8788 Y16.3999
G1 X-0.6021 Y16.3851
G1 X-0.3254 Y16.3703
G1 X-0.0488 Y16.3555
G1 X0.2278 Y16.3407
G1 X0.5044 Y16.3260
G1 X0.7809 Y16.3112
G1 X1.0574 Y16.2964
G1 X1.3338 Y16.2816
G1 X1.6102 Y16.2668
G1 X1.8865 Y16.2520
G1 X2.1628 Y16.2372
G1 X2.4391 Y16.2225
G1 X2.7153 Y16.2077
G1 X2.9914 Y16.1929
G1 X3.2676 Y16.1781
G1 X3.5437 Y16.1633
G1 X3.8197 Y16.1485
G1 X4.0957 Y16.1337
G1 X4.3717 Y16.1189
G1 X4.6476 Y16.1042
G1 X4.9235 Y16.0894
G1 X5.1994 Y16.0746
G1 X5.4752 Y16.0598
G1 X5.7509 Y16.0450
G1 X6.0266 Y16.0302
G1 X6.3023 Y16.0154
G1 X6.5780 Y16.0007
G1 X6.8536 Y15.9859
G1 X7.1291 Y15.9711
G1 X7.4047 Y15.9563
G1 X7.6801 Y15.9415
G1 X7.9556 Y15.9267
G1 X8.2310 Y15.9119
G1 X8.5063 Y15.8971
G1 X8.7817 Y15.8824
G1 X9.0570 Y15.8676
G1 X9.3322 Y15.8528
G1 X9.6074 Y15.8380
(Safe converted infill-to-infill connector to fill-infill path 25)
G1 X9.4591 Y16.5201
(fill-infill path 25, 38 points)
G1 X9.1856 Y16.5348
G1 X8.9120 Y16.5494
G1 X8.6384 Y16.5641
G1 X8.3647 Y16.5787
G1 X8.0910 Y16.5934
G1 X7.8173 Y16.6080
G1 X7.5435 Y16.6227
G1 X7.2697 Y16.6373
G1 X6.9958 Y16.6519
G1 X6.7219 Y16.6666
G1 X6.4480 Y16.6812
G1 X6.1740 Y16.6959
G1 X5.8999 Y16.7105
G1 X5.6259 Y16.7252
G1 X5.3517 Y16.7398
G1 X5.0776 Y16.7545
G1 X4.8034 Y16.7691
G1 X4.5291 Y16.7838
G1 X4.2549 Y16.7984
G1 X3.9805 Y16.8131
G1 X3.7062 Y16.8277
G1 X3.4318 Y16.8424
G1 X3.1573 Y16.8570
G1 X2.8828 Y16.8717
G1 X2.6083 Y16.8863
G1 X2.3337 Y16.9010
G1 X2.0591 Y16.9156
G1 X1.7844 Y16.9302
G1 X1.5097 Y16.9449
G1 X1.2350 Y16.9595
G1 X0.9602 Y16.9742
G1 X0.6853 Y16.9888
G1 X0.4105 Y17.0035
G1 X0.1355 Y17.0181
G1 X-0.1394 Y17.0328
G1 X-0.4144 Y17.0474
G1 X-0.6895 Y17.0621
(Safe converted infill-to-infill connector to fill-infill path 26)
G1 X-0.8254 Y17.7416
(fill-infill path 26, 40 points)
G1 X-0.5467 Y17.7268
G1 X-0.2680 Y17.7120
G1 X0.0106 Y17.6972
G1 X0.2891 Y17.6824
G1 X0.5677 Y17.6676
G1 X0.8462 Y17.6529
G1 X1.1246 Y17.6381
G1 X1.4030 Y17.6233
G1 X1.6813 Y17.6085
G1 X1.9596 Y17.5937
G1 X2.2379 Y17.5789
G1 X2.5161 Y17.5641
G1 X2.7943 Y17.5493
G1 X3.0724 Y17.5346
G1 X3.3504 Y17.5198
G1 X3.6285 Y17.5050
G1 X3.9065 Y17.4902
G1 X4.1844 Y17.4754
G1 X4.4623 Y17.4606
G1 X4.7401 Y17.4458
G1 X5.0179 Y17.4311
G1 X5.2957 Y17.4163
G1 X5.5734 Y17.4015
G1 X5.8511 Y17.3867
G1 X6.1287 Y17.3719
G1 X6.4063 Y17.3571
G1 X6.6838 Y17.3423
G1 X6.9613 Y17.3275
G1 X7.2388 Y17.3128
G1 X7.5162 Y17.2980
G1 X7.7935 Y17.2832
G1 X8.0708 Y17.2684
G1 X8.3481 Y17.2536
G1 X8.6253 Y17.2388
G1 X8.9025 Y17.2240
G1 X9.1797 Y17.2093
G1 X9.4568 Y17.1945
G1 X9.7338 Y17.1797
G1 X10.0108 Y17.1649
(Safe converted infill-to-infill connector to fill-infill path 27)
G1 X9.8657 Y17.8470
(fill-infill path 27, 38 points)
G1 X9.5905 Y17.8616
G1 X9.3153 Y17.8763
G1 X9.0401 Y17.8909
G1 X8.7648 Y17.9055
G1 X8.4895 Y17.9202
G1 X8.2141 Y17.9348
G1 X7.9387 Y17.9494
G1 X7.6632 Y17.9641
G1 X7.3877 Y17.9787
G1 X7.1121 Y17.9933
G1 X6.8365 Y18.0080
G1 X6.5609 Y18.0226
G1 X6.2852 Y18.0372
G1 X6.0095 Y18.0519
G1 X5.7337 Y18.0665
G1 X5.4578 Y18.0811
G1 X5.1820 Y18.0958
G1 X4.9061 Y18.1104
G1 X4.6301 Y18.1250
G1 X4.3541 Y18.1397
G1 X4.0780 Y18.1543
G1 X3.8019 Y18.1689
G1 X3.5258 Y18.1836
G1 X3.2496 Y18.1982
G1 X2.9733 Y18.2128
G1 X2.6970 Y18.2275
G1 X2.4207 Y18.2421
G1 X2.1443 Y18.2567
G1 X1.8679 Y18.2714
G1 X1.5914 Y18.2860
G1 X1.3149 Y18.3006
G1 X1.0384 Y18.3153
G1 X0.7617 Y18.3299
G1 X0.4851 Y18.3445
G1 X0.2084 Y18.3592
G1 X-0.0684 Y18.3738
G1 X-0.3452 Y18.3884
(Safe converted infill-to-infill connector to fill-infill path 28)
G1 X-0.4817 Y19.0680
(fill-infill path 28, 40 points)
G1 X-0.2010 Y19.0532
G1 X0.0795 Y19.0384
G1 X0.3600 Y19.0237
G1 X0.6405 Y19.0089
G1 X0.9209 Y18.9941
G1 X1.2012 Y18.9793
G1 X1.4815 Y18.9646
G1 X1.7618 Y18.9498
G1 X2.0420 Y18.9350
G1 X2.3221 Y18.9202
G1 X2.6023 Y18.9055
G1 X2.8823 Y18.8907
G1 X3.1623 Y18.8759
G1 X3.4423 Y18.8611
G1 X3.7222 Y18.8464
G1 X4.0020 Y18.8316
G1 X4.2819 Y18.8168
G1 X4.5616 Y18.8020
G1 X4.8413 Y18.7873
G1 X5.1210 Y18.7725
G1 X5.4006 Y18.7577
G1 X5.6802 Y18.7430
G1 X5.9597 Y18.7282
G1 X6.2392 Y18.7134
G1 X6.5186 Y18.6986
G1 X6.7980 Y18.6839
G1 X7.0773 Y18.6691
G1 X7.3566 Y18.6543
G1 X7.6358 Y18.6395
G1 X7.9150 Y18.6248
G1 X8.1941 Y18.6100
G1 X8.4732 Y18.5952
G1 X8.7523 Y18.5804
G1 X9.0312 Y18.5657
G1 X9.3102 Y18.5509
G1 X9.5891 Y18.5361
G1 X9.8679 Y18.5213
G1 X10.1467 Y18.5066
G1 X10.4255 Y18.4918
(Safe converted infill-to-infill connector to fill-infill path 29)
G1 X10.2836 Y19.1739
(fill-infill path 29, 38 points)
G1 X10.0071 Y19.1885
G1 X9.7306 Y19.2031
G1 X9.4540 Y19.2177
G1 X9.1773 Y19.2323
G1 X8.9006 Y19.2469
G1 X8.6239 Y19.2615
G1 X8.3471 Y19.2761
G1 X8.0703 Y19.2907
G1 X7.7934 Y19.3053
G1 X7.5164 Y19.3199
G1 X7.2395 Y19.3345
G1 X6.9624 Y19.3491
G1 X6.6853 Y19.3637
G1 X6.4082 Y19.3783
G1 X6.1310 Y19.3929
G1 X5.8538 Y19.4075
G1 X5.5765 Y19.4220
G1 X5.2992 Y19.4366
G1 X5.0218 Y19.4512
G1 X4.7443 Y19.4658
G1 X4.4669 Y19.4804
G1 X4.1893 Y19.4950
G1 X3.9118 Y19.5096
G1 X3.6341 Y19.5242
G1 X3.3564 Y19.5388
G1 X3.0787 Y19.5534
G1 X2.8009 Y19.5680
G1 X2.5231 Y19.5826
G1 X2.2452 Y19.5972
G1 X1.9673 Y19.6118
G1 X1.6893 Y19.6264
G1 X1.4113 Y19.6410
G1 X1.1332 Y19.6556
G1 X0.8551 Y19.6702
G1 X0.5769 Y19.6848
G1 X0.2986 Y19.6994
G1 X0.0204 Y19.7140
(Safe converted infill-to-infill connector to fill-infill path 30)
G1 X-0.0870 Y20.3920
(fill-infill path 30, 40 points)
G1 X0.1945 Y20.3773
G1 X0.4759 Y20.3626
G1 X0.7573 Y20.3479
G1 X1.0386 Y20.3332
G1 X1.3199 Y20.3185
G1 X1.6011 Y20.3038
G1 X1.8823 Y20.2891
G1 X2.1634 Y20.2744
G1 X2.4445 Y20.2597
G1 X2.7255 Y20.2450
G1 X3.0065 Y20.2303
G1 X3.2874 Y20.2156
G1 X3.5683 Y20.2009
G1 X3.8491 Y20.1862
G1 X4.1298 Y20.1715
G1 X4.4105 Y20.1568
G1 X4.6912 Y20.1421
G1 X4.9718 Y20.1274
G1 X5.2523 Y20.1127
G1 X5.5328 Y20.0980
G1 X5.8132 Y20.0833
G1 X6.0936 Y20.0686
G1 X6.3739 Y20.0539
G1 X6.6542 Y20.0392
G1 X6.9345 Y20.0245
G1 X7.2146 Y20.0098
G1 X7.4948 Y19.9951
G1 X7.7748 Y19.9804
G1 X8.0549 Y19.9657
G1 X8.3348 Y19.9510
G1 X8.6147 Y19.9363
G1 X8.8946 Y19.9216
G1 X9.1744 Y19.9069
G1 X9.4542 Y19.8922
G1 X9.7339 Y19.8775
G1 X10.0136 Y19.8628
G1 X10.2932 Y19.8481
G1 X10.5727 Y19.8334
G1 X10.8522 Y19.8187
(Safe converted infill-to-infill connector to fill-infill path 31)
G1 X10.7140 Y20.5008
(fill-infill path 31, 38 points)
G1 X10.4351 Y20.5154
G1 X10.1562 Y20.5300
G1 X9.8772 Y20.5446
G1 X9.5981 Y20.5592
G1 X9.3190 Y20.5738
G1 X9.0399 Y20.5884
G1 X8.7607 Y20.6030
G1 X8.4814 Y20.6176
G1 X8.2021 Y20.6322
G1 X7.9228 Y20.6469
G1 X7.6434 Y20.6615
G1 X7.3639 Y20.6761
G1 X7.0844 Y20.6907
G1 X6.8048 Y20.7053
G1 X6.5252 Y20.7199
G1 X6.2455 Y20.7345
G1 X5.9658 Y20.7491
G1 X5.6860 Y20.7637
G1 X5.4062 Y20.7783
G1 X5.1263 Y20.7929
G1 X4.8463 Y20.8075
G1 X4.5663 Y20.8221
G1 X4.2863 Y20.8367
G1 X4.0062 Y20.8513
G1 X3.7260 Y20.8659
G1 X3.4458 Y20.8805
G1 X3.1655 Y20.8951
G1 X2.8852 Y20.9097
G1 X2.6048 Y20.9243
G1 X2.3244 Y20.9389
G1 X2.0439 Y20.9536
G1 X1.7634 Y20.9682
G1 X1.4828 Y20.9828
G1 X1.2021 Y20.9974
G1 X0.9214 Y21.0120
G1 X0.6407 Y21.0266
G1 X0.3599 Y21.0412
(Safe converted infill-to-infill connector to fill-infill path 32)
G1 X0.2246 Y21.7207
(fill-infill path 32, 40 points)
G1 X0.5095 Y21.7059
G1 X0.7943 Y21.6912
G1 X1.0790 Y21.6765
G1 X1.3637 Y21.6617
G1 X1.6484 Y21.6470
G1 X1.9329 Y21.6322
G1 X2.2175 Y21.6175
G1 X2.5019 Y21.6027
G1 X2.7863 Y21.5880
G1 X3.0707 Y21.5732
G1 X3.3550 Y21.5585
G1 X3.6392 Y21.5437
G1 X3.9234 Y21.5290
G1 X4.2075 Y21.5142
G1 X4.4916 Y21.4995
G1 X4.7756 Y21.4847
G1 X5.0595 Y21.4700
G1 X5.3434 Y21.4553
G1 X5.6273 Y21.4405
G1 X5.9110 Y21.4258
G1 X6.1948 Y21.4110
G1 X6.4784 Y21.3963
G1 X6.7620 Y21.3815
G1 X7.0456 Y21.3668
G1 X7.3291 Y21.3520
G1 X7.6125 Y21.3373
G1 X7.8959 Y21.3225
G1 X8.1792 Y21.3078
G1 X8.4625 Y21.2930
G1 X8.7457 Y21.2783
G1 X9.0288 Y21.2635
G1 X9.3119 Y21.2488
G1 X9.5950 Y21.2341
G1 X9.8780 Y21.2193
G1 X10.1609 Y21.2046
G1 X10.4438 Y21.1898
G1 X10.7266 Y21.1751
G1 X11.0094 Y21.1603
G1 X11.2921 Y21.1456
(Safe converted infill-to-infill connector to fill-infill path 33)
G1 X11.1576 Y21.8277
(fill-infill path 33, 38 points)
G1 X10.8775 Y21.8422
G1 X10.5974 Y21.8568
G1 X10.3172 Y21.8713
G1 X10.0370 Y21.8859
G1 X9.7566 Y21.9004
G1 X9.4763 Y21.9149
G1 X9.1959 Y21.9295
G1 X8.9154 Y21.9440
G1 X8.6348 Y21.9586
G1 X8.3542 Y21.9731
G1 X8.0736 Y21.9877
G1 X7.7929 Y22.0022
G1 X7.5121 Y22.0167
G1 X7.2313 Y22.0313
G1 X6.9504 Y22.0458
G1 X6.6695 Y22.0604
G1 X6.3885 Y22.0749
G1 X6.1074 Y22.0895
G1 X5.8263 Y22.1040
G1 X5.5452 Y22.1185
G1 X5.2640 Y22.1331
G1 X4.9827 Y22.1476
G1 X4.7013 Y22.1622
G1 X4.4199 Y22.1767
G1 X4.1385 Y22.1913
G1 X3.8570 Y22.2058
G1 X3.5754 Y22.2203
G1 X3.2938 Y22.2349
G1 X3.0121 Y22.2494
G1 X2.7303 Y22.2640
G1 X2.4485 Y22.2785
G1 X2.1667 Y22.2931
G1 X1.8848 Y22.3076
G1 X1.6028 Y22.3221
G1 X1.3207 Y22.3367
G1 X1.0386 Y22.3512
G1 X0.7565 Y22.3658
(Safe converted infill-to-infill connector to fill-infill path 34)
G1 X0.5765 Y23.0476
(fill-infill path 34, 40 points)
G1 X0.8655 Y23.0328
G1 X1.1545 Y23.0180
G1 X1.4434 Y23.0031
G1 X1.7322 Y22.9883
G1 X2.0210 Y22.9735
G1 X2.3098 Y22.9587
G1 X2.5984 Y22.9439
G1 X2.8870 Y22.9290
G1 X3.1755 Y22.9142
G1 X3.4640 Y22.8994
G1 X3.7524 Y22.8846
G1 X4.0408 Y22.8697
G1 X4.3290 Y22.8549
G1 X4.6172 Y22.8401
G1 X4.9054 Y22.8253
G1 X5.1935 Y22.8105
G1 X5.4815 Y22.7956
G1 X5.7695 Y22.7808
G1 X6.0574 Y22.7660
G1 X6.3452 Y22.7512
G1 X6.6330 Y22.7363
G1 X6.9207 Y22.7215
G1 X7.2084 Y22.7067
G1 X7.4960 Y22.6919
G1 X7.7835 Y22.6771
G1 X8.0710 Y22.6622
G1 X8.3584 Y22.6474
G1 X8.6458 Y22.6326
G1 X8.9331 Y22.6178
G1 X9.2203 Y22.6029
G1 X9.5075 Y22.5881
G1 X9.7946 Y22.5733
G1 X10.0816 Y22.5585
G1 X10.3686 Y22.5437
G1 X10.6555 Y22.5288
G1 X10.9424 Y22.5140
G1 X11.2292 Y22.4992
G1 X11.5159 Y22.4844
G1 X11.8026 Y22.4695
M3 S575
G4 P0.030
(PATH_END id=fill-infill_004)
(Travel to fill-infill path 35)
G1 X13.6127 Y22.3759 F3000.000
M3 S700
G4 P0.060
(PATH_START id=fill-infill_035 kind=fill-infill space=machine_deg source=component_002 points=41 max_surface_segment_mm=0.0983)
(fill-infill path 35, 41 points)
G1 X13.8962 Y22.3612 F1200.000
G1 X14.1797 Y22.3465
G1 X14.4631 Y22.3318
G1 X14.7465 Y22.3172
G1 X15.0297 Y22.3025
G1 X15.3130 Y22.2878
G1 X15.5961 Y22.2731
G1 X15.8792 Y22.2584
G1 X16.1623 Y22.2437
G1 X16.4453 Y22.2291
G1 X16.7282 Y22.2144
G1 X17.0111 Y22.1997
G1 X17.2939 Y22.1850
G1 X17.5767 Y22.1703
G1 X17.8594 Y22.1557
G1 X18.1420 Y22.1410
G1 X18.4246 Y22.1263
G1 X18.7072 Y22.1116
G1 X18.9896 Y22.0969
G1 X19.2720 Y22.0822
G1 X19.5544 Y22.0676
G1 X19.8367 Y22.0529
G1 X20.1189 Y22.0382
G1 X20.4011 Y22.0235
G1 X20.6833 Y22.0088
G1 X20.9653 Y21.9942
G1 X21.2473 Y21.9795
G1 X21.5293 Y21.9648
G1 X21.8112 Y21.9501
G1 X22.0930 Y21.9354
G1 X22.3748 Y21.9207
G1 X22.6566 Y21.9061
G1 X22.9382 Y21.8914
G1 X23.2199 Y21.8767
G1 X23.5014 Y21.8620
G1 X23.7829 Y21.8473
G1 X24.0644 Y21.8327
G1 X24.3458 Y21.8180
G1 X24.6271 Y21.8033
G1 X24.9084 Y21.7886
(Safe converted infill-to-infill connector to fill-infill path 36)
G1 X24.6591 Y21.1232
(fill-infill path 36, 39 points)
G1 X24.3804 Y21.1379
G1 X24.1016 Y21.1525
G1 X23.8228 Y21.1671
G1 X23.5439 Y21.1817
G1 X23.2650 Y21.1963
G1 X22.9860 Y21.2109
G1 X22.7069 Y21.2255
G1 X22.4278 Y21.2401
G1 X22.1486 Y21.2547
G1 X21.8694 Y21.2693
G1 X21.5901 Y21.2840
G1 X21.3108 Y21.2986
G1 X21.0314 Y21.3132
G1 X20.7520 Y21.3278
G1 X20.4725 Y21.3424
G1 X20.1930 Y21.3570
G1 X19.9134 Y21.3716
G1 X19.6337 Y21.3862
G1 X19.3540 Y21.4008
G1 X19.0743 Y21.4154
G1 X18.7945 Y21.4301
G1 X18.5146 Y21.4447
G1 X18.2347 Y21.4593
G1 X17.9547 Y21.4739
G1 X17.6747 Y21.4885
G1 X17.3946 Y21.5031
G1 X17.1144 Y21.5177
G1 X16.8342 Y21.5323
G1 X16.5540 Y21.5469
G1 X16.2737 Y21.5615
G1 X15.9933 Y21.5762
G1 X15.7129 Y21.5908
G1 X15.4324 Y21.6054
G1 X15.1519 Y21.6200
G1 X14.8713 Y21.6346
G1 X14.5907 Y21.6492
G1 X14.3100 Y21.6638
G1 X14.0292 Y21.6784
(Safe converted infill-to-infill connector to fill-infill path 37)
G1 X13.7851 Y21.0154
(fill-infill path 37, 41 points)
G1 X14.0684 Y21.0006
G1 X14.3517 Y20.9858
G1 X14.6349 Y20.9710
G1 X14.9181 Y20.9562
G1 X15.2012 Y20.9414
G1 X15.4843 Y20.9266
G1 X15.7673 Y20.9118
G1 X16.0503 Y20.8969
G1 X16.3332 Y20.8821
G1 X16.6161 Y20.8673
G1 X16.8988 Y20.8525
G1 X17.1816 Y20.8377
G1 X17.4643 Y20.8229
G1 X17.7469 Y20.8081
G1 X18.0295 Y20.7933
G1 X18.3120 Y20.7785
G1 X18.5945 Y20.7637
G1 X18.8769 Y20.7489
G1 X19.1593 Y20.7341
G1 X19.4416 Y20.7192
G1 X19.7238 Y20.7044
G1 X20.0060 Y20.6896
G1 X20.2882 Y20.6748
G1 X20.5703 Y20.6600
G1 X20.8523 Y20.6452
G1 X21.1343 Y20.6304
G1 X21.4162 Y20.6156
G1 X21.6981 Y20.6008
G1 X21.9799 Y20.5860
G1 X22.2617 Y20.5712
G1 X22.5434 Y20.5564
G1 X22.8251 Y20.5415
G1 X23.1067 Y20.5267
G1 X23.3883 Y20.5119
G1 X23.6698 Y20.4971
G1 X23.9512 Y20.4823
G1 X24.2326 Y20.4675
G1 X24.5140 Y20.4527
G1 X24.7953 Y20.4379
G1 X25.0765 Y20.4231
(Safe converted infill-to-infill connector to fill-infill path 38)
G1 X24.8470 Y19.7571
(fill-infill path 38, 39 points)
G1 X24.5691 Y19.7718
G1 X24.2911 Y19.7865
G1 X24.0131 Y19.8012
G1 X23.7350 Y19.8159
G1 X23.4569 Y19.8306
G1 X23.1788 Y19.8453
G1 X22.9006 Y19.8599
G1 X22.6223 Y19.8746
G1 X22.3440 Y19.8893
G1 X22.0656 Y19.9040
G1 X21.7872 Y19.9187
G1 X21.5088 Y19.9334
G1 X21.2303 Y19.9481
G1 X20.9517 Y19.9628
G1 X20.6731 Y19.9775
G1 X20.3944 Y19.9922
G1 X20.1157 Y20.0068
G1 X19.8369 Y20.0215
G1 X19.5581 Y20.0362
G1 X19.2793 Y20.0509
G1 X19.0003 Y20.0656
G1 X18.7214 Y20.0803
G1 X18.4424 Y20.0950
G1 X18.1633 Y20.1097
G1 X17.8842 Y20.1244
G1 X17.6050 Y20.1391
G1 X17.3258 Y20.1537
G1 X17.0465 Y20.1684
G1 X16.7672 Y20.1831
G1 X16.4878 Y20.1978
G1 X16.2084 Y20.2125
G1 X15.9289 Y20.2272
G1 X15.6493 Y20.2419
G1 X15.3698 Y20.2566
G1 X15.0901 Y20.2713
G1 X14.8104 Y20.2860
G1 X14.5307 Y20.3006
G1 X14.2509 Y20.3153
(Safe converted infill-to-infill connector to fill-infill path 39)
G1 X14.0063 Y19.6526
(fill-infill path 39, 41 points)
G1 X14.2889 Y19.6377
G1 X14.5715 Y19.6228
G1 X14.8541 Y19.6079
G1 X15.1366 Y19.5930
G1 X15.4190 Y19.5781
G1 X15.7014 Y19.5632
G1 X15.9838 Y19.5483
G1 X16.2661 Y19.5334
G1 X16.5483 Y19.5185
G1 X16.8305 Y19.5036
G1 X17.1126 Y19.4887
G1 X17.3947 Y19.4738
G1 X17.6768 Y19.4589
G1 X17.9587 Y19.4440
G1 X18.2407 Y19.4291
G1 X18.5226 Y19.4142
G1 X18.8044 Y19.3993
G1 X19.0862 Y19.3844
G1 X19.3679 Y19.3695
G1 X19.6496 Y19.3546
G1 X19.9313 Y19.3397
G1 X20.2128 Y19.3248
G1 X20.4944 Y19.3099
G1 X20.7759 Y19.2950
G1 X21.0573 Y19.2801
G1 X21.3387 Y19.2652
G1 X21.6200 Y19.2503
G1 X21.9013 Y19.2354
G1 X22.1825 Y19.2205
G1 X22.4637 Y19.2056
G1 X22.7449 Y19.1907
G1 X23.0260 Y19.1758
G1 X23.3070 Y19.1609
G1 X23.5880 Y19.1460
G1 X23.8689 Y19.1311
G1 X24.1498 Y19.1162
G1 X24.4307 Y19.1013
G1 X24.7115 Y19.0864
G1 X24.9922 Y19.0715
G1 X25.2729 Y19.0566
(Safe converted infill-to-infill connector to fill-infill path 40)
G1 X24.9958 Y18.3936
(fill-infill path 40, 39 points)
G1 X24.7197 Y18.4083
G1 X24.4435 Y18.4230
G1 X24.1673 Y18.4378
G1 X23.8911 Y18.4525
G1 X23.6148 Y18.4672
G1 X23.3385 Y18.4819
G1 X23.0621 Y18.4966
G1 X22.7857 Y18.5113
G1 X22.5092 Y18.5260
G1 X22.2327 Y18.5407
G1 X21.9561 Y18.5554
G1 X21.6795 Y18.5701
G1 X21.4028 Y18.5848
G1 X21.1261 Y18.5995
G1 X20.8494 Y18.6143
G1 X20.5726 Y18.6290
G1 X20.2958 Y18.6437
G1 X20.0189 Y18.6584
G1 X19.7419 Y18.6731
G1 X19.4650 Y18.6878
G1 X19.1879 Y18.7025
G1 X18.9109 Y18.7172
G1 X18.6337 Y18.7319
G1 X18.3566 Y18.7466
G1 X18.0793 Y18.7613
G1 X17.8021 Y18.7760
G1 X17.5248 Y18.7907
G1 X17.2474 Y18.8055
G1 X16.9700 Y18.8202
G1 X16.6926 Y18.8349
G1 X16.4151 Y18.8496
G1 X16.1375 Y18.8643
G1 X15.8599 Y18.8790
G1 X15.5823 Y18.8937
G1 X15.3046 Y18.9084
G1 X15.0268 Y18.9231
G1 X14.7491 Y18.9378
G1 X14.4712 Y18.9525
(Safe converted infill-to-infill connector to fill-infill path 41)
G1 X14.2316 Y18.2898
(fill-infill path 41, 41 points)
G1 X14.5123 Y18.2749
G1 X14.7929 Y18.2600
G1 X15.0735 Y18.2451
G1 X15.3540 Y18.2302
G1 X15.6345 Y18.2152
G1 X15.9149 Y18.2003
G1 X16.1953 Y18.1854
G1 X16.4757 Y18.1705
G1 X16.7560 Y18.1556
G1 X17.0362 Y18.1407
G1 X17.3164 Y18.1258
G1 X17.5966 Y18.1109
G1 X17.8767 Y18.0959
G1 X18.1567 Y18.0810
G1 X18.4367 Y18.0661
G1 X18.7167 Y18.0512
G1 X18.9966 Y18.0363
G1 X19.2765 Y18.0214
G1 X19.5563 Y18.0065
G1 X19.8361 Y17.9916
G1 X20.1158 Y17.9766
G1 X20.3955 Y17.9617
G1 X20.6752 Y17.9468
G1 X20.9548 Y17.9319
G1 X21.2343 Y17.9170
G1 X21.5138 Y17.9021
G1 X21.7933 Y17.8872
G1 X22.0727 Y17.8723
G1 X22.3521 Y17.8573
G1 X22.6314 Y17.8424
G1 X22.9107 Y17.8275
G1 X23.1899 Y17.8126
G1 X23.4691 Y17.7977
G1 X23.7483 Y17.7828
G1 X24.0274 Y17.7679
G1 X24.3064 Y17.7530
G1 X24.5854 Y17.7380
G1 X24.8644 Y17.7231
G1 X25.1433 Y17.7082
G1 X25.4222 Y17.6933
(Safe converted infill-to-infill connector to fill-infill path 42)
G1 X25.1532 Y17.0303
(fill-infill path 42, 39 points)
G1 X24.8810 Y17.0449
G1 X24.6087 Y17.0595
G1 X24.3365 Y17.0741
G1 X24.0641 Y17.0887
G1 X23.7918 Y17.1033
G1 X23.5194 Y17.1179
G1 X23.2469 Y17.1325
G1 X22.9744 Y17.1471
G1 X22.7019 Y17.1617
G1 X22.4293 Y17.1764
G1 X22.1567 Y17.1910
G1 X21.8841 Y17.2056
G1 X21.6114 Y17.2202
G1 X21.3386 Y17.2348
G1 X21.0658 Y17.2494
G1 X20.7930 Y17.2640
G1 X20.5202 Y17.2786
G1 X20.2473 Y17.2932
G1 X19.9743 Y17.3078
G1 X19.7013 Y17.3224
G1 X19.4283 Y17.3370
G1 X19.1552 Y17.3516
G1 X18.8821 Y17.3662
G1 X18.6089 Y17.3808
G1 X18.3357 Y17.3954
G1 X18.0625 Y17.4100
G1 X17.7892 Y17.4246
G1 X17.5159 Y17.4392
G1 X17.2425 Y17.4538
G1 X16.9691 Y17.4684
G1 X16.6956 Y17.4830
G1 X16.4221 Y17.4976
G1 X16.1486 Y17.5122
G1 X15.8750 Y17.5268
G1 X15.6014 Y17.5414
G1 X15.3277 Y17.5560
G1 X15.0540 Y17.5706
G1 X14.7802 Y17.5852
(Safe converted infill-to-infill connector to fill-infill path 43)
G1 X14.5453 Y16.9225
(fill-infill path 43, 41 points)
G1 X14.8210 Y16.9078
G1 X15.0966 Y16.8930
G1 X15.3721 Y16.8783
G1 X15.6476 Y16.8635
G1 X15.9231 Y16.8488
G1 X16.1986 Y16.8340
G1 X16.4740 Y16.8192
G1 X16.7493 Y16.8045
G1 X17.0246 Y16.7897
G1 X17.2999 Y16.7750
G1 X17.5751 Y16.7602
G1 X17.8503 Y16.7455
G1 X18.1254 Y16.7307
G1 X18.4005 Y16.7160
G1 X18.6756 Y16.7012
G1 X18.9506 Y16.6865
G1 X19.2256 Y16.6717
G1 X19.5005 Y16.6570
G1 X19.7754 Y16.6422
G1 X20.0503 Y16.6274
G1 X20.3251 Y16.6127
G1 X20.5999 Y16.5979
G1 X20.8746 Y16.5832
G1 X21.1493 Y16.5684
G1 X21.4240 Y16.5537
G1 X21.6986 Y16.5389
G1 X21.9731 Y16.5242
G1 X22.2477 Y16.5094
G1 X22.5222 Y16.4947
G1 X22.7966 Y16.4799
G1 X23.0710 Y16.4652
G1 X23.3454 Y16.4504
G1 X23.6197 Y16.4357
G1 X23.8940 Y16.4209
G1 X24.1682 Y16.4061
G1 X24.4424 Y16.3914
G1 X24.7166 Y16.3766
G1 X24.9907 Y16.3619
G1 X25.2648 Y16.3471
G1 X25.5389 Y16.3324
(Safe converted infill-to-infill connector to fill-infill path 44)
G1 X25.3783 Y15.6640
(fill-infill path 44, 39 points)
G1 X25.1054 Y15.6787
G1 X24.8324 Y15.6935
G1 X24.5593 Y15.7082
G1 X24.2863 Y15.7229
G1 X24.0132 Y15.7377
G1 X23.7400 Y15.7524
G1 X23.4668 Y15.7672
G1 X23.1936 Y15.7819
G1 X22.9204 Y15.7966
G1 X22.6471 Y15.8114
G1 X22.3737 Y15.8261
G1 X22.1004 Y15.8409
G1 X21.8269 Y15.8556
G1 X21.5535 Y15.8703
G1 X21.2800 Y15.8851
G1 X21.0065 Y15.8998
G1 X20.7329 Y15.9146
G1 X20.4593 Y15.9293
G1 X20.1857 Y15.9440
G1 X19.9120 Y15.9588
G1 X19.6383 Y15.9735
G1 X19.3645 Y15.9883
G1 X19.0907 Y16.0030
G1 X18.8169 Y16.0177
G1 X18.5430 Y16.0325
G1 X18.2691 Y16.0472
G1 X17.9951 Y16.0619
G1 X17.7211 Y16.0767
G1 X17.4471 Y16.0914
G1 X17.1730 Y16.1062
G1 X16.8989 Y16.1209
G1 X16.6247 Y16.1356
G1 X16.3505 Y16.1504
G1 X16.0763 Y16.1651
G1 X15.8020 Y16.1799
G1 X15.5277 Y16.1946
G1 X15.2534 Y16.2093
G1 X14.9790 Y16.2241
(Safe converted infill-to-infill connector to fill-infill path 45)
G1 X14.7794 Y15.5597
(fill-infill path 45, 41 points)
G1 X15.0538 Y15.5449
G1 X15.3282 Y15.5301
G1 X15.6025 Y15.5154
G1 X15.8767 Y15.5006
G1 X16.1510 Y15.4858
G1 X16.4252 Y15.4710
G1 X16.6994 Y15.4562
G1 X16.9735 Y15.4414
G1 X17.2476 Y15.4267
G1 X17.5216 Y15.4119
G1 X17.7956 Y15.3971
G1 X18.0696 Y15.3823
G1 X18.3435 Y15.3675
G1 X18.6174 Y15.3527
G1 X18.8913 Y15.3379
G1 X19.1651 Y15.3232
G1 X19.4389 Y15.3084
G1 X19.7127 Y15.2936
G1 X19.9864 Y15.2788
G1 X20.2601 Y15.2640
G1 X20.5337 Y15.2492
G1 X20.8073 Y15.2345
G1 X21.0809 Y15.2197
G1 X21.3544 Y15.2049
G1 X21.6279 Y15.1901
G1 X21.9013 Y15.1753
G1 X22.1747 Y15.1605
G1 X22.4481 Y15.1457
G1 X22.7215 Y15.1310
G1 X22.9948 Y15.1162
G1 X23.2680 Y15.1014
G1 X23.5413 Y15.0866
G1 X23.8145 Y15.0718
G1 X24.0876 Y15.0570
G1 X24.3607 Y15.0423
G1 X24.6338 Y15.0275
G1 X24.9069 Y15.0127
G1 X25.1799 Y14.9979
G1 X25.4529 Y14.9831
G1 X25.7258 Y14.9683
(Safe converted infill-to-infill connector to fill-infill path 46)
G1 X25.5593 Y14.3007
(fill-infill path 46, 39 points)
G1 X25.2884 Y14.3154
G1 X25.0176 Y14.3301
G1 X24.7467 Y14.3448
G1 X24.4758 Y14.3595
G1 X24.2048 Y14.3742
G1 X23.9338 Y14.3889
G1 X23.6628 Y14.4036
G1 X23.3918 Y14.4184
G1 X23.1207 Y14.4331
G1 X22.8495 Y14.4478
G1 X22.5784 Y14.4625
G1 X22.3072 Y14.4772
G1 X22.0360 Y14.4919
G1 X21.7647 Y14.5066
G1 X21.4934 Y14.5213
G1 X21.2221 Y14.5360
G1 X20.9507 Y14.5507
G1 X20.6793 Y14.5655
G1 X20.4079 Y14.5802
G1 X20.1364 Y14.5949
G1 X19.8649 Y14.6096
G1 X19.5933 Y14.6243
G1 X19.3218 Y14.6390
G1 X19.0502 Y14.6537
G1 X18.7785 Y14.6684
G1 X18.5068 Y14.6831
G1 X18.2351 Y14.6978
G1 X17.9634 Y14.7125
G1 X17.6916 Y14.7273
G1 X17.4197 Y14.7420
G1 X17.1479 Y14.7567
G1 X16.8760 Y14.7714
G1 X16.6041 Y14.7861
G1 X16.3321 Y14.8008
G1 X16.0601 Y14.8155
G1 X15.7881 Y14.8302
G1 X15.5160 Y14.8449
G1 X15.2439 Y14.8596
(Safe converted infill-to-infill connector to fill-infill path 47)
G1 X15.0187 Y14.1969
(fill-infill path 47, 41 points)
G1 X15.2939 Y14.1820
G1 X15.5690 Y14.1671
G1 X15.8440 Y14.1522
G1 X16.1191 Y14.1373
G1 X16.3941 Y14.1223
G1 X16.6690 Y14.1074
G1 X16.9440 Y14.0925
G1 X17.2189 Y14.0776
G1 X17.4937 Y14.0627
G1 X17.7685 Y14.0478
G1 X18.0433 Y14.0329
G1 X18.3181 Y14.0179
G1 X18.5928 Y14.0030
G1 X18.8675 Y13.9881
G1 X19.1421 Y13.9732
G1 X19.4168 Y13.9583
G1 X19.6914 Y13.9434
G1 X19.9659 Y13.9285
G1 X20.2404 Y13.9135
G1 X20.5149 Y13.8986
G1 X20.7893 Y13.8837
G1 X21.0638 Y13.8688
G1 X21.3381 Y13.8539
G1 X21.6125 Y13.8390
G1 X21.8868 Y13.8240
G1 X22.1611 Y13.8091
G1 X22.4353 Y13.7942
G1 X22.7095 Y13.7793
G1 X22.9837 Y13.7644
G1 X23.2579 Y13.7495
G1 X23.5320 Y13.7346
G1 X23.8061 Y13.7196
G1 X24.0801 Y13.7047
G1 X24.3541 Y13.6898
G1 X24.6281 Y13.6749
G1 X24.9020 Y13.6600
G1 X25.1760 Y13.6451
G1 X25.4498 Y13.6302
G1 X25.7237 Y13.6152
G1 X25.9975 Y13.6003
(Safe converted infill-to-infill connector to fill-infill path 48)
G1 X25.7550 Y12.9372
(fill-infill path 48, 39 points)
G1 X25.4853 Y12.9520
G1 X25.2155 Y12.9667
G1 X24.9458 Y12.9814
G1 X24.6760 Y12.9961
G1 X24.4061 Y13.0109
G1 X24.1362 Y13.0256
G1 X23.8663 Y13.0403
G1 X23.5964 Y13.0550
G1 X23.3264 Y13.0698
G1 X23.0565 Y13.0845
G1 X22.7864 Y13.0992
G1 X22.5164 Y13.1139
G1 X22.2463 Y13.1287
G1 X21.9762 Y13.1434
G1 X21.7060 Y13.1581
G1 X21.4358 Y13.1729
G1 X21.1656 Y13.1876
G1 X20.8954 Y13.2023
G1 X20.6251 Y13.2170
G1 X20.3548 Y13.2318
G1 X20.0845 Y13.2465
G1 X19.8141 Y13.2612
G1 X19.5437 Y13.2759
G1 X19.2733 Y13.2907
G1 X19.0028 Y13.3054
G1 X18.7323 Y13.3201
G1 X18.4618 Y13.3348
G1 X18.1913 Y13.3496
G1 X17.9207 Y13.3643
G1 X17.6501 Y13.3790
G1 X17.3794 Y13.3938
G1 X17.1087 Y13.4085
G1 X16.8380 Y13.4232
G1 X16.5673 Y13.4379
G1 X16.2965 Y13.4527
G1 X16.0257 Y13.4674
G1 X15.7548 Y13.4821
G1 X15.4840 Y13.4968
(Safe converted infill-to-infill connector to fill-infill path 49)
G1 X15.2636 Y12.8341
(fill-infill path 49, 42 points)
G1 X15.5312 Y12.8195
G1 X15.7988 Y12.8049
G1 X16.0663 Y12.7904
G1 X16.3339 Y12.7758
G1 X16.6013 Y12.7612
G1 X16.8688 Y12.7466
G1 X17.1362 Y12.7320
G1 X17.4036 Y12.7174
G1 X17.6710 Y12.7028
G1 X17.9383 Y12.6883
G1 X18.2056 Y12.6737
G1 X18.4729 Y12.6591
G1 X18.7402 Y12.6445
G1 X19.0074 Y12.6299
G1 X19.2746 Y12.6153
G1 X19.5417 Y12.6008
G1 X19.8089 Y12.5862
G1 X20.0760 Y12.5716
G1 X20.3430 Y12.5570
G1 X20.6101 Y12.5424
G1 X20.8771 Y12.5278
G1 X21.1441 Y12.5132
G1 X21.4110 Y12.4987
G1 X21.6780 Y12.4841
G1 X21.9449 Y12.4695
G1 X22.2117 Y12.4549
G1 X22.4786 Y12.4403
G1 X22.7454 Y12.4257
G1 X23.0122 Y12.4111
G1 X23.2789 Y12.3966
G1 X23.5457 Y12.3820
G1 X23.8124 Y12.3674
G1 X24.0791 Y12.3528
G1 X24.3457 Y12.3382
G1 X24.6123 Y12.3236
G1 X24.8789 Y12.3090
G1 X25.1455 Y12.2945
G1 X25.4120 Y12.2799
G1 X25.6785 Y12.2653
G1 X25.9450 Y12.2507
G1 X26.2114 Y12.2361
(Safe converted infill-to-infill connector to fill-infill path 50)
G1 X25.9512 Y11.5744
(fill-infill path 50, 39 points)
G1 X25.6828 Y11.5891
G1 X25.4143 Y11.6039
G1 X25.1457 Y11.6186
G1 X24.8772 Y11.6333
G1 X24.6086 Y11.6481
G1 X24.3400 Y11.6628
G1 X24.0714 Y11.6775
G1 X23.8027 Y11.6922
G1 X23.5340 Y11.7070
G1 X23.2653 Y11.7217
G1 X22.9965 Y11.7364
G1 X22.7278 Y11.7511
G1 X22.4590 Y11.7659
G1 X22.1902 Y11.7806
G1 X21.9213 Y11.7953
G1 X21.6524 Y11.8101
G1 X21.3835 Y11.8248
G1 X21.1146 Y11.8395
G1 X20.8456 Y11.8542
G1 X20.5766 Y11.8690
G1 X20.3076 Y11.8837
G1 X20.0386 Y11.8984
G1 X19.7695 Y11.9131
G1 X19.5004 Y11.9279
G1 X19.2313 Y11.9426
G1 X18.9621 Y11.9573
G1 X18.6929 Y11.9720
G1 X18.4237 Y11.9868
G1 X18.1545 Y12.0015
G1 X17.8852 Y12.0162
G1 X17.6159 Y12.0310
G1 X17.3466 Y12.0457
G1 X17.0772 Y12.0604
G1 X16.8078 Y12.0751
G1 X16.5384 Y12.0899
G1 X16.2690 Y12.1046
G1 X15.9995 Y12.1193
G1 X15.7300 Y12.1340
(Safe converted infill-to-infill connector to fill-infill path 51)
G1 X15.5023 Y11.4720
(fill-infill path 51, 42 points)
G1 X15.7701 Y11.4573
G1 X16.0378 Y11.4427
G1 X16.3056 Y11.4280
G1 X16.5733 Y11.4133
G1 X16.8410 Y11.3987
G1 X17.1086 Y11.3840
G1 X17.3763 Y11.3693
G1 X17.6439 Y11.3547
G1 X17.9114 Y11.3400
G1 X18.1790 Y11.3253
G1 X18.4465 Y11.3107
G1 X18.7140 Y11.2960
G1 X18.9815 Y11.2813
G1 X19.2489 Y11.2667
G1 X19.5164 Y11.2520
G1 X19.7838 Y11.2373
G1 X20.0511 Y11.2227
G1 X20.3185 Y11.2080
G1 X20.5858 Y11.1933
G1 X20.8531 Y11.1787
G1 X21.1203 Y11.1640
G1 X21.3876 Y11.1493
G1 X21.6548 Y11.1347
G1 X21.9220 Y11.1200
G1 X22.1892 Y11.1053
G1 X22.4563 Y11.0907
G1 X22.7234 Y11.0760
G1 X22.9905 Y11.0613
G1 X23.2576 Y11.0467
G1 X23.5246 Y11.0320
G1 X23.7916 Y11.0173
G1 X24.0586 Y11.0027
G1 X24.3256 Y10.9880
G1 X24.5925 Y10.9733
G1 X24.8594 Y10.9587
G1 X25.1263 Y10.9440
G1 X25.3932 Y10.9293
G1 X25.6600 Y10.9147
G1 X25.9268 Y10.9000
G1 X26.1936 Y10.8854
G1 X26.4604 Y10.8707
(Safe converted infill-to-infill connector to fill-infill path 52)
G1 X26.2313 Y10.2077
(fill-infill path 52, 39 points)
G1 X25.9620 Y10.2225
G1 X25.6928 Y10.2374
G1 X25.4235 Y10.2522
G1 X25.1541 Y10.2670
G1 X24.8848 Y10.2819
G1 X24.6154 Y10.2967
G1 X24.3460 Y10.3115
G1 X24.0766 Y10.3263
G1 X23.8071 Y10.3412
G1 X23.5376 Y10.3560
G1 X23.2681 Y10.3708
G1 X22.9986 Y10.3857
G1 X22.7291 Y10.4005
G1 X22.4595 Y10.4153
G1 X22.1899 Y10.4302
G1 X21.9203 Y10.4450
G1 X21.6506 Y10.4598
G1 X21.3810 Y10.4746
G1 X21.1113 Y10.4895
G1 X20.8416 Y10.5043
G1 X20.5718 Y10.5191
G1 X20.3021 Y10.5340
G1 X20.0323 Y10.5488
G1 X19.7625 Y10.5636
G1 X19.4926 Y10.5785
G1 X19.2228 Y10.5933
G1 X18.9529 Y10.6081
G1 X18.6830 Y10.6229
G1 X18.4130 Y10.6378
G1 X18.1431 Y10.6526
G1 X17.8731 Y10.6674
G1 X17.6031 Y10.6823
G1 X17.3330 Y10.6971
G1 X17.0630 Y10.7119
G1 X16.7929 Y10.7268
G1 X16.5228 Y10.7416
G1 X16.2526 Y10.7564
G1 X15.9824 Y10.7712
(Safe converted infill-to-infill connector to fill-infill path 53)
G1 X15.7522 Y10.1096
(fill-infill path 53, 42 points)
G1 X16.0182 Y10.0950
G1 X16.2842 Y10.0803
G1 X16.5502 Y10.0657
G1 X16.8162 Y10.0511
G1 X17.0821 Y10.0364
G1 X17.3481 Y10.0218
G1 X17.6139 Y10.0072
G1 X17.8798 Y9.9925
G1 X18.1457 Y9.9779
G1 X18.4115 Y9.9633
G1 X18.6773 Y9.9486
G1 X18.9431 Y9.9340
G1 X19.2089 Y9.9194
G1 X19.4746 Y9.9047
G1 X19.7403 Y9.8901
G1 X20.0060 Y9.8755
G1 X20.2717 Y9.8609
G1 X20.5373 Y9.8462
G1 X20.8029 Y9.8316
G1 X21.0686 Y9.8170
G1 X21.3341 Y9.8023
G1 X21.5997 Y9.7877
G1 X21.8652 Y9.7731
G1 X22.1307 Y9.7584
G1 X22.3962 Y9.7438
G1 X22.6617 Y9.7292
G1 X22.9272 Y9.7145
G1 X23.1926 Y9.6999
G1 X23.4580 Y9.6853
G1 X23.7234 Y9.6706
G1 X23.9888 Y9.6560
G1 X24.2541 Y9.6414
G1 X24.5194 Y9.6268
G1 X24.7847 Y9.6121
G1 X25.0500 Y9.5975
G1 X25.3153 Y9.5829
G1 X25.5805 Y9.5682
G1 X25.8457 Y9.5536
G1 X26.1109 Y9.5390
G1 X26.3761 Y9.5243
G1 X26.6412 Y9.5097
(Safe converted infill-to-infill connector to fill-infill path 54)
G1 X26.4633 Y8.8443
(fill-infill path 54, 39 points)
G1 X26.1947 Y8.8592
G1 X25.9260 Y8.8740
G1 X25.6574 Y8.8889
G1 X25.3887 Y8.9037
G1 X25.1200 Y8.9186
G1 X24.8513 Y8.9334
G1 X24.5826 Y8.9482
G1 X24.3138 Y8.9631
G1 X24.0451 Y8.9779
G1 X23.7763 Y8.9928
G1 X23.5074 Y9.0076
G1 X23.2386 Y9.0225
G1 X22.9698 Y9.0373
G1 X22.7009 Y9.0522
G1 X22.4320 Y9.0670
G1 X22.1631 Y9.0819
G1 X21.8941 Y9.0967
G1 X21.6252 Y9.1115
G1 X21.3562 Y9.1264
G1 X21.0872 Y9.1412
G1 X20.8182 Y9.1561
G1 X20.5492 Y9.1709
G1 X20.2801 Y9.1858
G1 X20.0110 Y9.2006
G1 X19.7419 Y9.2155
G1 X19.4728 Y9.2303
G1 X19.2036 Y9.2451
G1 X18.9345 Y9.2600
G1 X18.6653 Y9.2748
G1 X18.3961 Y9.2897
G1 X18.1268 Y9.3045
G1 X17.8576 Y9.3194
G1 X17.5883 Y9.3342
G1 X17.3190 Y9.3491
G1 X17.0497 Y9.3639
G1 X16.7803 Y9.3788
G1 X16.5110 Y9.3936
G1 X16.2416 Y9.4084
(Safe converted infill-to-infill connector to fill-infill path 55)
G1 X16.0355 Y8.7457
(fill-infill path 55, 42 points)
G1 X16.3016 Y8.7310
G1 X16.5677 Y8.7163
G1 X16.8338 Y8.7016
G1 X17.0998 Y8.6870
G1 X17.3658 Y8.6723
G1 X17.6318 Y8.6576
G1 X17.8978 Y8.6429
G1 X18.1637 Y8.6282
G1 X18.4297 Y8.6135
G1 X18.6956 Y8.5988
G1 X18.9615 Y8.5841
G1 X19.2274 Y8.5695
G1 X19.4932 Y8.5548
G1 X19.7591 Y8.5401
G1 X20.0249 Y8.5254
G1 X20.2907 Y8.5107
G1 X20.5565 Y8.4960
G1 X20.8223 Y8.4813
G1 X21.0880 Y8.4666
G1 X21.3537 Y8.4520
G1 X21.6194 Y8.4373
G1 X21.8851 Y8.4226
G1 X22.1508 Y8.4079
G1 X22.4165 Y8.3932
G1 X22.6821 Y8.3785
G1 X22.9477 Y8.3638
G1 X23.2133 Y8.3491
G1 X23.4789 Y8.3345
G1 X23.7444 Y8.3198
G1 X24.0100 Y8.3051
G1 X24.2755 Y8.2904
G1 X24.5410 Y8.2757
G1 X24.8065 Y8.2610
G1 X25.0720 Y8.2463
G1 X25.3374 Y8.2316
G1 X25.6029 Y8.2170
G1 X25.8683 Y8.2023
G1 X26.1337 Y8.1876
G1 X26.3990 Y8.1729
G1 X26.6644 Y8.1582
G1 X26.9297 Y8.1435
(Safe converted infill-to-infill connector to fill-infill path 56)
G1 X26.7395 Y7.4792
(fill-infill path 56, 39 points)
G1 X26.4705 Y7.4941
G1 X26.2016 Y7.5091
G1 X25.9326 Y7.5240
G1 X25.6636 Y7.5389
G1 X25.3946 Y7.5538
G1 X25.1256 Y7.5687
G1 X24.8566 Y7.5836
G1 X24.5875 Y7.5985
G1 X24.3185 Y7.6134
G1 X24.0494 Y7.6283
G1 X23.7803 Y7.6432
G1 X23.5112 Y7.6581
G1 X23.2420 Y7.6730
G1 X22.9729 Y7.6879
G1 X22.7037 Y7.7028
G1 X22.4345 Y7.7177
G1 X22.1653 Y7.7326
G1 X21.8961 Y7.7475
G1 X21.6269 Y7.7624
G1 X21.3576 Y7.7773
G1 X21.0883 Y7.7923
G1 X20.8190 Y7.8072
G1 X20.5497 Y7.8221
G1 X20.2804 Y7.8370
G1 X20.0110 Y7.8519
G1 X19.7417 Y7.8668
G1 X19.4723 Y7.8817
G1 X19.2029 Y7.8966
G1 X18.9335 Y7.9115
G1 X18.6640 Y7.9264
G1 X18.3946 Y7.9413
G1 X18.1251 Y7.9562
G1 X17.8556 Y7.9711
G1 X17.5861 Y7.9860
G1 X17.3166 Y8.0009
G1 X17.0470 Y8.0158
G1 X16.7775 Y8.0307
G1 X16.5079 Y8.0456
(Safe converted infill-to-infill connector to fill-infill path 57)
G1 X16.3065 Y7.3829
(fill-infill path 57, 42 points)
G1 X16.5726 Y7.3682
G1 X16.8386 Y7.3535
G1 X17.1046 Y7.3387
G1 X17.3706 Y7.3240
G1 X17.6366 Y7.3093
G1 X17.9025 Y7.2945
G1 X18.1685 Y7.2798
G1 X18.4344 Y7.2651
G1 X18.7003 Y7.2503
G1 X18.9662 Y7.2356
G1 X19.2321 Y7.2209
G1 X19.4980 Y7.2062
G1 X19.7638 Y7.1914
G1 X20.0297 Y7.1767
G1 X20.2955 Y7.1620
G1 X20.5613 Y7.1472
G1 X20.8271 Y7.1325
G1 X21.0928 Y7.1178
G1 X21.3586 Y7.1031
G1 X21.6243 Y7.0883
G1 X21.8900 Y7.0736
G1 X22.1558 Y7.0589
G1 X22.4214 Y7.0441
G1 X22.6871 Y7.0294
G1 X22.9528 Y7.0147
G1 X23.2184 Y6.9999
G1 X23.4841 Y6.9852
G1 X23.7497 Y6.9705
G1 X24.0153 Y6.9558
G1 X24.2809 Y6.9410
G1 X24.5464 Y6.9263
G1 X24.8120 Y6.9116
G1 X25.0775 Y6.8968
G1 X25.3431 Y6.8821
G1 X25.6086 Y6.8674
G1 X25.8741 Y6.8527
G1 X26.1395 Y6.8379
G1 X26.4050 Y6.8232
G1 X26.6705 Y6.8085
G1 X26.9359 Y6.7937
G1 X27.2013 Y6.7790
(Safe converted infill-to-infill connector to fill-infill path 58)
G1 X27.0187 Y6.1147
(fill-infill path 58, 40 points)
G1 X26.7564 Y6.1293
G1 X26.4942 Y6.1439
G1 X26.2319 Y6.1584
G1 X25.9697 Y6.1730
G1 X25.7074 Y6.1876
G1 X25.4451 Y6.2021
G1 X25.1828 Y6.2167
G1 X24.9204 Y6.2313
G1 X24.6581 Y6.2458
G1 X24.3957 Y6.2604
G1 X24.1334 Y6.2750
G1 X23.8710 Y6.2895
G1 X23.6086 Y6.3041
G1 X23.3462 Y6.3187
G1 X23.0838 Y6.3332
G1 X22.8214 Y6.3478
G1 X22.5589 Y6.3624
G1 X22.2965 Y6.3769
G1 X22.0340 Y6.3915
G1 X21.7715 Y6.4061
G1 X21.5090 Y6.4206
G1 X21.2465 Y6.4352
G1 X20.9840 Y6.4498
G1 X20.7214 Y6.4643
G1 X20.4589 Y6.4789
G1 X20.1963 Y6.4935
G1 X19.9337 Y6.5080
G1 X19.6711 Y6.5226
G1 X19.4085 Y6.5372
G1 X19.1459 Y6.5517
G1 X18.8833 Y6.5663
G1 X18.6206 Y6.5809
G1 X18.3580 Y6.5954
G1 X18.0953 Y6.6100
G1 X17.8326 Y6.6246
G1 X17.5699 Y6.6391
G1 X17.3072 Y6.6537
G1 X17.0444 Y6.6683
G1 X16.7817 Y6.6828
(Safe converted infill-to-infill connector to fill-infill path 59)
G1 X16.6271 Y6.0178
(fill-infill path 59, 42 points)
G1 X16.8913 Y6.0031
G1 X17.1554 Y5.9885
G1 X17.4195 Y5.9738
G1 X17.6836 Y5.9591
G1 X17.9477 Y5.9445
G1 X18.2117 Y5.9298
G1 X18.4758 Y5.9152
G1 X18.7399 Y5.9005
G1 X19.0039 Y5.8858
G1 X19.2679 Y5.8712
G1 X19.5319 Y5.8565
G1 X19.7959 Y5.8419
G1 X20.0599 Y5.8272
G1 X20.3239 Y5.8125
G1 X20.5878 Y5.7979
G1 X20.8518 Y5.7832
G1 X21.1157 Y5.7686
G1 X21.3796 Y5.7539
G1 X21.6435 Y5.7392
G1 X21.9074 Y5.7246
G1 X22.1713 Y5.7099
G1 X22.4352 Y5.6953
G1 X22.6990 Y5.6806
G1 X22.9629 Y5.6659
G1 X23.2267 Y5.6513
G1 X23.4905 Y5.6366
G1 X23.7544 Y5.6220
G1 X24.0182 Y5.6073
G1 X24.2820 Y5.5926
G1 X24.5457 Y5.5780
G1 X24.8095 Y5.5633
G1 X25.0732 Y5.5487
G1 X25.3370 Y5.5340
G1 X25.6007 Y5.5193
G1 X25.8644 Y5.5047
G1 X26.1282 Y5.4900
G1 X26.3919 Y5.4754
G1 X26.6555 Y5.4607
G1 X26.9192 Y5.4461
G1 X27.1829 Y5.4314
G1 X27.4465 Y5.4167
(Safe converted infill-to-infill connector to fill-infill path 60)
G1 X27.2897 Y4.7514
(fill-infill path 60, 40 points)
G1 X27.0277 Y4.7660
G1 X26.7657 Y4.7806
G1 X26.5036 Y4.7952
G1 X26.2416 Y4.8098
G1 X25.9795 Y4.8243
G1 X25.7175 Y4.8389
G1 X25.4554 Y4.8535
G1 X25.1933 Y4.8681
G1 X24.9312 Y4.8827
G1 X24.6691 Y4.8972
G1 X24.4070 Y4.9118
G1 X24.1448 Y4.9264
G1 X23.8827 Y4.9410
G1 X23.6205 Y4.9556
G1 X23.3584 Y4.9701
G1 X23.0962 Y4.9847
G1 X22.8340 Y4.9993
G1 X22.5718 Y5.0139
G1 X22.3096 Y5.0284
G1 X22.0474 Y5.0430
G1 X21.7852 Y5.0576
G1 X21.5230 Y5.0722
G1 X21.2607 Y5.0868
G1 X20.9985 Y5.1013
G1 X20.7362 Y5.1159
G1 X20.4740 Y5.1305
G1 X20.2117 Y5.1451
G1 X19.9494 Y5.1597
G1 X19.6871 Y5.1742
G1 X19.4248 Y5.1888
G1 X19.1624 Y5.2034
G1 X18.9001 Y5.2180
G1 X18.6377 Y5.2326
G1 X18.3754 Y5.2471
G1 X18.1130 Y5.2617
G1 X17.8506 Y5.2763
G1 X17.5882 Y5.2909
G1 X17.3258 Y5.3055
G1 X17.0634 Y5.3200
(Safe converted infill-to-infill connector to fill-infill path 61)
G1 X16.9523 Y4.6528
(fill-infill path 61, 42 points)
G1 X17.2161 Y4.6382
G1 X17.4798 Y4.6235
G1 X17.7436 Y4.6088
G1 X18.0073 Y4.5942
G1 X18.2710 Y4.5795
G1 X18.5347 Y4.5648
G1 X18.7984 Y4.5502
G1 X19.0621 Y4.5355
G1 X19.3258 Y4.5208
G1 X19.5895 Y4.5062
G1 X19.8531 Y4.4915
G1 X20.1168 Y4.4768
G1 X20.3804 Y4.4622
G1 X20.6441 Y4.4475
G1 X20.9077 Y4.4328
G1 X21.1713 Y4.4182
G1 X21.4349 Y4.4035
G1 X21.6985 Y4.3888
G1 X21.9621 Y4.3742
G1 X22.2257 Y4.3595
G1 X22.4893 Y4.3448
G1 X22.7529 Y4.3302
G1 X23.0164 Y4.3155
G1 X23.2800 Y4.3008
G1 X23.5435 Y4.2862
G1 X23.8070 Y4.2715
G1 X24.0706 Y4.2568
G1 X24.3341 Y4.2422
G1 X24.5976 Y4.2275
G1 X24.8611 Y4.2128
G1 X25.1246 Y4.1982
G1 X25.3880 Y4.1835
G1 X25.6515 Y4.1688
G1 X25.9150 Y4.1542
G1 X26.1784 Y4.1395
G1 X26.4419 Y4.1248
G1 X26.7053 Y4.1102
G1 X26.9688 Y4.0955
G1 X27.2322 Y4.0808
G1 X27.4956 Y4.0662
G1 X27.7590 Y4.0515
(Safe converted infill-to-infill connector to fill-infill path 62)
G1 X27.6019 Y3.3867
(fill-infill path 62, 39 points)
G1 X27.3343 Y3.4016
G1 X27.0667 Y3.4165
G1 X26.7992 Y3.4314
G1 X26.5316 Y3.4463
G1 X26.2640 Y3.4612
G1 X25.9964 Y3.4761
G1 X25.7289 Y3.4910
G1 X25.4613 Y3.5059
G1 X25.1937 Y3.5208
G1 X24.9260 Y3.5357
G1 X24.6584 Y3.5506
G1 X24.3908 Y3.5655
G1 X24.1232 Y3.5804
G1 X23.8555 Y3.5953
G1 X23.5879 Y3.6102
G1 X23.3202 Y3.6251
G1 X23.0526 Y3.6400
G1 X22.7849 Y3.6549
G1 X22.5172 Y3.6698
G1 X22.2495 Y3.6847
G1 X21.9819 Y3.6996
G1 X21.7142 Y3.7145
G1 X21.4465 Y3.7294
G1 X21.1787 Y3.7443
G1 X20.9110 Y3.7592
G1 X20.6433 Y3.7741
G1 X20.3756 Y3.7891
G1 X20.1078 Y3.8040
G1 X19.8401 Y3.8189
G1 X19.5723 Y3.8338
G1 X19.3045 Y3.8487
G1 X19.0368 Y3.8636
G1 X18.7690 Y3.8785
G1 X18.5012 Y3.8934
G1 X18.2334 Y3.9083
G1 X17.9656 Y3.9232
G1 X17.6977 Y3.9381
G1 X17.4299 Y3.9530
(Safe converted infill-to-infill connector to fill-infill path 63)
G1 X17.1965 Y3.2928
(fill-infill path 63, 42 points)
G1 X17.4618 Y3.2781
G1 X17.7271 Y3.2633
G1 X17.9923 Y3.2485
G1 X18.2575 Y3.2338
G1 X18.5228 Y3.2190
G1 X18.7880 Y3.2042
G1 X19.0532 Y3.1895
G1 X19.3184 Y3.1747
G1 X19.5836 Y3.1599
G1 X19.8488 Y3.1452
G1 X20.1140 Y3.1304
G1 X20.3792 Y3.1156
G1 X20.6444 Y3.1009
G1 X20.9096 Y3.0861
G1 X21.1748 Y3.0713
G1 X21.4399 Y3.0565
G1 X21.7051 Y3.0418
G1 X21.9702 Y3.0270
G1 X22.2354 Y3.0122
G1 X22.5005 Y2.9975
G1 X22.7657 Y2.9827
G1 X23.0308 Y2.9679
G1 X23.2959 Y2.9532
G1 X23.5610 Y2.9384
G1 X23.8262 Y2.9236
G1 X24.0913 Y2.9089
G1 X24.3564 Y2.8941
G1 X24.6215 Y2.8793
G1 X24.8866 Y2.8646
G1 X25.1516 Y2.8498
G1 X25.4167 Y2.8350
G1 X25.6818 Y2.8203
G1 X25.9469 Y2.8055
G1 X26.2119 Y2.7907
G1 X26.4770 Y2.7760
G1 X26.7421 Y2.7612
G1 X27.0071 Y2.7464
G1 X27.2722 Y2.7317
G1 X27.5372 Y2.7169
G1 X27.8023 Y2.7021
G1 X28.0673 Y2.6873
(Safe converted infill-to-infill connector to fill-infill path 64)
G1 X27.9309 Y2.0218
(fill-infill path 64, 40 points)
G1 X27.6692 Y2.0364
G1 X27.4075 Y2.0509
G1 X27.1458 Y2.0655
G1 X26.8841 Y2.0801
G1 X26.6224 Y2.0947
G1 X26.3606 Y2.1093
G1 X26.0989 Y2.1239
G1 X25.8372 Y2.1384
G1 X25.5754 Y2.1530
G1 X25.3137 Y2.1676
G1 X25.0520 Y2.1822
G1 X24.7902 Y2.1968
G1 X24.5285 Y2.2114
G1 X24.2667 Y2.2260
G1 X24.0050 Y2.2405
G1 X23.7432 Y2.2551
G1 X23.4814 Y2.2697
G1 X23.2197 Y2.2843
G1 X22.9579 Y2.2989
G1 X22.6961 Y2.3135
G1 X22.4343 Y2.3281
G1 X22.1726 Y2.3426
G1 X21.9108 Y2.3572
G1 X21.6490 Y2.3718
G1 X21.3872 Y2.3864
G1 X21.1254 Y2.4010
G1 X20.8636 Y2.4156
G1 X20.6018 Y2.4302
G1 X20.3400 Y2.4447
G1 X20.0782 Y2.4593
G1 X19.8163 Y2.4739
G1 X19.5545 Y2.4885
G1 X19.2927 Y2.5031
G1 X19.0308 Y2.5177
G1 X18.7690 Y2.5322
G1 X18.5072 Y2.5468
G1 X18.2453 Y2.5614
G1 X17.9835 Y2.5760
G1 X17.7216 Y2.5906
(Safe converted infill-to-infill connector to fill-infill path 65)
G1 X17.5509 Y1.9272
(fill-infill path 65, 42 points)
G1 X17.8151 Y1.9125
G1 X18.0793 Y1.8978
G1 X18.3434 Y1.8831
G1 X18.6076 Y1.8683
G1 X18.8718 Y1.8536
G1 X19.1360 Y1.8389
G1 X19.4001 Y1.8242
G1 X19.6643 Y1.8095
G1 X19.9285 Y1.7948
G1 X20.1926 Y1.7800
G1 X20.4568 Y1.7653
G1 X20.7209 Y1.7506
G1 X20.9851 Y1.7359
G1 X21.2492 Y1.7212
G1 X21.5134 Y1.7064
G1 X21.7775 Y1.6917
G1 X22.0417 Y1.6770
G1 X22.3058 Y1.6623
G1 X22.5699 Y1.6476
G1 X22.8341 Y1.6328
G1 X23.0982 Y1.6181
G1 X23.3623 Y1.6034
G1 X23.6265 Y1.5887
G1 X23.8906 Y1.5740
G1 X24.1547 Y1.5593
G1 X24.4188 Y1.5445
G1 X24.6829 Y1.5298
G1 X24.9470 Y1.5151
G1 X25.2112 Y1.5004
G1 X25.4753 Y1.4857
G1 X25.7394 Y1.4709
G1 X26.0035 Y1.4562
G1 X26.2676 Y1.4415
G1 X26.5317 Y1.4268
G1 X26.7958 Y1.4121
G1 X27.0599 Y1.3974
G1 X27.3240 Y1.3826
G1 X27.5881 Y1.3679
G1 X27.8522 Y1.3532
G1 X28.1163 Y1.3385
G1 X28.3804 Y1.3238
(Safe converted infill-to-infill connector to fill-infill path 66)
G1 X28.2452 Y0.6585
(fill-infill path 66, 40 points)
G1 X27.9831 Y0.6732
G1 X27.7210 Y0.6878
G1 X27.4589 Y0.7024
G1 X27.1968 Y0.7170
G1 X26.9346 Y0.7316
G1 X26.6725 Y0.7462
G1 X26.4104 Y0.7608
G1 X26.1483 Y0.7754
G1 X25.8862 Y0.7900
G1 X25.6241 Y0.8046
G1 X25.3620 Y0.8192
G1 X25.0999 Y0.8338
G1 X24.8378 Y0.8484
G1 X24.5757 Y0.8630
G1 X24.3136 Y0.8776
G1 X24.0515 Y0.8922
G1 X23.7893 Y0.9069
G1 X23.5272 Y0.9215
G1 X23.2651 Y0.9361
G1 X23.0030 Y0.9507
G1 X22.7409 Y0.9653
G1 X22.4788 Y0.9799
G1 X22.2167 Y0.9945
G1 X21.9546 Y1.0091
G1 X21.6924 Y1.0237
G1 X21.4303 Y1.0383
G1 X21.1682 Y1.0529
G1 X20.9061 Y1.0675
G1 X20.6440 Y1.0821
G1 X20.3818 Y1.0967
G1 X20.1197 Y1.1113
G1 X19.8576 Y1.1259
G1 X19.5955 Y1.1406
G1 X19.3333 Y1.1552
G1 X19.0712 Y1.1698
G1 X18.8091 Y1.1844
G1 X18.5470 Y1.1990
G1 X18.2848 Y1.2136
G1 X18.0227 Y1.2282
(Safe converted infill-to-infill connector to fill-infill path 67)
G1 X17.8641 Y0.5644
(fill-infill path 67, 42 points)
G1 X18.1283 Y0.5497
G1 X18.3925 Y0.5350
G1 X18.6568 Y0.5203
G1 X18.9210 Y0.5055
G1 X19.1852 Y0.4908
G1 X19.4494 Y0.4761
G1 X19.7137 Y0.4614
G1 X19.9779 Y0.4466
G1 X20.2421 Y0.4319
G1 X20.5063 Y0.4172
G1 X20.7706 Y0.4025
G1 X21.0348 Y0.3878
G1 X21.2990 Y0.3730
G1 X21.5632 Y0.3583
G1 X21.8275 Y0.3436
G1 X22.0917 Y0.3289
G1 X22.3559 Y0.3141
G1 X22.6201 Y0.2994
G1 X22.8844 Y0.2847
G1 X23.1486 Y0.2700
G1 X23.4128 Y0.2553
G1 X23.6771 Y0.2405
G1 X23.9413 Y0.2258
G1 X24.2055 Y0.2111
G1 X24.4698 Y0.1964
G1 X24.7340 Y0.1816
G1 X24.9982 Y0.1669
G1 X25.2625 Y0.1522
G1 X25.5267 Y0.1375
G1 X25.7910 Y0.1228
G1 X26.0552 Y0.1080
G1 X26.3195 Y0.0933
G1 X26.5837 Y0.0786
G1 X26.8479 Y0.0639
G1 X27.1122 Y0.0491
G1 X27.3764 Y0.0344
G1 X27.6407 Y0.0197
G1 X27.9050 Y0.0050
G1 X28.1692 Y-0.0097
G1 X28.4335 Y-0.0245
G1 X28.6977 Y-0.0392
(Safe converted infill-to-infill connector to fill-infill path 68)
G1 X28.6250 Y-0.7074
(fill-infill path 68, 40 points)
G1 X28.3617 Y-0.6928
G1 X28.0984 Y-0.6781
G1 X27.8352 Y-0.6635
G1 X27.5719 Y-0.6488
G1 X27.3087 Y-0.6341
G1 X27.0454 Y-0.6195
G1 X26.7822 Y-0.6048
G1 X26.5189 Y-0.5902
G1 X26.2557 Y-0.5755
G1 X25.9924 Y-0.5608
G1 X25.7292 Y-0.5462
G1 X25.4660 Y-0.5315
G1 X25.2027 Y-0.5168
G1 X24.9395 Y-0.5022
G1 X24.6763 Y-0.4875
G1 X24.4131 Y-0.4729
G1 X24.1498 Y-0.4582
G1 X23.8866 Y-0.4435
G1 X23.6234 Y-0.4289
G1 X23.3602 Y-0.4142
G1 X23.0970 Y-0.3996
G1 X22.8338 Y-0.3849
G1 X22.5706 Y-0.3702
G1 X22.3074 Y-0.3556
G1 X22.0442 Y-0.3409
G1 X21.7810 Y-0.3263
G1 X21.5178 Y-0.3116
G1 X21.2546 Y-0.2969
G1 X20.9914 Y-0.2823
G1 X20.7282 Y-0.2676
G1 X20.4650 Y-0.2529
G1 X20.2018 Y-0.2383
G1 X19.9386 Y-0.2236
G1 X19.6755 Y-0.2090
G1 X19.4123 Y-0.1943
G1 X19.1491 Y-0.1796
G1 X18.8859 Y-0.1650
G1 X18.6228 Y-0.1503
G1 X18.3596 Y-0.1357
(Safe converted infill-to-infill connector to fill-infill path 69)
G1 X18.1873 Y-0.7984
(fill-infill path 69, 42 points)
G1 X18.4530 Y-0.8132
G1 X18.7188 Y-0.8280
G1 X18.9845 Y-0.8428
G1 X19.2503 Y-0.8576
G1 X19.5161 Y-0.8724
G1 X19.7818 Y-0.8872
G1 X20.0476 Y-0.9020
G1 X20.3134 Y-0.9168
G1 X20.5791 Y-0.9316
G1 X20.8449 Y-0.9464
G1 X21.1107 Y-0.9612
G1 X21.3765 Y-0.9760
G1 X21.6423 Y-0.9908
G1 X21.9081 Y-1.0056
G1 X22.1739 Y-1.0204
G1 X22.4397 Y-1.0352
G1 X22.7055 Y-1.0500
G1 X22.9713 Y-1.0648
G1 X23.2372 Y-1.0796
G1 X23.5030 Y-1.0944
G1 X23.7688 Y-1.1092
G1 X24.0346 Y-1.1240
G1 X24.3005 Y-1.1388
G1 X24.5663 Y-1.1536
G1 X24.8322 Y-1.1684
G1 X25.0980 Y-1.1832
G1 X25.3639 Y-1.1980
G1 X25.6297 Y-1.2128
G1 X25.8956 Y-1.2276
G1 X26.1614 Y-1.2424
G1 X26.4273 Y-1.2572
G1 X26.6932 Y-1.2720
G1 X26.9591 Y-1.2868
G1 X27.2250 Y-1.3016
G1 X27.4908 Y-1.3164
G1 X27.7567 Y-1.3312
G1 X28.0226 Y-1.3460
G1 X28.2885 Y-1.3608
G1 X28.5545 Y-1.3756
G1 X28.8204 Y-1.3904
G1 X29.0863 Y-1.4052
(Safe converted infill-to-infill connector to fill-infill path 70)
G1 X28.9812 Y-2.0712
(fill-infill path 70, 40 points)
G1 X28.7164 Y-2.0565
G1 X28.4515 Y-2.0417
G1 X28.1866 Y-2.0270
G1 X27.9217 Y-2.0123
G1 X27.6568 Y-1.9975
G1 X27.3920 Y-1.9828
G1 X27.1271 Y-1.9681
G1 X26.8623 Y-1.9533
G1 X26.5975 Y-1.9386
G1 X26.3326 Y-1.9239
G1 X26.0678 Y-1.9091
G1 X25.8030 Y-1.8944
G1 X25.5382 Y-1.8797
G1 X25.2733 Y-1.8649
G1 X25.0085 Y-1.8502
G1 X24.7438 Y-1.8355
G1 X24.4790 Y-1.8207
G1 X24.2142 Y-1.8060
G1 X23.9494 Y-1.7913
G1 X23.6846 Y-1.7765
G1 X23.4199 Y-1.7618
G1 X23.1551 Y-1.7471
G1 X22.8903 Y-1.7323
G1 X22.6256 Y-1.7176
G1 X22.3608 Y-1.7029
G1 X22.0961 Y-1.6881
G1 X21.8314 Y-1.6734
G1 X21.5667 Y-1.6587
G1 X21.3019 Y-1.6439
G1 X21.0372 Y-1.6292
G1 X20.7725 Y-1.6145
G1 X20.5078 Y-1.5997
G1 X20.2431 Y-1.5850
G1 X19.9784 Y-1.5703
G1 X19.7137 Y-1.5555
G1 X19.4490 Y-1.5408
G1 X19.1843 Y-1.5261
G1 X18.9197 Y-1.5113
G1 X18.6550 Y-1.4966
M3 S575
G4 P0.030
(PATH_END id=fill-infill_035)
(Travel to fill-infill path 71)
G1 X16.3573 Y-1.3687 F3000.000
M3 S700
G4 P0.060
(PATH_START id=fill-infill_071 kind=fill-infill space=machine_deg source=component_002 points=180 max_surface_segment_mm=0.1000)
(fill-infill path 71, 180 points)
G1 X16.0890 Y-1.3538 F1200.000
G1 X15.8207 Y-1.3388
G1 X15.5524 Y-1.3239
G1 X15.2841 Y-1.3089
G1 X15.0158 Y-1.2940
G1 X14.7475 Y-1.2791
G1 X14.4792 Y-1.2641
G1 X14.2110 Y-1.2492
G1 X13.9427 Y-1.2343
G1 X13.6744 Y-1.2193
G1 X13.4062 Y-1.2044
G1 X13.1379 Y-1.1894
G1 X12.8696 Y-1.1745
G1 X12.6014 Y-1.1596
G1 X12.3331 Y-1.1446
G1 X12.0649 Y-1.1297
G1 X11.7966 Y-1.1147
G1 X11.5284 Y-1.0998
G1 X11.2602 Y-1.0849
G1 X10.9919 Y-1.0699
G1 X10.7237 Y-1.0550
G1 X10.4555 Y-1.0401
G1 X10.1872 Y-1.0251
G1 X9.9190 Y-1.0102
G1 X9.6508 Y-0.9952
G1 X9.3826 Y-0.9803
G1 X9.1144 Y-0.9654
G1 X8.8462 Y-0.9504
G1 X8.5780 Y-0.9355
G1 X8.3098 Y-0.9206
G1 X8.0416 Y-0.9056
G1 X7.7734 Y-0.8907
G1 X7.5052 Y-0.8757
G1 X7.2370 Y-0.8608
G1 X6.9688 Y-0.8459
G1 X6.7006 Y-0.8309
G1 X6.4324 Y-0.8160
G1 X6.1642 Y-0.8010
G1 X5.8961 Y-0.7861
G1 X5.6279 Y-0.7712
G1 X5.3597 Y-0.7562
G1 X5.0915 Y-0.7413
G1 X4.8234 Y-0.7264
G1 X4.5552 Y-0.7114
G1 X4.2870 Y-0.6965
G1 X4.0189 Y-0.6815
G1 X3.7507 Y-0.6666
G1 X3.4826 Y-0.6517
G1 X3.2144 Y-0.6367
G1 X2.9462 Y-0.6218
G1 X2.6781 Y-0.6069
G1 X2.4099 Y-0.5919
G1 X2.1418 Y-0.5770
G1 X1.8736 Y-0.5620
G1 X1.6055 Y-0.5471
G1 X1.3373 Y-0.5322
G1 X1.0692 Y-0.5172
G1 X0.8011 Y-0.5023
G1 X0.5329 Y-0.4873
G1 X0.2648 Y-0.4724
G1 X-0.0034 Y-0.4575
G1 X-0.2715 Y-0.4425
G1 X-0.5397 Y-0.4276
G1 X-0.8078 Y-0.4127
G1 X-1.0759 Y-0.3977
G1 X-1.3441 Y-0.3828
G1 X-1.6122 Y-0.3678
G1 X-1.8803 Y-0.3529
G1 X-2.1485 Y-0.3380
G1 X-2.4166 Y-0.3230
G1 X-2.6847 Y-0.3081
G1 X-2.9529 Y-0.2932
G1 X-3.2210 Y-0.2782
G1 X-3.4891 Y-0.2633
G1 X-3.7572 Y-0.2483
G1 X-4.0254 Y-0.2334
G1 X-4.2935 Y-0.2185
G1 X-4.5616 Y-0.2035
G1 X-4.8298 Y-0.1886
G1 X-5.0979 Y-0.1737
G1 X-5.3660 Y-0.1587
G1 X-5.6342 Y-0.1438
G1 X-5.9023 Y-0.1288
G1 X-6.1704 Y-0.1139
G1 X-6.4385 Y-0.0990
G1 X-6.7067 Y-0.0840
G1 X-6.9748 Y-0.0691
G1 X-7.2429 Y-0.0541
G1 X-7.5111 Y-0.0392
G1 X-7.7792 Y-0.0243
G1 X-8.0473 Y-0.0093
G1 X-8.3154 Y0.0056
G1 X-8.5836 Y0.0205
G1 X-8.8517 Y0.0355
G1 X-9.1198 Y0.0504
G1 X-9.3880 Y0.0654
G1 X-9.6561 Y0.0803
G1 X-9.9242 Y0.0952
G1 X-10.1924 Y0.1102
G1 X-10.4605 Y0.1251
G1 X-10.7287 Y0.1400
G1 X-10.9968 Y0.1550
G1 X-11.2649 Y0.1699
G1 X-11.5331 Y0.1849
G1 X-11.8012 Y0.1998
G1 X-12.0694 Y0.2147
G1 X-12.3375 Y0.2297
G1 X-12.6057 Y0.2446
G1 X-12.8738 Y0.2596
G1 X-13.1420 Y0.2745
G1 X-13.4101 Y0.2894
G1 X-13.6783 Y0.3044
G1 X-13.9464 Y0.3193
G1 X-14.2146 Y0.3342
G1 X-14.4827 Y0.3492
G1 X-14.7509 Y0.3641
G1 X-15.0191 Y0.3791
G1 X-15.2872 Y0.3940
G1 X-15.5554 Y0.4089
G1 X-15.8236 Y0.4239
G1 X-16.0917 Y0.4388
G1 X-16.3599 Y0.4537
G1 X-16.6281 Y0.4687
G1 X-16.8963 Y0.4836
G1 X-17.1644 Y0.4986
G1 X-17.4326 Y0.5135
G1 X-17.7008 Y0.5284
G1 X-17.9690 Y0.5434
G1 X-18.2372 Y0.5583
G1 X-18.5054 Y0.5733
G1 X-18.7736 Y0.5882
G1 X-19.0418 Y0.6031
G1 X-19.3100 Y0.6181
G1 X-19.5782 Y0.6330
G1 X-19.8464 Y0.6479
G1 X-20.1146 Y0.6629
G1 X-20.3828 Y0.6778
G1 X-20.6510 Y0.6928
G1 X-20.9192 Y0.7077
G1 X-21.1874 Y0.7226
G1 X-21.4557 Y0.7376
G1 X-21.7239 Y0.7525
G1 X-21.9921 Y0.7674
G1 X-22.2604 Y0.7824
G1 X-22.5286 Y0.7973
G1 X-22.7968 Y0.8123
G1 X-23.0651 Y0.8272
G1 X-23.3333 Y0.8421
G1 X-23.6016 Y0.8571
G1 X-23.8698 Y0.8720
G1 X-24.1381 Y0.8870
G1 X-24.4064 Y0.9019
G1 X-24.6746 Y0.9168
G1 X-24.9429 Y0.9318
G1 X-25.2112 Y0.9467
G1 X-25.4794 Y0.9616
G1 X-25.7477 Y0.9766
G1 X-26.0160 Y0.9915
G1 X-26.2843 Y1.0065
G1 X-26.5526 Y1.0214
G1 X-26.8209 Y1.0363
G1 X-27.0892 Y1.0513
G1 X-27.3575 Y1.0662
G1 X-27.6258 Y1.0811
G1 X-27.8941 Y1.0961
G1 X-28.1625 Y1.1110
G1 X-28.4308 Y1.1260
G1 X-28.6991 Y1.1409
G1 X-28.9675 Y1.1558
G1 X-29.2358 Y1.1708
G1 X-29.5041 Y1.1857
G1 X-29.7725 Y1.2007
G1 X-30.0409 Y1.2156
G1 X-30.3092 Y1.2305
G1 X-30.5776 Y1.2455
G1 X-30.8459 Y1.2604
G1 X-31.1143 Y1.2753
G1 X-31.3827 Y1.2903
G1 X-31.6511 Y1.3052
(Safe converted infill-to-infill connector to fill-infill path 72)
G1 X-31.6448 Y0.6328
(fill-infill path 72, 229 points)
G1 X-31.3769 Y0.6179
G1 X-31.1089 Y0.6030
G1 X-30.8410 Y0.5880
G1 X-30.5731 Y0.5731
G1 X-30.3052 Y0.5582
G1 X-30.0373 Y0.5433
G1 X-29.7694 Y0.5283
G1 X-29.5014 Y0.5134
G1 X-29.2335 Y0.4985
G1 X-28.9656 Y0.4836
G1 X-28.6977 Y0.4687
G1 X-28.4299 Y0.4537
G1 X-28.1620 Y0.4388
G1 X-27.8941 Y0.4239
G1 X-27.6262 Y0.4090
G1 X-27.3583 Y0.3941
G1 X-27.0904 Y0.3791
G1 X-26.8225 Y0.3642
G1 X-26.5547 Y0.3493
G1 X-26.2868 Y0.3344
G1 X-26.0189 Y0.3195
G1 X-25.7511 Y0.3045
G1 X-25.4832 Y0.2896
G1 X-25.2153 Y0.2747
G1 X-24.9475 Y0.2598
G1 X-24.6796 Y0.2448
G1 X-24.4118 Y0.2299
G1 X-24.1439 Y0.2150
G1 X-23.8761 Y0.2001
G1 X-23.6082 Y0.1852
G1 X-23.3404 Y0.1702
G1 X-23.0725 Y0.1553
G1 X-22.8047 Y0.1404
G1 X-22.5368 Y0.1255
G1 X-22.2690 Y0.1106
G1 X-22.0012 Y0.0956
G1 X-21.7333 Y0.0807
G1 X-21.4655 Y0.0658
G1 X-21.1976 Y0.0509
G1 X-20.9298 Y0.0360
G1 X-20.6620 Y0.0210
G1 X-20.3942 Y0.0061
G1 X-20.1263 Y-0.0088
G1 X-19.8585 Y-0.0237
G1 X-19.5907 Y-0.0387
G1 X-19.3229 Y-0.0536
G1 X-19.0550 Y-0.0685
G1 X-18.7872 Y-0.0834
G1 X-18.5194 Y-0.0983
G1 X-18.2516 Y-0.1133
G1 X-17.9838 Y-0.1282
G1 X-17.7159 Y-0.1431
G1 X-17.4481 Y-0.1580
G1 X-17.1803 Y-0.1729
G1 X-16.9125 Y-0.1879
G1 X-16.6447 Y-0.2028
G1 X-16.3769 Y-0.2177
G1 X-16.1091 Y-0.2326
G1 X-15.8413 Y-0.2475
G1 X-15.5734 Y-0.2625
G1 X-15.3056 Y-0.2774
G1 X-15.0378 Y-0.2923
G1 X-14.7700 Y-0.3072
G1 X-14.5022 Y-0.3222
G1 X-14.2344 Y-0.3371
G1 X-13.9666 Y-0.3520
G1 X-13.6988 Y-0.3669
G1 X-13.4310 Y-0.3818
G1 X-13.1632 Y-0.3968
G1 X-12.8953 Y-0.4117
G1 X-12.6275 Y-0.4266
G1 X-12.3597 Y-0.4415
G1 X-12.0919 Y-0.4564
G1 X-11.8241 Y-0.4714
G1 X-11.5563 Y-0.4863
G1 X-11.2885 Y-0.5012
G1 X-11.0207 Y-0.5161
G1 X-10.7529 Y-0.5310
G1 X-10.4851 Y-0.5460
G1 X-10.2172 Y-0.5609
G1 X-9.9494 Y-0.5758
G1 X-9.6816 Y-0.5907
G1 X-9.4138 Y-0.6057
G1 X-9.1460 Y-0.6206
G1 X-8.8782 Y-0.6355
G1 X-8.6103 Y-0.6504
G1 X-8.3425 Y-0.6653
G1 X-8.0747 Y-0.6803
G1 X-7.8069 Y-0.6952
G1 X-7.5391 Y-0.7101
G1 X-7.2712 Y-0.7250
G1 X-7.0034 Y-0.7399
G1 X-6.7356 Y-0.7549
G1 X-6.4678 Y-0.7698
G1 X-6.1999 Y-0.7847
G1 X-5.9321 Y-0.7996
G1 X-5.6643 Y-0.8146
G1 X-5.3964 Y-0.8295
G1 X-5.1286 Y-0.8444
G1 X-4.8608 Y-0.8593
G1 X-4.5929 Y-0.8742
G1 X-4.3251 Y-0.8892
G1 X-4.0572 Y-0.9041
G1 X-3.7894 Y-0.9190
G1 X-3.5215 Y-0.9339
G1 X-3.2537 Y-0.9488
G1 X-2.9859 Y-0.9638
G1 X-2.7180 Y-0.9787
G1 X-2.4501 Y-0.9936
G1 X-2.1823 Y-1.0085
G1 X-1.9144 Y-1.0234
G1 X-1.6466 Y-1.0384
G1 X-1.3787 Y-1.0533
G1 X-1.1108 Y-1.0682
G1 X-0.8430 Y-1.0831
G1 X-0.5751 Y-1.0981
G1 X-0.3072 Y-1.1130
G1 X-0.0393 Y-1.1279
G1 X0.2285 Y-1.1428
G1 X0.4964 Y-1.1577
G1 X0.7643 Y-1.1727
G1 X1.0322 Y-1.1876
G1 X1.3001 Y-1.2025
G1 X1.5680 Y-1.2174
G1 X1.8359 Y-1.2323
G1 X2.1038 Y-1.2473
G1 X2.3717 Y-1.2622
G1 X2.6396 Y-1.2771
G1 X2.9075 Y-1.2920
G1 X3.1754 Y-1.3069
G1 X3.4433 Y-1.3219
G1 X3.7112 Y-1.3368
G1 X3.9792 Y-1.3517
G1 X4.2471 Y-1.3666
G1 X4.5150 Y-1.3816
G1 X4.7830 Y-1.3965
G1 X5.0509 Y-1.4114
G1 X5.3188 Y-1.4263
G1 X5.5868 Y-1.4412
G1 X5.8547 Y-1.4562
G1 X6.1227 Y-1.4711
G1 X6.3907 Y-1.4860
G1 X6.6586 Y-1.5009
G1 X6.9266 Y-1.5158
G1 X7.1946 Y-1.5308
G1 X7.4625 Y-1.5457
G1 X7.7305 Y-1.5606
G1 X7.9985 Y-1.5755
G1 X8.2665 Y-1.5904
G1 X8.5345 Y-1.6054
G1 X8.8025 Y-1.6203
G1 X9.0705 Y-1.6352
G1 X9.3385 Y-1.6501
G1 X9.6065 Y-1.6651
G1 X9.8745 Y-1.6800
G1 X10.1425 Y-1.6949
G1 X10.4105 Y-1.7098
G1 X10.6786 Y-1.7247
G1 X10.9466 Y-1.7397
G1 X11.2146 Y-1.7546
G1 X11.4827 Y-1.7695
G1 X11.7507 Y-1.7844
G1 X12.0188 Y-1.7993
G1 X12.2868 Y-1.8143
G1 X12.5549 Y-1.8292
G1 X12.8230 Y-1.8441
G1 X13.0911 Y-1.8590
G1 X13.3591 Y-1.8739
G1 X13.6272 Y-1.8889
G1 X13.8953 Y-1.9038
G1 X14.1634 Y-1.9187
G1 X14.4315 Y-1.9336
G1 X14.6996 Y-1.9486
G1 X14.9677 Y-1.9635
G1 X15.2359 Y-1.9784
G1 X15.5040 Y-1.9933
G1 X15.7721 Y-2.0082
G1 X16.0403 Y-2.0232
G1 X16.3084 Y-2.0381
G1 X16.5766 Y-2.0530
G1 X16.8447 Y-2.0679
G1 X17.1129 Y-2.0828
G1 X17.3810 Y-2.0978
G1 X17.6492 Y-2.1127
G1 X17.9174 Y-2.1276
G1 X18.1856 Y-2.1425
G1 X18.4538 Y-2.1574
G1 X18.7220 Y-2.1724
G1 X18.9902 Y-2.1873
G1 X19.2584 Y-2.2022
G1 X19.5266 Y-2.2171
G1 X19.7949 Y-2.2321
G1 X20.0631 Y-2.2470
G1 X20.3313 Y-2.2619
G1 X20.5996 Y-2.2768
G1 X20.8678 Y-2.2917
G1 X21.1361 Y-2.3067
G1 X21.4044 Y-2.3216
G1 X21.6726 Y-2.3365
G1 X21.9409 Y-2.3514
G1 X22.2092 Y-2.3663
G1 X22.4775 Y-2.3813
G1 X22.7458 Y-2.3962
G1 X23.0141 Y-2.4111
G1 X23.2824 Y-2.4260
G1 X23.5508 Y-2.4409
G1 X23.8191 Y-2.4559
G1 X24.0875 Y-2.4708
G1 X24.3558 Y-2.4857
G1 X24.6242 Y-2.5006
G1 X24.8925 Y-2.5156
G1 X25.1609 Y-2.5305
G1 X25.4293 Y-2.5454
G1 X25.6977 Y-2.5603
G1 X25.9661 Y-2.5752
G1 X26.2345 Y-2.5902
G1 X26.5029 Y-2.6051
G1 X26.7713 Y-2.6200
G1 X27.0397 Y-2.6349
G1 X27.3082 Y-2.6498
G1 X27.5766 Y-2.6648
G1 X27.8451 Y-2.6797
G1 X28.1135 Y-2.6946
G1 X28.3820 Y-2.7095
G1 X28.6505 Y-2.7244
G1 X28.9190 Y-2.7394
G1 X29.1875 Y-2.7543
G1 X29.4560 Y-2.7692
(Safe converted infill-to-infill connector to fill-infill path 73)
G1 X29.3468 Y-3.4345
(fill-infill path 73, 228 points)
G1 X29.0787 Y-3.4197
G1 X28.8107 Y-3.4048
G1 X28.5426 Y-3.3899
G1 X28.2746 Y-3.3750
G1 X28.0065 Y-3.3601
G1 X27.7385 Y-3.3452
G1 X27.4704 Y-3.3304
G1 X27.2024 Y-3.3155
G1 X26.9344 Y-3.3006
G1 X26.6664 Y-3.2857
G1 X26.3984 Y-3.2708
G1 X26.1305 Y-3.2559
G1 X25.8625 Y-3.2410
G1 X25.5945 Y-3.2262
G1 X25.3266 Y-3.2113
G1 X25.0587 Y-3.1964
G1 X24.7907 Y-3.1815
G1 X24.5228 Y-3.1666
G1 X24.2549 Y-3.1517
G1 X23.9870 Y-3.1369
G1 X23.7191 Y-3.1220
G1 X23.4512 Y-3.1071
G1 X23.1834 Y-3.0922
G1 X22.9155 Y-3.0773
G1 X22.6476 Y-3.0624
G1 X22.3798 Y-3.0476
G1 X22.1120 Y-3.0327
G1 X21.8441 Y-3.0178
G1 X21.5763 Y-3.0029
G1 X21.3085 Y-2.9880
G1 X21.0407 Y-2.9731
G1 X20.7729 Y-2.9583
G1 X20.5051 Y-2.9434
G1 X20.2374 Y-2.9285
G1 X19.9696 Y-2.9136
G1 X19.7018 Y-2.8987
G1 X19.4341 Y-2.8838
G1 X19.1663 Y-2.8690
G1 X18.8986 Y-2.8541
G1 X18.6309 Y-2.8392
G1 X18.3632 Y-2.8243
G1 X18.0954 Y-2.8094
G1 X17.8277 Y-2.7945
G1 X17.5601 Y-2.7797
G1 X17.2924 Y-2.7648
G1 X17.0247 Y-2.7499
G1 X16.7570 Y-2.7350
G1 X16.4894 Y-2.7201
G1 X16.2217 Y-2.7052
G1 X15.9541 Y-2.6904
G1 X15.6864 Y-2.6755
G1 X15.4188 Y-2.6606
G1 X15.1512 Y-2.6457
G1 X14.8835 Y-2.6308
G1 X14.6159 Y-2.6159
G1 X14.3483 Y-2.6011
G1 X14.0807 Y-2.5862
G1 X13.8132 Y-2.5713
G1 X13.5456 Y-2.5564
G1 X13.2780 Y-2.5415
G1 X13.0104 Y-2.5266
G1 X12.7429 Y-2.5118
G1 X12.4753 Y-2.4969
G1 X12.2078 Y-2.4820
G1 X11.9402 Y-2.4671
G1 X11.6727 Y-2.4522
G1 X11.4052 Y-2.4373
G1 X11.1377 Y-2.4225
G1 X10.8702 Y-2.4076
G1 X10.6027 Y-2.3927
G1 X10.3352 Y-2.3778
G1 X10.0677 Y-2.3629
G1 X9.8002 Y-2.3480
G1 X9.5327 Y-2.3332
G1 X9.2652 Y-2.3183
G1 X8.9978 Y-2.3034
G1 X8.7303 Y-2.2885
G1 X8.4629 Y-2.2736
G1 X8.1954 Y-2.2587
G1 X7.9280 Y-2.2439
G1 X7.6605 Y-2.2290
G1 X7.3931 Y-2.2141
G1 X7.1257 Y-2.1992
G1 X6.8583 Y-2.1843
G1 X6.5908 Y-2.1694
G1 X6.3234 Y-2.1545
G1 X6.0560 Y-2.1397
G1 X5.7886 Y-2.1248
G1 X5.5213 Y-2.1099
G1 X5.2539 Y-2.0950
G1 X4.9865 Y-2.0801
G1 X4.7191 Y-2.0652
G1 X4.4517 Y-2.0504
G1 X4.1844 Y-2.0355
G1 X3.9170 Y-2.0206
G1 X3.6497 Y-2.0057
G1 X3.3823 Y-1.9908
G1 X3.1150 Y-1.9759
G1 X2.8476 Y-1.9611
G1 X2.5803 Y-1.9462
G1 X2.3130 Y-1.9313
G1 X2.0457 Y-1.9164
G1 X1.7783 Y-1.9015
G1 X1.5110 Y-1.8866
G1 X1.2437 Y-1.8718
G1 X0.9764 Y-1.8569
G1 X0.7091 Y-1.8420
G1 X0.4418 Y-1.8271
G1 X0.1745 Y-1.8122
G1 X-0.0928 Y-1.7973
G1 X-0.3600 Y-1.7825
G1 X-0.6273 Y-1.7676
G1 X-0.8946 Y-1.7527
G1 X-1.1619 Y-1.7378
G1 X-1.4291 Y-1.7229
G1 X-1.6964 Y-1.7080
G1 X-1.9636 Y-1.6932
G1 X-2.2309 Y-1.6783
G1 X-2.4981 Y-1.6634
G1 X-2.7654 Y-1.6485
G1 X-3.0326 Y-1.6336
G1 X-3.2999 Y-1.6187
G1 X-3.5671 Y-1.6039
G1 X-3.8343 Y-1.5890
G1 X-4.1015 Y-1.5741
G1 X-4.3688 Y-1.5592
G1 X-4.6360 Y-1.5443
G1 X-4.9032 Y-1.5294
G1 X-5.1704 Y-1.5146
G1 X-5.4376 Y-1.4997
G1 X-5.7048 Y-1.4848
G1 X-5.9720 Y-1.4699
G1 X-6.2392 Y-1.4550
G1 X-6.5064 Y-1.4401
G1 X-6.7736 Y-1.4253
G1 X-7.0408 Y-1.4104
G1 X-7.3080 Y-1.3955
G1 X-7.5752 Y-1.3806
G1 X-7.8424 Y-1.3657
G1 X-8.1095 Y-1.3508
G1 X-8.3767 Y-1.3360
G1 X-8.6439 Y-1.3211
G1 X-8.9111 Y-1.3062
G1 X-9.1782 Y-1.2913
G1 X-9.4454 Y-1.2764
G1 X-9.7126 Y-1.2615
G1 X-9.9797 Y-1.2467
G1 X-10.2469 Y-1.2318
G1 X-10.5140 Y-1.2169
G1 X-10.7812 Y-1.2020
G1 X-11.0483 Y-1.1871
G1 X-11.3155 Y-1.1722
G1 X-11.5826 Y-1.1574
G1 X-11.8498 Y-1.1425
G1 X-12.1169 Y-1.1276
G1 X-12.3841 Y-1.1127
G1 X-12.6512 Y-1.0978
G1 X-12.9184 Y-1.0829
G1 X-13.1855 Y-1.0680
G1 X-13.4526 Y-1.0532
G1 X-13.7198 Y-1.0383
G1 X-13.9869 Y-1.0234
G1 X-14.2540 Y-1.0085
G1 X-14.5211 Y-0.9936
G1 X-14.7883 Y-0.9787
G1 X-15.0554 Y-0.9639
G1 X-15.3225 Y-0.9490
G1 X-15.5896 Y-0.9341
G1 X-15.8568 Y-0.9192
G1 X-16.1239 Y-0.9043
G1 X-16.3910 Y-0.8894
G1 X-16.6581 Y-0.8746
G1 X-16.9252 Y-0.8597
G1 X-17.1924 Y-0.8448
G1 X-17.4595 Y-0.8299
G1 X-17.7266 Y-0.8150
G1 X-17.9937 Y-0.8001
G1 X-18.2608 Y-0.7853
G1 X-18.5279 Y-0.7704
G1 X-18.7950 Y-0.7555
G1 X-19.0622 Y-0.7406
G1 X-19.3293 Y-0.7257
G1 X-19.5964 Y-0.7108
G1 X-19.8635 Y-0.6960
G1 X-20.1306 Y-0.6811
G1 X-20.3977 Y-0.6662
G1 X-20.6648 Y-0.6513
G1 X-20.9319 Y-0.6364
G1 X-21.1990 Y-0.6215
G1 X-21.4661 Y-0.6067
G1 X-21.7333 Y-0.5918
G1 X-22.0004 Y-0.5769
G1 X-22.2675 Y-0.5620
G1 X-22.5346 Y-0.5471
G1 X-22.8017 Y-0.5322
G1 X-23.0688 Y-0.5174
G1 X-23.3359 Y-0.5025
G1 X-23.6030 Y-0.4876
G1 X-23.8701 Y-0.4727
G1 X-24.1372 Y-0.4578
G1 X-24.4044 Y-0.4429
G1 X-24.6715 Y-0.4281
G1 X-24.9386 Y-0.4132
G1 X-25.2057 Y-0.3983
G1 X-25.4728 Y-0.3834
G1 X-25.7399 Y-0.3685
G1 X-26.0070 Y-0.3536
G1 X-26.2742 Y-0.3388
G1 X-26.5413 Y-0.3239
G1 X-26.8084 Y-0.3090
G1 X-27.0755 Y-0.2941
G1 X-27.3426 Y-0.2792
G1 X-27.6098 Y-0.2643
G1 X-27.8769 Y-0.2495
G1 X-28.1440 Y-0.2346
G1 X-28.4111 Y-0.2197
G1 X-28.6783 Y-0.2048
G1 X-28.9454 Y-0.1899
G1 X-29.2125 Y-0.1750
G1 X-29.4796 Y-0.1602
G1 X-29.7468 Y-0.1453
G1 X-30.0139 Y-0.1304
G1 X-30.2811 Y-0.1155
G1 X-30.5482 Y-0.1006
G1 X-30.8153 Y-0.0857
G1 X-31.0825 Y-0.0709
G1 X-31.3496 Y-0.0560
(Safe converted infill-to-infill connector to fill-infill path 74)
G1 X-31.6453 Y-0.7121
(fill-infill path 74, 231 points)
G1 X-31.3783 Y-0.7269
G1 X-31.1113 Y-0.7418
G1 X-30.8443 Y-0.7567
G1 X-30.5773 Y-0.7716
G1 X-30.3103 Y-0.7865
G1 X-30.0433 Y-0.8013
G1 X-29.7763 Y-0.8162
G1 X-29.5093 Y-0.8311
G1 X-29.2423 Y-0.8460
G1 X-28.9753 Y-0.8609
G1 X-28.7083 Y-0.8757
G1 X-28.4413 Y-0.8906
G1 X-28.1743 Y-0.9055
G1 X-27.9073 Y-0.9204
G1 X-27.6403 Y-0.9352
G1 X-27.3733 Y-0.9501
G1 X-27.1063 Y-0.9650
G1 X-26.8393 Y-0.9799
G1 X-26.5722 Y-0.9948
G1 X-26.3052 Y-1.0096
G1 X-26.0382 Y-1.0245
G1 X-25.7712 Y-1.0394
G1 X-25.5042 Y-1.0543
G1 X-25.2372 Y-1.0692
G1 X-24.9702 Y-1.0840
G1 X-24.7032 Y-1.0989
G1 X-24.4362 Y-1.1138
G1 X-24.1692 Y-1.1287
G1 X-23.9021 Y-1.1436
G1 X-23.6351 Y-1.1584
G1 X-23.3681 Y-1.1733
G1 X-23.1011 Y-1.1882
G1 X-22.8341 Y-1.2031
G1 X-22.5670 Y-1.2180
G1 X-22.3000 Y-1.2328
G1 X-22.0330 Y-1.2477
G1 X-21.7660 Y-1.2626
G1 X-21.4989 Y-1.2775
G1 X-21.2319 Y-1.2924
G1 X-20.9649 Y-1.3072
G1 X-20.6979 Y-1.3221
G1 X-20.4308 Y-1.3370
G1 X-20.1638 Y-1.3519
G1 X-19.8967 Y-1.3668
G1 X-19.6297 Y-1.3816
G1 X-19.3627 Y-1.3965
G1 X-19.0956 Y-1.4114
G1 X-18.8286 Y-1.4263
G1 X-18.5615 Y-1.4412
G1 X-18.2945 Y-1.4560
G1 X-18.0274 Y-1.4709
G1 X-17.7604 Y-1.4858
G1 X-17.4933 Y-1.5007
G1 X-17.2262 Y-1.5156
G1 X-16.9592 Y-1.5304
G1 X-16.6921 Y-1.5453
G1 X-16.4250 Y-1.5602
G1 X-16.1580 Y-1.5751
G1 X-15.8909 Y-1.5900
G1 X-15.6238 Y-1.6048
G1 X-15.3567 Y-1.6197
G1 X-15.0897 Y-1.6346
G1 X-14.8226 Y-1.6495
G1 X-14.5555 Y-1.6644
G1 X-14.2884 Y-1.6792
G1 X-14.0213 Y-1.6941
G1 X-13.7542 Y-1.7090
G1 X-13.4871 Y-1.7239
G1 X-13.2200 Y-1.7388
G1 X-12.9529 Y-1.7536
G1 X-12.6858 Y-1.7685
G1 X-12.4187 Y-1.7834
G1 X-12.1516 Y-1.7983
G1 X-11.8844 Y-1.8132
G1 X-11.6173 Y-1.8280
G1 X-11.3502 Y-1.8429
G1 X-11.0831 Y-1.8578
G1 X-10.8159 Y-1.8727
G1 X-10.5488 Y-1.8876
G1 X-10.2816 Y-1.9024
G1 X-10.0145 Y-1.9173
G1 X-9.7473 Y-1.9322
G1 X-9.4802 Y-1.9471
G1 X-9.2130 Y-1.9620
G1 X-8.9459 Y-1.9768
G1 X-8.6787 Y-1.9917
G1 X-8.4115 Y-2.0066
G1 X-8.1444 Y-2.0215
G1 X-7.8772 Y-2.0364
G1 X-7.6100 Y-2.0512
G1 X-7.3428 Y-2.0661
G1 X-7.0756 Y-2.0810
G1 X-6.8084 Y-2.0959
G1 X-6.5412 Y-2.1108
G1 X-6.2740 Y-2.1256
G1 X-6.0068 Y-2.1405
G1 X-5.7396 Y-2.1554
G1 X-5.4723 Y-2.1703
G1 X-5.2051 Y-2.1852
G1 X-4.9379 Y-2.2000
G1 X-4.6706 Y-2.2149
G1 X-4.4034 Y-2.2298
G1 X-4.1362 Y-2.2447
G1 X-3.8689 Y-2.2596
G1 X-3.6017 Y-2.2744
G1 X-3.3344 Y-2.2893
G1 X-3.0671 Y-2.3042
G1 X-2.7998 Y-2.3191
G1 X-2.5326 Y-2.3340
G1 X-2.2653 Y-2.3488
G1 X-1.9980 Y-2.3637
G1 X-1.7307 Y-2.3786
G1 X-1.4634 Y-2.3935
G1 X-1.1961 Y-2.4084
G1 X-0.9288 Y-2.4232
G1 X-0.6615 Y-2.4381
G1 X-0.3941 Y-2.4530
G1 X-0.1268 Y-2.4679
G1 X0.1405 Y-2.4828
G1 X0.4079 Y-2.4976
G1 X0.6752 Y-2.5125
G1 X0.9426 Y-2.5274
G1 X1.2099 Y-2.5423
G1 X1.4773 Y-2.5572
G1 X1.7447 Y-2.5720
G1 X2.0120 Y-2.5869
G1 X2.2794 Y-2.6018
G1 X2.5468 Y-2.6167
G1 X2.8142 Y-2.6316
G1 X3.0816 Y-2.6464
G1 X3.3490 Y-2.6613
G1 X3.6165 Y-2.6762
G1 X3.8839 Y-2.6911
G1 X4.1513 Y-2.7060
G1 X4.4188 Y-2.7208
G1 X4.6862 Y-2.7357
G1 X4.9537 Y-2.7506
G1 X5.2211 Y-2.7655
G1 X5.4886 Y-2.7804
G1 X5.7561 Y-2.7952
G1 X6.0235 Y-2.8101
G1 X6.2910 Y-2.8250
G1 X6.5585 Y-2.8399
G1 X6.8260 Y-2.8547
G1 X7.0935 Y-2.8696
G1 X7.3611 Y-2.8845
G1 X7.6286 Y-2.8994
G1 X7.8961 Y-2.9143
G1 X8.1637 Y-2.9291
G1 X8.4312 Y-2.9440
G1 X8.6988 Y-2.9589
G1 X8.9663 Y-2.9738
G1 X9.2339 Y-2.9887
G1 X9.5015 Y-3.0035
G1 X9.7691 Y-3.0184
G1 X10.0367 Y-3.0333
G1 X10.3043 Y-3.0482
G1 X10.5719 Y-3.0631
G1 X10.8395 Y-3.0779
G1 X11.1071 Y-3.0928
G1 X11.3747 Y-3.1077
G1 X11.6424 Y-3.1226
G1 X11.9100 Y-3.1375
G1 X12.1777 Y-3.1523
G1 X12.4454 Y-3.1672
G1 X12.7131 Y-3.1821
G1 X12.9807 Y-3.1970
G1 X13.2484 Y-3.2119
G1 X13.5161 Y-3.2267
G1 X13.7839 Y-3.2416
G1 X14.0516 Y-3.2565
G1 X14.3193 Y-3.2714
G1 X14.5870 Y-3.2863
G1 X14.8548 Y-3.3011
G1 X15.1225 Y-3.3160
G1 X15.3903 Y-3.3309
G1 X15.6581 Y-3.3458
G1 X15.9259 Y-3.3607
G1 X16.1937 Y-3.3755
G1 X16.4615 Y-3.3904
G1 X16.7293 Y-3.4053
G1 X16.9971 Y-3.4202
G1 X17.2649 Y-3.4351
G1 X17.5328 Y-3.4499
G1 X17.8006 Y-3.4648
G1 X18.0685 Y-3.4797
G1 X18.3364 Y-3.4946
G1 X18.6042 Y-3.5095
G1 X18.8721 Y-3.5243
G1 X19.1400 Y-3.5392
G1 X19.4079 Y-3.5541
G1 X19.6759 Y-3.5690
G1 X19.9438 Y-3.5839
G1 X20.2117 Y-3.5987
G1 X20.4797 Y-3.6136
G1 X20.7476 Y-3.6285
G1 X21.0156 Y-3.6434
G1 X21.2836 Y-3.6583
G1 X21.5516 Y-3.6731
G1 X21.8196 Y-3.6880
G1 X22.0876 Y-3.7029
G1 X22.3556 Y-3.7178
G1 X22.6236 Y-3.7327
G1 X22.8917 Y-3.7475
G1 X23.1597 Y-3.7624
G1 X23.4278 Y-3.7773
G1 X23.6959 Y-3.7922
G1 X23.9640 Y-3.8071
G1 X24.2321 Y-3.8219
G1 X24.5002 Y-3.8368
G1 X24.7683 Y-3.8517
G1 X25.0364 Y-3.8666
G1 X25.3046 Y-3.8815
G1 X25.5727 Y-3.8963
G1 X25.8409 Y-3.9112
G1 X26.1090 Y-3.9261
G1 X26.3772 Y-3.9410
G1 X26.6454 Y-3.9559
G1 X26.9136 Y-3.9707
G1 X27.1819 Y-3.9856
G1 X27.4501 Y-4.0005
G1 X27.7183 Y-4.0154
G1 X27.9866 Y-4.0303
G1 X28.2548 Y-4.0451
G1 X28.5231 Y-4.0600
G1 X28.7914 Y-4.0749
G1 X29.0597 Y-4.0898
G1 X29.3280 Y-4.1047
G1 X29.5964 Y-4.1195
G1 X29.8647 Y-4.1344
(Safe converted infill-to-infill connector to fill-infill path 75)
G1 X29.7186 Y-4.7972
(fill-infill path 75, 229 points)
G1 X29.4497 Y-4.7823
G1 X29.1807 Y-4.7674
G1 X28.9118 Y-4.7525
G1 X28.6429 Y-4.7376
G1 X28.3739 Y-4.7228
G1 X28.1050 Y-4.7079
G1 X27.8362 Y-4.6930
G1 X27.5673 Y-4.6781
G1 X27.2984 Y-4.6632
G1 X27.0296 Y-4.6483
G1 X26.7607 Y-4.6334
G1 X26.4919 Y-4.6185
G1 X26.2231 Y-4.6036
G1 X25.9543 Y-4.5887
G1 X25.6855 Y-4.5738
G1 X25.4168 Y-4.5589
G1 X25.1480 Y-4.5440
G1 X24.8793 Y-4.5291
G1 X24.6105 Y-4.5142
G1 X24.3418 Y-4.4993
G1 X24.0731 Y-4.4844
G1 X23.8044 Y-4.4695
G1 X23.5357 Y-4.4546
G1 X23.2671 Y-4.4397
G1 X22.9984 Y-4.4248
G1 X22.7298 Y-4.4099
G1 X22.4612 Y-4.3950
G1 X22.1925 Y-4.3801
G1 X21.9239 Y-4.3652
G1 X21.6553 Y-4.3503
G1 X21.3868 Y-4.3354
G1 X21.1182 Y-4.3205
G1 X20.8496 Y-4.3056
G1 X20.5811 Y-4.2907
G1 X20.3125 Y-4.2759
G1 X20.0440 Y-4.2610
G1 X19.7755 Y-4.2461
G1 X19.5070 Y-4.2312
G1 X19.2385 Y-4.2163
G1 X18.9701 Y-4.2014
G1 X18.7016 Y-4.1865
G1 X18.4331 Y-4.1716
G1 X18.1647 Y-4.1567
G1 X17.8963 Y-4.1418
G1 X17.6279 Y-4.1269
G1 X17.3594 Y-4.1120
G1 X17.0910 Y-4.0971
G1 X16.8227 Y-4.0822
G1 X16.5543 Y-4.0673
G1 X16.2859 Y-4.0524
G1 X16.0176 Y-4.0375
G1 X15.7492 Y-4.0226
G1 X15.4809 Y-4.0077
G1 X15.2126 Y-3.9928
G1 X14.9443 Y-3.9779
G1 X14.6760 Y-3.9630
G1 X14.4077 Y-3.9481
G1 X14.1394 Y-3.9332
G1 X13.8712 Y-3.9183
G1 X13.6029 Y-3.9034
G1 X13.3347 Y-3.8885
G1 X13.0664 Y-3.8736
G1 X12.7982 Y-3.8587
G1 X12.5300 Y-3.8439
G1 X12.2618 Y-3.8290
G1 X11.9936 Y-3.8141
G1 X11.7254 Y-3.7992
G1 X11.4572 Y-3.7843
G1 X11.1891 Y-3.7694
G1 X10.9209 Y-3.7545
G1 X10.6528 Y-3.7396
G1 X10.3846 Y-3.7247
G1 X10.1165 Y-3.7098
G1 X9.8484 Y-3.6949
G1 X9.5803 Y-3.6800
G1 X9.3122 Y-3.6651
G1 X9.0441 Y-3.6502
G1 X8.7760 Y-3.6353
G1 X8.5080 Y-3.6204
G1 X8.2399 Y-3.6055
G1 X7.9719 Y-3.5906
G1 X7.7038 Y-3.5757
G1 X7.4358 Y-3.5608
G1 X7.1678 Y-3.5459
G1 X6.8998 Y-3.5310
G1 X6.6318 Y-3.5161
G1 X6.3638 Y-3.5012
G1 X6.0958 Y-3.4863
G1 X5.8278 Y-3.4714
G1 X5.5599 Y-3.4565
G1 X5.2919 Y-3.4416
G1 X5.0240 Y-3.4267
G1 X4.7560 Y-3.4119
G1 X4.4881 Y-3.3970
G1 X4.2202 Y-3.3821
G1 X3.9522 Y-3.3672
G1 X3.6843 Y-3.3523
G1 X3.4164 Y-3.3374
G1 X3.1486 Y-3.3225
G1 X2.8807 Y-3.3076
G1 X2.6128 Y-3.2927
G1 X2.3449 Y-3.2778
G1 X2.0771 Y-3.2629
G1 X1.8092 Y-3.2480
G1 X1.5414 Y-3.2331
G1 X1.2736 Y-3.2182
G1 X1.0057 Y-3.2033
G1 X0.7379 Y-3.1884
G1 X0.4701 Y-3.1735
G1 X0.2023 Y-3.1586
G1 X-0.0655 Y-3.1437
G1 X-0.3333 Y-3.1288
G1 X-0.6010 Y-3.1139
G1 X-0.8688 Y-3.0990
G1 X-1.1366 Y-3.0841
G1 X-1.4043 Y-3.0692
G1 X-1.6721 Y-3.0543
G1 X-1.9398 Y-3.0394
G1 X-2.2075 Y-3.0245
G1 X-2.4753 Y-3.0096
G1 X-2.7430 Y-2.9947
G1 X-3.0107 Y-2.9799
G1 X-3.2784 Y-2.9650
G1 X-3.5461 Y-2.9501
G1 X-3.8138 Y-2.9352
G1 X-4.0815 Y-2.9203
G1 X-4.3491 Y-2.9054
G1 X-4.6168 Y-2.8905
G1 X-4.8845 Y-2.8756
G1 X-5.1521 Y-2.8607
G1 X-5.4198 Y-2.8458
G1 X-5.6874 Y-2.8309
G1 X-5.9551 Y-2.8160
G1 X-6.2227 Y-2.8011
G1 X-6.4903 Y-2.7862
G1 X-6.7579 Y-2.7713
G1 X-7.0256 Y-2.7564
G1 X-7.2932 Y-2.7415
G1 X-7.5608 Y-2.7266
G1 X-7.8283 Y-2.7117
G1 X-8.0959 Y-2.6968
G1 X-8.3635 Y-2.6819
G1 X-8.6311 Y-2.6670
G1 X-8.8987 Y-2.6521
G1 X-9.1662 Y-2.6372
G1 X-9.4338 Y-2.6223
G1 X-9.7013 Y-2.6074
G1 X-9.9689 Y-2.5925
G1 X-10.2364 Y-2.5776
G1 X-10.5040 Y-2.5627
G1 X-10.7715 Y-2.5479
G1 X-11.0390 Y-2.5330
G1 X-11.3065 Y-2.5181
G1 X-11.5740 Y-2.5032
G1 X-11.8415 Y-2.4883
G1 X-12.1091 Y-2.4734
G1 X-12.3765 Y-2.4585
G1 X-12.6440 Y-2.4436
G1 X-12.9115 Y-2.4287
G1 X-13.1790 Y-2.4138
G1 X-13.4465 Y-2.3989
G1 X-13.7140 Y-2.3840
G1 X-13.9814 Y-2.3691
G1 X-14.2489 Y-2.3542
G1 X-14.5163 Y-2.3393
G1 X-14.7838 Y-2.3244
G1 X-15.0512 Y-2.3095
G1 X-15.3187 Y-2.2946
G1 X-15.5861 Y-2.2797
G1 X-15.8536 Y-2.2648
G1 X-16.1210 Y-2.2499
G1 X-16.3884 Y-2.2350
G1 X-16.6558 Y-2.2201
G1 X-16.9233 Y-2.2052
G1 X-17.1907 Y-2.1903
G1 X-17.4581 Y-2.1754
G1 X-17.7255 Y-2.1605
G1 X-17.9929 Y-2.1456
G1 X-18.2603 Y-2.1307
G1 X-18.5277 Y-2.1159
G1 X-18.7951 Y-2.1010
G1 X-19.0625 Y-2.0861
G1 X-19.3298 Y-2.0712
G1 X-19.5972 Y-2.0563
G1 X-19.8646 Y-2.0414
G1 X-20.1320 Y-2.0265
G1 X-20.3993 Y-2.0116
G1 X-20.6667 Y-1.9967
G1 X-20.9340 Y-1.9818
G1 X-21.2014 Y-1.9669
G1 X-21.4688 Y-1.9520
G1 X-21.7361 Y-1.9371
G1 X-22.0035 Y-1.9222
G1 X-22.2708 Y-1.9073
G1 X-22.5381 Y-1.8924
G1 X-22.8055 Y-1.8775
G1 X-23.0728 Y-1.8626
G1 X-23.3401 Y-1.8477
G1 X-23.6075 Y-1.8328
G1 X-23.8748 Y-1.8179
G1 X-24.1421 Y-1.8030
G1 X-24.4094 Y-1.7881
G1 X-24.6768 Y-1.7732
G1 X-24.9441 Y-1.7583
G1 X-25.2114 Y-1.7434
G1 X-25.4787 Y-1.7285
G1 X-25.7460 Y-1.7136
G1 X-26.0133 Y-1.6987
G1 X-26.2806 Y-1.6838
G1 X-26.5479 Y-1.6690
G1 X-26.8152 Y-1.6541
G1 X-27.0825 Y-1.6392
G1 X-27.3498 Y-1.6243
G1 X-27.6171 Y-1.6094
G1 X-27.8844 Y-1.5945
G1 X-28.1517 Y-1.5796
G1 X-28.4189 Y-1.5647
G1 X-28.6862 Y-1.5498
G1 X-28.9535 Y-1.5349
G1 X-29.2208 Y-1.5200
G1 X-29.4881 Y-1.5051
G1 X-29.7553 Y-1.4902
G1 X-30.0226 Y-1.4753
G1 X-30.2899 Y-1.4604
G1 X-30.5572 Y-1.4455
G1 X-30.8244 Y-1.4306
G1 X-31.0917 Y-1.4157
G1 X-31.3590 Y-1.4008
(Safe converted infill-to-infill connector to fill-infill path 76)
G1 X-31.6633 Y-2.0569
(fill-infill path 76, 232 points)
G1 X-31.3958 Y-2.0718
G1 X-31.1283 Y-2.0867
G1 X-30.8607 Y-2.1016
G1 X-30.5932 Y-2.1165
G1 X-30.3257 Y-2.1315
G1 X-30.0582 Y-2.1464
G1 X-29.7906 Y-2.1613
G1 X-29.5231 Y-2.1762
G1 X-29.2556 Y-2.1911
G1 X-28.9880 Y-2.2060
G1 X-28.7205 Y-2.2209
G1 X-28.4529 Y-2.2358
G1 X-28.1854 Y-2.2507
G1 X-27.9178 Y-2.2656
G1 X-27.6503 Y-2.2806
G1 X-27.3827 Y-2.2955
G1 X-27.1151 Y-2.3104
G1 X-26.8476 Y-2.3253
G1 X-26.5800 Y-2.3402
G1 X-26.3124 Y-2.3551
G1 X-26.0448 Y-2.3700
G1 X-25.7773 Y-2.3849
G1 X-25.5097 Y-2.3998
G1 X-25.2421 Y-2.4147
G1 X-24.9745 Y-2.4297
G1 X-24.7069 Y-2.4446
G1 X-24.4393 Y-2.4595
G1 X-24.1717 Y-2.4744
G1 X-23.9040 Y-2.4893
G1 X-23.6364 Y-2.5042
G1 X-23.3688 Y-2.5191
G1 X-23.1012 Y-2.5340
G1 X-22.8335 Y-2.5489
G1 X-22.5659 Y-2.5639
G1 X-22.2983 Y-2.5788
G1 X-22.0306 Y-2.5937
G1 X-21.7630 Y-2.6086
G1 X-21.4953 Y-2.6235
G1 X-21.2277 Y-2.6384
G1 X-20.9600 Y-2.6533
G1 X-20.6923 Y-2.6682
G1 X-20.4246 Y-2.6831
G1 X-20.1570 Y-2.6980
G1 X-19.8893 Y-2.7130
G1 X-19.6216 Y-2.7279
G1 X-19.3539 Y-2.7428
G1 X-19.0862 Y-2.7577
G1 X-18.8185 Y-2.7726
G1 X-18.5508 Y-2.7875
G1 X-18.2830 Y-2.8024
G1 X-18.0153 Y-2.8173
G1 X-17.7476 Y-2.8322
G1 X-17.4798 Y-2.8471
G1 X-17.2121 Y-2.8621
G1 X-16.9444 Y-2.8770
G1 X-16.6766 Y-2.8919
G1 X-16.4088 Y-2.9068
G1 X-16.1411 Y-2.9217
G1 X-15.8733 Y-2.9366
G1 X-15.6055 Y-2.9515
G1 X-15.3377 Y-2.9664
G1 X-15.0700 Y-2.9813
G1 X-14.8022 Y-2.9963
G1 X-14.5344 Y-3.0112
G1 X-14.2666 Y-3.0261
G1 X-13.9987 Y-3.0410
G1 X-13.7309 Y-3.0559
G1 X-13.4631 Y-3.0708
G1 X-13.1953 Y-3.0857
G1 X-12.9274 Y-3.1006
G1 X-12.6596 Y-3.1155
G1 X-12.3917 Y-3.1304
G1 X-12.1239 Y-3.1454
G1 X-11.8560 Y-3.1603
G1 X-11.5881 Y-3.1752
G1 X-11.3202 Y-3.1901
G1 X-11.0523 Y-3.2050
G1 X-10.7844 Y-3.2199
G1 X-10.5165 Y-3.2348
G1 X-10.2486 Y-3.2497
G1 X-9.9807 Y-3.2646
G1 X-9.7128 Y-3.2795
G1 X-9.4449 Y-3.2945
G1 X-9.1769 Y-3.3094
G1 X-8.9090 Y-3.3243
G1 X-8.6410 Y-3.3392
G1 X-8.3731 Y-3.3541
G1 X-8.1051 Y-3.3690
G1 X-7.8371 Y-3.3839
G1 X-7.5691 Y-3.3988
G1 X-7.3011 Y-3.4137
G1 X-7.0331 Y-3.4287
G1 X-6.7651 Y-3.4436
G1 X-6.4971 Y-3.4585
G1 X-6.2291 Y-3.4734
G1 X-5.9610 Y-3.4883
G1 X-5.6930 Y-3.5032
G1 X-5.4250 Y-3.5181
G1 X-5.1569 Y-3.5330
G1 X-4.8888 Y-3.5479
G1 X-4.6208 Y-3.5628
G1 X-4.3527 Y-3.5778
G1 X-4.0846 Y-3.5927
G1 X-3.8165 Y-3.6076
G1 X-3.5484 Y-3.6225
G1 X-3.2803 Y-3.6374
G1 X-3.0121 Y-3.6523
G1 X-2.7440 Y-3.6672
G1 X-2.4759 Y-3.6821
G1 X-2.2077 Y-3.6970
G1 X-1.9396 Y-3.7119
G1 X-1.6714 Y-3.7269
G1 X-1.4032 Y-3.7418
G1 X-1.1350 Y-3.7567
G1 X-0.8668 Y-3.7716
G1 X-0.5986 Y-3.7865
G1 X-0.3304 Y-3.8014
G1 X-0.0622 Y-3.8163
G1 X0.2060 Y-3.8312
G1 X0.4743 Y-3.8461
G1 X0.7425 Y-3.8611
G1 X1.0108 Y-3.8760
G1 X1.2791 Y-3.8909
G1 X1.5473 Y-3.9058
G1 X1.8156 Y-3.9207
G1 X2.0839 Y-3.9356
G1 X2.3522 Y-3.9505
G1 X2.6206 Y-3.9654
G1 X2.8889 Y-3.9803
G1 X3.1572 Y-3.9952
G1 X3.4256 Y-4.0102
G1 X3.6939 Y-4.0251
G1 X3.9623 Y-4.0400
G1 X4.2307 Y-4.0549
G1 X4.4991 Y-4.0698
G1 X4.7675 Y-4.0847
G1 X5.0359 Y-4.0996
G1 X5.3043 Y-4.1145
G1 X5.5727 Y-4.1294
G1 X5.8412 Y-4.1444
G1 X6.1096 Y-4.1593
G1 X6.3781 Y-4.1742
G1 X6.6466 Y-4.1891
G1 X6.9150 Y-4.2040
G1 X7.1835 Y-4.2189
G1 X7.4520 Y-4.2338
G1 X7.7206 Y-4.2487
G1 X7.9891 Y-4.2636
G1 X8.2576 Y-4.2785
G1 X8.5262 Y-4.2935
G1 X8.7947 Y-4.3084
G1 X9.0633 Y-4.3233
G1 X9.3319 Y-4.3382
G1 X9.6005 Y-4.3531
G1 X9.8691 Y-4.3680
G1 X10.1377 Y-4.3829
G1 X10.4063 Y-4.3978
G1 X10.6750 Y-4.4127
G1 X10.9436 Y-4.4276
G1 X11.2123 Y-4.4426
G1 X11.4809 Y-4.4575
G1 X11.7496 Y-4.4724
G1 X12.0183 Y-4.4873
G1 X12.2870 Y-4.5022
G1 X12.5558 Y-4.5171
G1 X12.8245 Y-4.5320
G1 X13.0932 Y-4.5469
G1 X13.3620 Y-4.5618
G1 X13.6308 Y-4.5768
G1 X13.8995 Y-4.5917
G1 X14.1683 Y-4.6066
G1 X14.4371 Y-4.6215
G1 X14.7059 Y-4.6364
G1 X14.9748 Y-4.6513
G1 X15.2436 Y-4.6662
G1 X15.5125 Y-4.6811
G1 X15.7813 Y-4.6960
G1 X16.0502 Y-4.7109
G1 X16.3191 Y-4.7259
G1 X16.5880 Y-4.7408
G1 X16.8569 Y-4.7557
G1 X17.1259 Y-4.7706
G1 X17.3948 Y-4.7855
G1 X17.6638 Y-4.8004
G1 X17.9327 Y-4.8153
G1 X18.2017 Y-4.8302
G1 X18.4707 Y-4.8451
G1 X18.7397 Y-4.8600
G1 X19.0087 Y-4.8750
G1 X19.2778 Y-4.8899
G1 X19.5468 Y-4.9048
G1 X19.8159 Y-4.9197
G1 X20.0850 Y-4.9346
G1 X20.3540 Y-4.9495
G1 X20.6231 Y-4.9644
G1 X20.8923 Y-4.9793
G1 X21.1614 Y-4.9942
G1 X21.4305 Y-5.0092
G1 X21.6997 Y-5.0241
G1 X21.9689 Y-5.0390
G1 X22.2380 Y-5.0539
G1 X22.5072 Y-5.0688
G1 X22.7764 Y-5.0837
G1 X23.0457 Y-5.0986
G1 X23.3149 Y-5.1135
G1 X23.5842 Y-5.1284
G1 X23.8534 Y-5.1433
G1 X24.1227 Y-5.1583
G1 X24.3920 Y-5.1732
G1 X24.6613 Y-5.1881
G1 X24.9306 Y-5.2030
G1 X25.2000 Y-5.2179
G1 X25.4693 Y-5.2328
G1 X25.7387 Y-5.2477
G1 X26.0081 Y-5.2626
G1 X26.2775 Y-5.2775
G1 X26.5469 Y-5.2924
G1 X26.8163 Y-5.3074
G1 X27.0858 Y-5.3223
G1 X27.3552 Y-5.3372
G1 X27.6247 Y-5.3521
G1 X27.8942 Y-5.3670
G1 X28.1637 Y-5.3819
G1 X28.4332 Y-5.3968
G1 X28.7027 Y-5.4117
G1 X28.9723 Y-5.4266
G1 X29.2419 Y-5.4416
G1 X29.5114 Y-5.4565
G1 X29.7810 Y-5.4714
G1 X30.0506 Y-5.4863
G1 X30.3203 Y-5.5012
(Safe converted infill-to-infill connector to fill-infill path 77)
G1 X30.1857 Y-6.1642
(fill-infill path 77, 230 points)
G1 X29.9153 Y-6.1492
G1 X29.6450 Y-6.1343
G1 X29.3747 Y-6.1194
G1 X29.1044 Y-6.1045
G1 X28.8341 Y-6.0895
G1 X28.5638 Y-6.0746
G1 X28.2936 Y-6.0597
G1 X28.0234 Y-6.0448
G1 X27.7532 Y-6.0298
G1 X27.4830 Y-6.0149
G1 X27.2128 Y-6.0000
G1 X26.9426 Y-5.9850
G1 X26.6725 Y-5.9701
G1 X26.4023 Y-5.9552
G1 X26.1322 Y-5.9403
G1 X25.8621 Y-5.9253
G1 X25.5920 Y-5.9104
G1 X25.3220 Y-5.8955
G1 X25.0519 Y-5.8805
G1 X24.7819 Y-5.8656
G1 X24.5119 Y-5.8507
G1 X24.2419 Y-5.8358
G1 X23.9719 Y-5.8208
G1 X23.7019 Y-5.8059
G1 X23.4320 Y-5.7910
G1 X23.1620 Y-5.7760
G1 X22.8921 Y-5.7611
G1 X22.6222 Y-5.7462
G1 X22.3523 Y-5.7313
G1 X22.0824 Y-5.7163
G1 X21.8126 Y-5.7014
G1 X21.5427 Y-5.6865
G1 X21.2729 Y-5.6716
G1 X21.0031 Y-5.6566
G1 X20.7333 Y-5.6417
G1 X20.4635 Y-5.6268
G1 X20.1938 Y-5.6118
G1 X19.9240 Y-5.5969
G1 X19.6543 Y-5.5820
G1 X19.3846 Y-5.5671
G1 X19.1148 Y-5.5521
G1 X18.8452 Y-5.5372
G1 X18.5755 Y-5.5223
G1 X18.3058 Y-5.5073
G1 X18.0362 Y-5.4924
G1 X17.7665 Y-5.4775
G1 X17.4969 Y-5.4626
G1 X17.2273 Y-5.4476
G1 X16.9577 Y-5.4327
G1 X16.6882 Y-5.4178
G1 X16.4186 Y-5.4028
G1 X16.1491 Y-5.3879
G1 X15.8795 Y-5.3730
G1 X15.6100 Y-5.3581
G1 X15.3405 Y-5.3431
G1 X15.0710 Y-5.3282
G1 X14.8016 Y-5.3133
G1 X14.5321 Y-5.2984
G1 X14.2627 Y-5.2834
G1 X13.9932 Y-5.2685
G1 X13.7238 Y-5.2536
G1 X13.4544 Y-5.2386
G1 X13.1850 Y-5.2237
G1 X12.9156 Y-5.2088
G1 X12.6463 Y-5.1939
G1 X12.3769 Y-5.1789
G1 X12.1076 Y-5.1640
G1 X11.8383 Y-5.1491
G1 X11.5690 Y-5.1341
G1 X11.2997 Y-5.1192
G1 X11.0304 Y-5.1043
G1 X10.7611 Y-5.0894
G1 X10.4919 Y-5.0744
G1 X10.2226 Y-5.0595
G1 X9.9534 Y-5.0446
G1 X9.6842 Y-5.0296
G1 X9.4150 Y-5.0147
G1 X9.1458 Y-4.9998
G1 X8.8766 Y-4.9849
G1 X8.6074 Y-4.9699
G1 X8.3383 Y-4.9550
G1 X8.0692 Y-4.9401
G1 X7.8000 Y-4.9252
G1 X7.5309 Y-4.9102
G1 X7.2618 Y-4.8953
G1 X6.9927 Y-4.8804
G1 X6.7237 Y-4.8654
G1 X6.4546 Y-4.8505
G1 X6.1855 Y-4.8356
G1 X5.9165 Y-4.8207
G1 X5.6475 Y-4.8057
G1 X5.3785 Y-4.7908
G1 X5.1095 Y-4.7759
G1 X4.8405 Y-4.7609
G1 X4.5715 Y-4.7460
G1 X4.3025 Y-4.7311
G1 X4.0336 Y-4.7162
G1 X3.7646 Y-4.7012
G1 X3.4957 Y-4.6863
G1 X3.2268 Y-4.6714
G1 X2.9579 Y-4.6564
G1 X2.6890 Y-4.6415
G1 X2.4201 Y-4.6266
G1 X2.1512 Y-4.6117
G1 X1.8824 Y-4.5967
G1 X1.6135 Y-4.5818
G1 X1.3447 Y-4.5669
G1 X1.0759 Y-4.5520
G1 X0.8070 Y-4.5370
G1 X0.5382 Y-4.5221
G1 X0.2694 Y-4.5072
G1 X0.0007 Y-4.4922
G1 X-0.2681 Y-4.4773
G1 X-0.5369 Y-4.4624
G1 X-0.8056 Y-4.4475
G1 X-1.0744 Y-4.4325
G1 X-1.3431 Y-4.4176
G1 X-1.6118 Y-4.4027
G1 X-1.8805 Y-4.3877
G1 X-2.1492 Y-4.3728
G1 X-2.4179 Y-4.3579
G1 X-2.6866 Y-4.3430
G1 X-2.9552 Y-4.3280
G1 X-3.2239 Y-4.3131
G1 X-3.4925 Y-4.2982
G1 X-3.7612 Y-4.2832
G1 X-4.0298 Y-4.2683
G1 X-4.2984 Y-4.2534
G1 X-4.5670 Y-4.2385
G1 X-4.8356 Y-4.2235
G1 X-5.1042 Y-4.2086
G1 X-5.3727 Y-4.1937
G1 X-5.6413 Y-4.1788
G1 X-5.9099 Y-4.1638
G1 X-6.1784 Y-4.1489
G1 X-6.4469 Y-4.1340
G1 X-6.7155 Y-4.1190
G1 X-6.9840 Y-4.1041
G1 X-7.2525 Y-4.0892
G1 X-7.5210 Y-4.0743
G1 X-7.7895 Y-4.0593
G1 X-8.0579 Y-4.0444
G1 X-8.3264 Y-4.0295
G1 X-8.5949 Y-4.0145
G1 X-8.8633 Y-3.9996
G1 X-9.1318 Y-3.9847
G1 X-9.4002 Y-3.9698
G1 X-9.6686 Y-3.9548
G1 X-9.9370 Y-3.9399
G1 X-10.2054 Y-3.9250
G1 X-10.4738 Y-3.9100
G1 X-10.7422 Y-3.8951
G1 X-11.0106 Y-3.8802
G1 X-11.2789 Y-3.8653
G1 X-11.5473 Y-3.8503
G1 X-11.8156 Y-3.8354
G1 X-12.0840 Y-3.8205
G1 X-12.3523 Y-3.8056
G1 X-12.6206 Y-3.7906
G1 X-12.8890 Y-3.7757
G1 X-13.1573 Y-3.7608
G1 X-13.4256 Y-3.7458
G1 X-13.6939 Y-3.7309
G1 X-13.9621 Y-3.7160
G1 X-14.2304 Y-3.7011
G1 X-14.4987 Y-3.6861
G1 X-14.7669 Y-3.6712
G1 X-15.0352 Y-3.6563
G1 X-15.3034 Y-3.6413
G1 X-15.5717 Y-3.6264
G1 X-15.8399 Y-3.6115
G1 X-16.1081 Y-3.5966
G1 X-16.3763 Y-3.5816
G1 X-16.6445 Y-3.5667
