(Generated for golf ball plotter)
(Units are angular degrees. X=-180..180 ball rotation, Y=-45..45 arm tilt)
$X
G21
G90
M3 S575
G4 P0.030
M3 S700
G4 P0.060
(fill-infill path 1, 18 points)
G1 X0.1353 Y0.3633 F1200.000
G1 X0.1711 Y-0.1397 F1200.000
G1 X0.3531 Y-0.6595 F1200.000
G1 X0.7093 Y-1.1551 F1200.000
G1 X1.0794 Y-1.4554 F1200.000
G1 X0.4755 Y-1.6074 F1200.000
G1 X-0.0801 Y-1.9583 F1200.000
G1 X-0.4580 Y-2.3977 F1200.000
G1 X-0.6547 Y-2.7862 F1200.000
G1 X-0.7653 Y-3.1635 F1200.000
G1 X-0.7433 Y-2.5782 F1200.000
G1 X-0.8837 Y-2.0162 F1200.000
G1 X-1.2102 Y-1.4826 F1200.000
G1 X-1.6775 Y-1.0690 F1200.000
G1 X-1.0560 Y-0.9243 F1200.000
G1 X-0.5510 Y-0.6195 F1200.000
G1 X-0.1081 Y-0.1456 F1200.000
M3 S575
G4 P0.030
(Travel to fill-infill path 2)
G1 X-0.5466 Y-0.0327 F3000.000
M3 S700
G4 P0.060
(fill-infill path 2, 67 points)
G1 X-0.3153 Y0.3520 F1200.000
G1 X2.0370 Y9.4727 F1200.000
G1 X2.9838 Y9.4727 F1200.000
G1 X2.7834 Y9.2373 F1200.000
G1 X2.6339 Y8.9685 F1200.000
G1 X2.4180 Y8.1886 F1200.000
G1 X0.5815 Y0.6091 F1200.000
G1 X0.5527 Y0.2309 F1200.000
G1 X0.6180 Y-0.1981 F1200.000
G1 X0.7988 Y-0.5925 F1200.000
G1 X1.0127 Y-0.8647 F1200.000
G1 X1.2523 Y-1.0691 F1200.000
G1 X1.6761 Y-1.2755 F1200.000
G1 X6.7742 Y-2.1554 F1200.000
G1 X7.3863 Y-2.0236 F1200.000
G1 X7.8876 Y-1.6817 F1200.000
G1 X8.1045 Y-1.4126 F1200.000
G1 X8.2467 Y-1.1404 F1200.000
G1 X8.3328 Y-0.8457 F1200.000
G1 X8.3595 Y-0.5398 F1200.000
G1 X8.3025 Y-0.1193 F1200.000
G1 X6.1680 Y8.6838 F1200.000
G1 X6.0100 Y9.1036 F1200.000
G1 X5.7273 Y9.4727 F1200.000
G1 X6.6693 Y9.4727 F1200.000
G1 X11.5135 Y-9.4700 F1200.000
G1 X10.5747 Y-9.4712 F1200.000
G1 X9.2728 Y-4.1383 F1200.000
G1 X9.0627 Y-3.7201 F1200.000
G1 X8.6972 Y-3.3331 F1200.000
G1 X8.3027 Y-3.1103 F1200.000
G1 X7.8947 Y-2.9933 F1200.000
G1 X1.2824 Y-1.8677 F1200.000
G1 X0.7954 Y-1.9368 F1200.000
G1 X0.4932 Y-2.0662 F1200.000
G1 X0.0845 Y-2.3813 F1200.000
G1 X-0.1780 Y-2.7550 F1200.000
G1 X-0.3564 Y-3.2585 F1200.000
G1 X-1.8679 Y-9.4727 F1200.000
G1 X-2.8086 Y-9.4727 F1200.000
G1 X-1.1796 Y-3.0961 F1200.000
G1 X-1.1837 Y-2.4683 F1200.000
G1 X-1.3369 Y-2.0384 F1200.000
G1 X-1.7488 Y-1.5336 F1200.000
G1 X-2.2785 Y-1.2463 F1200.000
G1 X-7.6255 Y-0.3061 F1200.000
G1 X-7.9199 Y-0.3250 F1200.000
G1 X-8.2464 Y-0.4104 F1200.000
G1 X-8.6556 Y-0.6361 F1200.000
G1 X-9.0072 Y-1.0118 F1200.000
G1 X-9.2203 Y-1.4401 F1200.000
G1 X-9.2937 Y-1.9128 F1200.000
G1 X-9.2937 Y-9.4727 F1200.000
G1 X-10.2383 Y-9.4727 F1200.000
G1 X-10.2383 Y9.4778 F1200.000
G1 X-9.2937 Y9.4778 F1200.000
G1 X-9.2937 Y1.9796 F1200.000
G1 X-9.2146 Y1.4893 F1200.000
G1 X-8.9238 Y0.9614 F1200.000
G1 X-8.5493 Y0.6243 F1200.000
G1 X-8.2777 Y0.4757 F1200.000
G1 X-7.9821 Y0.3837 F1200.000
G1 X-1.8233 Y-0.6556 F1200.000
G1 X-1.3634 Y-0.5887 F1200.000
G1 X-0.9436 Y-0.3894 F1200.000
G1 X-0.5466 Y-0.0327 F1200.000
M3 S575
G4 P0.030
(Travel to fill-infill path 3)
G1 X-0.8716 Y0.2333 F3000.000
M3 S700
G4 P0.060
(fill-infill path 3, 43 points)
G1 X-0.6651 Y0.6175 F1200.000
G1 X1.7129 Y9.8927 F1200.000
G1 X6.9971 Y9.8927 F1200.000
G1 X12.0552 Y-9.8893 F1200.000
G1 X10.2442 Y-9.8916 F1200.000
G1 X8.8735 Y-4.2684 F1200.000
G1 X8.7199 Y-3.9628 F1200.000
G1 X8.4397 Y-3.6649 F1200.000
G1 X8.1514 Y-3.5021 F1200.000
G1 X7.8048 Y-3.4036 F1200.000
G1 X1.2750 Y-2.2877 F1200.000
G1 X0.9191 Y-2.3381 F1200.000
G1 X0.5966 Y-2.4969 F1200.000
G1 X0.3164 Y-2.7550 F1200.000
G1 X0.1269 Y-3.0940 F1200.000
G1 X-1.5371 Y-9.8927 F1200.000
G1 X-3.3463 Y-9.8927 F1200.000
G1 X-1.5927 Y-3.0202 F1200.000
G1 X-1.5793 Y-2.6603 F1200.000
G1 X-1.6601 Y-2.3367 F1200.000
G1 X-1.8311 Y-2.0503 F1200.000
G1 X-2.0166 Y-1.8572 F1200.000
G1 X-2.2997 Y-1.6853 F1200.000
G1 X-2.5958 Y-1.5948 F1200.000
G1 X-7.6383 Y-0.7259 F1200.000
G1 X-8.1010 Y-0.8044 F1200.000
G1 X-8.4870 Y-1.0433 F1200.000
G1 X-8.7269 Y-1.3532 F1200.000
G1 X-8.8677 Y-1.7960 F1200.000
G1 X-8.8737 Y-9.8927 F1200.000
G1 X-10.6583 Y-9.8927 F1200.000
G1 X-10.6583 Y9.8978 F1200.000
G1 X-8.8737 Y9.8978 F1200.000
G1 X-8.8737 Y1.9796 F1200.000
G1 X-8.8159 Y1.6213 F1200.000
G1 X-8.6008 Y1.2298 F1200.000
G1 X-8.3122 Y0.9709 F1200.000
G1 X-7.8977 Y0.7951 F1200.000
G1 X-1.8211 Y-0.2356 F1200.000
G1 X-1.4850 Y-0.1867 F1200.000
G1 X-1.1782 Y-0.0411 F1200.000
G1 X-0.8716 Y0.2333 F1200.000
M3 S575
G4 P0.030
(Travel to fill-infill path 4)
G1 X-1.1967 Y0.4993 F3000.000
M3 S700
G4 P0.060
(fill-infill path 4, 40 points)
G1 X-1.0662 Y0.7419 F1200.000
G1 X1.3852 Y10.3127 F1200.000
G1 X7.3189 Y10.3127 F1200.000
G1 X12.5974 Y-10.3087 F1200.000
G1 X9.9166 Y-10.3120 F1200.000
G1 X8.4741 Y-4.3985 F1200.000
G1 X8.3325 Y-4.1487 F1200.000
G1 X8.1249 Y-3.9566 F1200.000
G1 X7.7149 Y-3.8139 F1200.000
G1 X1.2677 Y-2.7076 F1200.000
G1 X1.0429 Y-2.7395 F1200.000
G1 X0.8002 Y-2.8673 F1200.000
G1 X0.6073 Y-3.0706 F1200.000
G1 X0.4967 Y-3.3093 F1200.000
G1 X-1.2066 Y-10.3127 F1200.000
G1 X-3.8885 Y-10.3127 F1200.000
G1 X-2.0205 Y-3.0080 F1200.000
G1 X-1.9973 Y-2.7013 F1200.000
G1 X-2.0483 Y-2.4969 F1200.000
G1 X-2.2844 Y-2.1807 F1200.000
G1 X-2.6858 Y-2.0051 F1200.000
G1 X-7.6512 Y-1.1457 F1200.000
G1 X-7.9555 Y-1.1984 F1200.000
G1 X-8.1993 Y-1.3493 F1200.000
G1 X-8.3609 Y-1.5594 F1200.000
G1 X-8.4499 Y-1.8391 F1200.000
G1 X-8.4537 Y-10.3127 F1200.000
G1 X-11.0783 Y-10.3127 F1200.000
G1 X-11.0783 Y10.3178 F1200.000
G1 X-8.4537 Y10.3178 F1200.000
G1 X-8.4537 Y1.9796 F1200.000
G1 X-8.3892 Y1.6819 F1200.000
G1 X-8.2347 Y1.4509 F1200.000
G1 X-8.0141 Y1.2802 F1200.000
G1 X-7.8133 Y1.2066 F1200.000
G1 X-1.8189 Y0.1844 F1200.000
G1 X-1.6067 Y0.2153 F1200.000
G1 X-1.4129 Y0.3073 F1200.000
G1 X-1.1967 Y0.4993 F1200.000
M3 S575
G4 P0.030
(Travel to fill-infill path 5)
G1 X-0.0667 Y-0.7503 F3000.000
M3 S700
G4 P0.060
(fill-infill path 5, 7 points)
G1 X0.2417 Y-1.2550 F1200.000
G1 X-0.1701 Y-1.4959 F1200.000
G1 X-0.5217 Y-1.8001 F1200.000
G1 X-0.8334 Y-1.2829 F1200.000
G1 X-0.4743 Y-1.0860 F1200.000
G1 X-0.0667 Y-0.7503 F1200.000
M3 S575
G4 P0.030
(Travel to fill-infill path 6)
G1 X1.0204 Y-0.0778 F3000.000
M3 S700
G4 P0.060
(fill-infill path 6, 23 points)
G1 X1.2407 Y-0.4871 F1200.000
G1 X1.5891 Y-0.7843 F1200.000
G1 X2.0152 Y-0.9283 F1200.000
G1 X6.7650 Y-1.7355 F1200.000
G1 X7.1170 Y-1.6759 F1200.000
G1 X7.4171 Y-1.5303 F1200.000
G1 X7.6870 Y-1.2732 F1200.000
G1 X7.8571 Y-0.9835 F1200.000
G1 X7.9353 Y-0.6568 F1200.000
G1 X7.8933 Y-0.2136 F1200.000
G1 X5.7292 Y8.6997 F1200.000
G1 X5.5848 Y8.9939 F1200.000
G1 X5.4443 Y9.1619 F1200.000
G1 X5.0148 Y9.4659 F1200.000
G1 X4.5833 Y9.5513 F1200.000
G1 X3.8087 Y9.5053 F1200.000
G1 X3.6059 Y9.4236 F1200.000
G1 X3.3400 Y9.2327 F1200.000
G1 X3.0193 Y8.8015 F1200.000
G1 X1.0223 Y0.6497 F1200.000
G1 X0.9721 Y0.2941 F1200.000
G1 X1.0204 Y-0.0778 F1200.000
M3 S575
G4 P0.030
(Travel to fill-infill path 7)
G1 X1.4449 Y-0.0208 F3000.000
M3 S700
G4 P0.060
(fill-infill path 7, 20 points)
G1 X1.6195 Y-0.2838 F1200.000
G1 X1.8574 Y-0.4483 F1200.000
G1 X2.1051 Y-0.5180 F1200.000
G1 X6.6892 Y-1.3140 F1200.000
G1 X6.9909 Y-1.2753 F1200.000
G1 X7.1804 Y-1.1833 F1200.000
G1 X7.3601 Y-1.0096 F1200.000
G1 X7.4675 Y-0.8266 F1200.000
G1 X7.5196 Y-0.5494 F1200.000
G1 X7.4840 Y-0.3079 F1200.000
G1 X5.3475 Y8.5040 F1200.000
G1 X5.1964 Y8.8118 F1200.000
G1 X4.8553 Y9.0773 F1200.000
G1 X4.5827 Y9.1313 F1200.000
G1 X3.9275 Y9.1025 F1200.000
G1 X3.6315 Y8.9303 F1200.000
G1 X3.4047 Y8.6346 F1200.000
G1 X1.3920 Y0.2989 F1200.000
G1 X1.4449 Y-0.0208 F1200.000
M3 S575
G4 P0.030
(Travel to junction-centerline path 8)
G1 X3.7395 Y-2.0304 F3000.000
M3 S700
G4 P0.060
(junction-centerline path 8, 2 points)
G1 X4.5681 Y-2.0304 F1200.000
M3 S575
G4 P0.030
(Travel to fill-infill path 9)
G1 X7.3685 Y-2.4773 F3000.000
M3 S700
G4 P0.060
(fill-infill path 9, 14 points)
G1 X7.7252 Y-2.3254 F1200.000
G1 X8.0449 Y-2.1074 F1200.000
G1 X8.4558 Y-1.6428 F1200.000
G1 X8.7001 Y-1.1130 F1200.000
G1 X8.7749 Y-0.4594 F1200.000
G1 X10.9741 Y-9.0507 F1200.000
G1 X10.8982 Y-9.0255 F1200.000
G1 X9.7241 Y-4.2000 F1200.000
G1 X9.5120 Y-3.6451 F1200.000
G1 X9.1007 Y-3.1265 F1200.000
G1 X8.6298 Y-2.7963 F1200.000
G1 X8.0887 Y-2.6039 F1200.000
G1 X7.3685 Y-2.4773 F1200.000
M3 S575
G4 P0.030
(Travel to fill-infill path 10)
G1 X8.4748 Y-2.2814 F3000.000
M3 S700
G4 P0.060
(fill-infill path 10, 4 points)
G1 X8.7314 Y-1.9768 F1200.000
G1 X8.8480 Y-2.4378 F1200.000
G1 X8.4748 Y-2.2814 F1200.000
M3 S575
G4 P0.030
(Travel to fill-infill path 11)
G1 X-0.8765 Y-3.6219 F3000.000
M3 S700
G4 P0.060
(fill-infill path 11, 5 points)
G1 X-2.1648 Y-8.9049 F1200.000
G1 X-2.1957 Y-9.0527 F1200.000
G1 X-2.2652 Y-9.0527 F1200.000
G1 X-0.8765 Y-3.6219 F1200.000
M3 S575
G4 P0.030
(Travel to junction-centerline path 12)
G1 X-4.1168 Y-0.5241 F3000.000
M3 S700
G4 P0.060
(junction-centerline path 12, 2 points)
G1 X-4.9303 Y-0.5241 F1200.000
M3 S575
G4 P0.030
(Travel to fill-infill path 13)
G1 X-8.2637 Y0.0238 F3000.000
M3 S700
G4 P0.060
(fill-infill path 13, 16 points)
G1 X-8.7480 Y-0.1901 F1200.000
G1 X-9.1999 Y-0.5743 F1200.000
G1 X-9.4587 Y-0.9408 F1200.000
G1 X-9.6721 Y-1.5093 F1200.000
G1 X-9.7137 Y-1.9128 F1200.000
G1 X-9.7137 Y-9.0477 F1200.000
G1 X-9.8183 Y-9.0474 F1200.000
G1 X-9.8183 Y9.0578 F1200.000
G1 X-9.7137 Y9.0578 F1200.000
G1 X-9.7137 Y1.9796 F1200.000
G1 X-9.6689 Y1.5608 F1200.000
G1 X-9.4469 Y0.9827 F1200.000
G1 X-9.1282 Y0.5625 F1200.000
G1 X-8.7864 Y0.2776 F1200.000
G1 X-8.2637 Y0.0238 F1200.000
M3 S575
G4 P0.030
(Travel to fill-infill path 14)
G1 X-9.1604 Y0.0349 F3000.000
M3 S700
G4 P0.060
(fill-infill path 14, 4 points)
G1 X-9.3983 Y-0.1755 F1200.000
G1 X-9.3983 Y0.2409 F1200.000
G1 X-9.1604 Y0.0349 F1200.000
M3 S575
G4 P0.030
(Travel to outline path 15)
G1 X-11.4983 Y-10.7327 F3000.000
M3 S700
G4 P0.060
(outline path 15, 31 points)
G1 X-11.4983 Y10.7378 F1200.000
G1 X-8.0337 Y10.7378 F1200.000
G1 X-8.0337 Y1.9796 F1200.000
G1 X-7.9368 Y1.7470 F1200.000
G1 X-7.7289 Y1.6180 F1200.000
G1 X-1.8167 Y0.6044 F1200.000
G1 X-1.6732 Y0.6402 F1200.000
G1 X-1.5410 Y0.7438 F1200.000
G1 X-1.4207 Y1.0212 F1200.000
G1 X1.0570 Y10.7327 F1200.000
G1 X7.6475 Y10.7327 F1200.000
G1 X13.1365 Y-10.7280 F1200.000
G1 X9.5844 Y-10.7324 F1200.000
G1 X8.0827 Y-4.5577 F1200.000
G1 X7.9008 Y-4.3118 F1200.000
G1 X7.6249 Y-4.2241 F1200.000
G1 X1.2603 Y-3.1275 F1200.000
G1 X1.0197 Y-3.2283 F1200.000
G1 X0.8998 Y-3.4273 F1200.000
G1 X-0.8779 Y-10.7327 F1200.000
G1 X-4.4321 Y-10.7327 F1200.000
G1 X-2.4421 Y-2.9636 F1200.000
G1 X-2.4267 Y-2.6848 F1200.000
G1 X-2.5522 Y-2.5043 F1200.000
G1 X-2.7757 Y-2.4153 F1200.000
G1 X-7.6641 Y-1.5655 F1200.000
G1 X-7.9116 Y-1.6553 F1200.000
G1 X-8.0337 Y-1.9128 F1200.000
G1 X-8.0337 Y-10.7327 F1200.000
G1 X-11.4983 Y-10.7327 F1200.000
M3 S575
G4 P0.030
(Travel to outline path 16)
G1 X1.8120 Y0.3037 F3000.000
M3 S700
G4 P0.060
(outline path 16, 15 points)
G1 X1.8461 Y0.1110 F1200.000
G1 X1.9689 Y-0.0327 F1200.000
G1 X2.4247 Y-0.1495 F1200.000
G1 X6.7189 Y-0.8950 F1200.000
G1 X6.9437 Y-0.8364 F1200.000
G1 X7.0876 Y-0.6417 F1200.000
G1 X7.0747 Y-0.4022 F1200.000
G1 X4.9372 Y8.4140 F1200.000
G1 X4.8547 Y8.5635 F1200.000
G1 X4.6683 Y8.6986 F1200.000
G1 X4.0463 Y8.6996 F1200.000
G1 X3.8571 Y8.5644 F1200.000
G1 X3.7796 Y8.4399 F1200.000
G1 X1.8120 Y0.3037 F1200.000
M3 S575
G4 P0.030
(Return to zero with pen up)
G1 X0.0000 Y0.0000 F3000.000
M3 S575
G4 P0.030