(Generated for golf ball plotter)
(Units are angular degrees. X=-180..180 ball rotation, Y=-45..45 arm tilt)
$X
G21
G90
M3 S575
G4 P0.030
M3 S700
G4 P0.060
(fill-infill path 1, 16 points)
G1 X0.1651 Y-0.5370 F1200.000
G1 X0.3440 Y-0.8836 F1200.000
G1 X0.7784 Y-1.3850 F1200.000
G1 X0.4283 Y-1.4971 F1200.000
G1 X0.0032 Y-1.7408 F1200.000
G1 X-0.3072 Y-2.0096 F1200.000
G1 X-0.6378 Y-2.4724 F1200.000
G1 X-0.7037 Y-2.1639 F1200.000
G1 X-0.8603 Y-1.7846 F1200.000
G1 X-1.0877 Y-1.4429 F1200.000
G1 X-1.3726 Y-1.1468 F1200.000
G1 X-1.0100 Y-1.0351 F1200.000
G1 X-0.6419 Y-0.8372 F1200.000
G1 X-0.2640 Y-0.5247 F1200.000
G1 X0.0469 Y-0.1204 F1200.000
M3 S575
G4 P0.030
(Travel to junction-centerline path 2)
G1 X0.1060 Y0.1641 F3000.000
M3 S700
G4 P0.060
(junction-centerline path 2, 2 points)
G1 X0.5635 Y2.3525 F1200.000
M3 S575
G4 P0.030
(Travel to fill-infill path 3)
G1 X0.5253 Y0.7642 F3000.000
M3 S700
G4 P0.060
(fill-infill path 3, 69 points)
G1 X0.4621 Y0.2884 F1200.000
G1 X0.5317 Y-0.2239 F1200.000
G1 X0.7230 Y-0.6410 F1200.000
G1 X0.9476 Y-0.9269 F1200.000
G1 X1.3429 Y-1.2309 F1200.000
G1 X1.6494 Y-1.3614 F1200.000
G1 X6.4716 Y-2.2238 F1200.000
G1 X6.7762 Y-2.2454 F1200.000
G1 X7.4216 Y-2.1064 F1200.000
G1 X7.7044 Y-1.9516 F1200.000
G1 X7.9518 Y-1.7448 F1200.000
G1 X8.1797 Y-1.4619 F1200.000
G1 X8.3301 Y-1.1740 F1200.000
G1 X8.4212 Y-0.8623 F1200.000
G1 X8.4495 Y-0.5388 F1200.000
G1 X8.3902 Y-0.0991 F1200.000
G1 X6.2559 Y8.7031 F1200.000
G1 X6.1587 Y9.0046 F1200.000
G1 X5.9293 Y9.3827 F1200.000
G1 X6.5988 Y9.3827 F1200.000
G1 X11.3968 Y-9.3802 F1200.000
G1 X10.6480 Y-9.3811 F1200.000
G1 X9.3584 Y-4.1104 F1200.000
G1 X9.1361 Y-3.6681 F1200.000
G1 X8.7523 Y-3.2620 F1200.000
G1 X8.3351 Y-3.0263 F1200.000
G1 X7.9140 Y-2.9054 F1200.000
G1 X1.2839 Y-1.7777 F1200.000
G1 X0.7688 Y-1.8508 F1200.000
G1 X0.4493 Y-1.9876 F1200.000
G1 X0.0192 Y-2.3193 F1200.000
G1 X-0.2584 Y-2.7146 F1200.000
G1 X-0.4443 Y-3.2391 F1200.000
G1 X-1.9385 Y-9.3827 F1200.000
G1 X-2.6926 Y-9.3827 F1200.000
G1 X-1.0911 Y-3.1124 F1200.000
G1 X-1.0954 Y-2.4507 F1200.000
G1 X-1.2575 Y-1.9961 F1200.000
G1 X-1.4361 Y-1.7277 F1200.000
G1 X-1.6915 Y-1.4643 F1200.000
G1 X-1.9568 Y-1.2850 F1200.000
G1 X-2.2517 Y-1.1604 F1200.000
G1 X-7.6227 Y-0.2161 F1200.000
G1 X-7.9341 Y-0.2361 F1200.000
G1 X-8.2776 Y-0.3260 F1200.000
G1 X-8.7104 Y-0.5647 F1200.000
G1 X-9.0806 Y-0.9598 F1200.000
G1 X-9.3061 Y-1.4128 F1200.000
G1 X-9.3837 Y-1.9128 F1200.000
G1 X-9.3837 Y-9.3827 F1200.000
G1 X-10.1483 Y-9.3827 F1200.000
G1 X-10.1483 Y9.3878 F1200.000
G1 X-9.3837 Y9.3878 F1200.000
G1 X-9.3837 Y1.9796 F1200.000
G1 X-9.3000 Y1.4610 F1200.000
G1 X-8.9930 Y0.9039 F1200.000
G1 X-8.4604 Y0.4643 F1200.000
G1 X-8.0002 Y0.2955 F1200.000
G1 X-1.8238 Y-0.7456 F1200.000
G1 X-1.3373 Y-0.6749 F1200.000
G1 X-0.8933 Y-0.4640 F1200.000
G1 X-0.4769 Y-0.0897 F1200.000
G1 X-0.2323 Y0.3172 F1200.000
G1 X2.1063 Y9.3827 F1200.000
G1 X2.7818 Y9.3827 F1200.000
G1 X2.5513 Y9.0042 F1200.000
G1 X2.4520 Y8.6944 F1200.000
G1 X0.5253 Y0.7642 F1200.000
M3 S575
G4 P0.030
(Travel to fill-infill path 4)
G1 X0.9638 Y0.6632 F3000.000
M3 S700
G4 P0.060
(fill-infill path 4, 24 points)
G1 X0.9121 Y0.2935 F1200.000
G1 X0.9629 Y-0.0950 F1200.000
G1 X1.1934 Y-0.5240 F1200.000
G1 X1.5602 Y-0.8368 F1200.000
G1 X2.0023 Y-0.9869 F1200.000
G1 X6.7664 Y-1.7955 F1200.000
G1 X7.1351 Y-1.7331 F1200.000
G1 X7.4509 Y-1.5799 F1200.000
G1 X7.7337 Y-1.3109 F1200.000
G1 X7.9127 Y-1.0059 F1200.000
G1 X7.9951 Y-0.6621 F1200.000
G1 X7.9517 Y-0.2001 F1200.000
G1 X5.7863 Y8.7181 F1200.000
G1 X5.6948 Y8.9296 F1200.000
G1 X5.4864 Y9.2046 F1200.000
G1 X5.0376 Y9.5214 F1200.000
G1 X4.5833 Y9.6113 F1200.000
G1 X3.7917 Y9.5629 F1200.000
G1 X3.4787 Y9.4190 F1200.000
G1 X3.2984 Y9.2759 F1200.000
G1 X3.0792 Y9.0322 F1200.000
G1 X2.9642 Y8.8254 F1200.000
G1 X0.9638 Y0.6632 F1200.000
M3 S575
G4 P0.030
(Travel to fill-infill path 5)
G1 X1.3620 Y0.2986 F3000.000
M3 S700
G4 P0.060
(fill-infill path 5, 20 points)
G1 X1.4171 Y-0.0320 F1200.000
G1 X1.5978 Y-0.3046 F1200.000
G1 X1.8456 Y-0.4759 F1200.000
G1 X2.0987 Y-0.5473 F1200.000
G1 X6.6871 Y-1.3439 F1200.000
G1 X6.9999 Y-1.3039 F1200.000
G1 X7.1973 Y-1.2081 F1200.000
G1 X7.3834 Y-1.0284 F1200.000
G1 X7.4953 Y-0.8378 F1200.000
G1 X7.5496 Y-0.5490 F1200.000
G1 X7.5132 Y-0.3012 F1200.000
G1 X5.3768 Y8.5104 F1200.000
G1 X5.2194 Y8.8310 F1200.000
G1 X4.8667 Y9.1051 F1200.000
G1 X4.5827 Y9.1613 F1200.000
G1 X3.9190 Y9.1313 F1200.000
G1 X3.6107 Y8.9519 F1200.000
G1 X3.3771 Y8.6465 F1200.000
G1 X1.3620 Y0.2986 F1200.000
M3 S575
G4 P0.030
(Travel to fill-infill path 6)
G1 X-0.1112 Y-0.9940 F3000.000
M3 S700
G4 P0.060
(fill-infill path 6, 5 points)
G1 X0.0165 Y-1.1989 F1200.000
G1 X-0.4769 Y-1.5500 F1200.000
G1 X-0.6050 Y-1.3399 F1200.000
G1 X-0.1112 Y-0.9940 F1200.000
M3 S575
G4 P0.030
(Travel to fill-infill path 7)
G1 X-1.1447 Y-0.0908 F3000.000
M3 S700
G4 P0.060
(fill-infill path 7, 42 points)
G1 X-0.8252 Y0.1953 F1200.000
G1 X-0.6078 Y0.5997 F1200.000
G1 X1.7607 Y9.8327 F1200.000
G1 X6.9493 Y9.8327 F1200.000
G1 X11.9776 Y-9.8294 F1200.000
G1 X10.2924 Y-9.8315 F1200.000
G1 X8.9305 Y-4.2498 F1200.000
G1 X8.7689 Y-3.9281 F1200.000
G1 X8.4765 Y-3.6175 F1200.000
G1 X8.1730 Y-3.4461 F1200.000
G1 X7.8176 Y-3.3450 F1200.000
G1 X1.2761 Y-2.2277 F1200.000
G1 X0.9014 Y-2.2808 F1200.000
G1 X0.5620 Y-2.4479 F1200.000
G1 X0.2690 Y-2.7181 F1200.000
G1 X0.0711 Y-3.0720 F1200.000
G1 X-1.5879 Y-9.8327 F1200.000
G1 X-3.2684 Y-9.8327 F1200.000
G1 X-1.5336 Y-3.0310 F1200.000
G1 X-1.5196 Y-2.6544 F1200.000
G1 X-1.6547 Y-2.2076 F1200.000
G1 X-1.8142 Y-1.9761 F1200.000
G1 X-2.0717 Y-1.7411 F1200.000
G1 X-2.5830 Y-1.5362 F1200.000
G1 X-7.6365 Y-0.6659 F1200.000
G1 X-8.1217 Y-0.7481 F1200.000
G1 X-8.5281 Y-0.9996 F1200.000
G1 X-8.7791 Y-1.3237 F1200.000
G1 X-8.9274 Y-1.7899 F1200.000
G1 X-8.9337 Y-9.8327 F1200.000
G1 X-10.5983 Y-9.8327 F1200.000
G1 X-10.5983 Y9.8378 F1200.000
G1 X-8.9337 Y9.8378 F1200.000
G1 X-8.9337 Y1.9796 F1200.000
G1 X-8.8728 Y1.6024 F1200.000
G1 X-8.6469 Y1.1915 F1200.000
G1 X-8.3461 Y0.9214 F1200.000
G1 X-7.9098 Y0.7363 F1200.000
G1 X-1.8214 Y-0.2956 F1200.000
G1 X-1.4677 Y-0.2442 F1200.000
G1 X-1.1447 Y-0.0908 F1200.000
M3 S575
G4 P0.030
(Travel to fill-infill path 8)
G1 X-1.3961 Y0.2824 F3000.000
M3 S700
G4 P0.060
(fill-infill path 8, 40 points)
G1 X-1.1734 Y0.4803 F1200.000
G1 X-1.0376 Y0.7330 F1200.000
G1 X1.4102 Y10.2827 F1200.000
G1 X7.2958 Y10.2827 F1200.000
G1 X12.5595 Y-10.2787 F1200.000
G1 X9.9411 Y-10.2820 F1200.000
G1 X8.5026 Y-4.3892 F1200.000
G1 X8.3551 Y-4.1290 F1200.000
G1 X8.1409 Y-3.9312 F1200.000
G1 X7.7213 Y-3.7846 F1200.000
G1 X1.2682 Y-2.6776 F1200.000
G1 X1.0341 Y-2.7108 F1200.000
G1 X0.7829 Y-2.8428 F1200.000
G1 X0.5820 Y-3.0546 F1200.000
G1 X0.4679 Y-3.3009 F1200.000
G1 X-1.2308 Y-10.2827 F1200.000
G1 X-3.8501 Y-10.2827 F1200.000
G1 X-1.9916 Y-3.0161 F1200.000
G1 X-1.9675 Y-2.6984 F1200.000
G1 X-2.0206 Y-2.4855 F1200.000
G1 X-2.2653 Y-2.1576 F1200.000
G1 X-2.6793 Y-1.9758 F1200.000
G1 X-7.6503 Y-1.1157 F1200.000
G1 X-7.9659 Y-1.1703 F1200.000
G1 X-8.2198 Y-1.3274 F1200.000
G1 X-8.3871 Y-1.5446 F1200.000
G1 X-8.4797 Y-1.8360 F1200.000
G1 X-8.4837 Y-10.2827 F1200.000
G1 X-11.0483 Y-10.2827 F1200.000
G1 X-11.0483 Y10.2878 F1200.000
G1 X-8.4837 Y10.2878 F1200.000
G1 X-8.4837 Y1.9796 F1200.000
G1 X-8.4165 Y1.6695 F1200.000
G1 X-8.2560 Y1.4297 F1200.000
G1 X-8.0285 Y1.2539 F1200.000
G1 X-7.8193 Y1.1772 F1200.000
G1 X-1.8191 Y0.1544 F1200.000
G1 X-1.5980 Y0.1865 F1200.000
G1 X-1.3961 Y0.2824 F1200.000
M3 S575
G4 P0.030
(Travel to fill-infill path 9)
G1 X-8.5918 Y0.0285 F3000.000
M3 S700
G4 P0.060
(fill-infill path 9, 10 points)
G1 X-8.9843 Y-0.2076 F1200.000
G1 X-9.2904 Y-0.4955 F1200.000
G1 X-9.5632 Y-0.8819 F1200.000
G1 X-9.6983 Y-1.1790 F1200.000
G1 X-9.6983 Y1.2457 F1200.000
G1 X-9.5513 Y0.9235 F1200.000
G1 X-9.3391 Y0.6162 F1200.000
G1 X-9.0203 Y0.3047 F1200.000
G1 X-8.5918 Y0.0285 F1200.000
M3 S575
G4 P0.030
(Travel to fill-infill path 10)
G1 X7.7858 Y-2.4289 F3000.000
M3 S700
G4 P0.060
(fill-infill path 10, 9 points)
G1 X8.1218 Y-2.1995 F1200.000
G1 X8.4343 Y-1.8758 F1200.000
G1 X8.6609 Y-1.5301 F1200.000
G1 X8.8216 Y-1.1204 F1200.000
G1 X9.3583 Y-3.2253 F1200.000
G1 X8.8612 Y-2.7894 F1200.000
G1 X8.4057 Y-2.5762 F1200.000
G1 X7.7858 Y-2.4289 F1200.000
M3 S575
G4 P0.030
(Travel to outline path 11)
G1 X-11.4983 Y-10.7327 F3000.000
M3 S700
G4 P0.060
(outline path 11, 31 points)
G1 X-11.4983 Y10.7378 F1200.000
G1 X-8.0337 Y10.7378 F1200.000
G1 X-8.0337 Y1.9796 F1200.000
G1 X-7.9368 Y1.7470 F1200.000
G1 X-7.7289 Y1.6180 F1200.000
G1 X-1.8167 Y0.6044 F1200.000
G1 X-1.6732 Y0.6402 F1200.000
G1 X-1.5410 Y0.7438 F1200.000
G1 X-1.4207 Y1.0212 F1200.000
G1 X1.0570 Y10.7327 F1200.000
G1 X7.6475 Y10.7327 F1200.000
G1 X13.1365 Y-10.7280 F1200.000
G1 X9.5844 Y-10.7324 F1200.000
G1 X8.0827 Y-4.5577 F1200.000
G1 X7.9008 Y-4.3118 F1200.000
G1 X7.6249 Y-4.2241 F1200.000
G1 X1.2603 Y-3.1275 F1200.000
G1 X1.0197 Y-3.2283 F1200.000
G1 X0.8998 Y-3.4273 F1200.000
G1 X-0.8779 Y-10.7327 F1200.000
G1 X-4.4321 Y-10.7327 F1200.000
G1 X-2.4421 Y-2.9636 F1200.000
G1 X-2.4267 Y-2.6848 F1200.000
G1 X-2.5522 Y-2.5043 F1200.000
G1 X-2.7757 Y-2.4153 F1200.000
G1 X-7.6641 Y-1.5655 F1200.000
G1 X-7.9116 Y-1.6553 F1200.000
G1 X-8.0337 Y-1.9128 F1200.000
G1 X-8.0337 Y-10.7327 F1200.000
G1 X-11.4983 Y-10.7327 F1200.000
M3 S575
G4 P0.030
(Travel to outline path 12)
G1 X1.8120 Y0.3037 F3000.000
M3 S700
G4 P0.060
(outline path 12, 15 points)
G1 X1.8461 Y0.1110 F1200.000
G1 X1.9689 Y-0.0327 F1200.000
G1 X2.4247 Y-0.1495 F1200.000
G1 X6.7189 Y-0.8950 F1200.000
G1 X6.9437 Y-0.8364 F1200.000
G1 X7.0876 Y-0.6417 F1200.000
G1 X7.0747 Y-0.4022 F1200.000
G1 X4.9372 Y8.4140 F1200.000
G1 X4.8547 Y8.5635 F1200.000
G1 X4.6683 Y8.6986 F1200.000
G1 X4.0463 Y8.6996 F1200.000
G1 X3.8571 Y8.5644 F1200.000
G1 X3.7796 Y8.4399 F1200.000
G1 X1.8120 Y0.3037 F1200.000
M3 S575
G4 P0.030
(Return to zero with pen up)
G1 X0.0000 Y0.0000 F3000.000
M3 S575
G4 P0.030