(Generated for golf ball plotter)
(Units are angular degrees. X=-180..180 ball rotation, Y=-45..45 arm tilt)
$X
G21
G90
M3 S575
G4 P0.030
M3 S700
G4 P0.060
(coverage_offset_line path 1, 2 points)
G1 X-0.7370 Y0.0000 F1200.000
M3 S575
G4 P0.030
(Travel to outline_cleanup path 2)
G1 X5.4309 Y0.1228 F3000.000
M3 S700
G4 P0.060
(outline_cleanup path 2, 6 points)
G1 X5.1729 Y-0.1372 F1200.000
G1 X5.0497 Y-0.3682 F1200.000
G1 X5.2135 Y0.2367 F1200.000
G1 X5.2884 Y0.3029 F1200.000
G1 X5.4309 Y0.1228 F1200.000
M3 S575
G4 P0.030
(Travel to outline_cleanup path 3)
G1 X6.2042 Y0.2800 F3000.000
M3 S700
G4 P0.060
(outline_cleanup path 3, 5 points)
G1 X6.4150 Y0.3551 F1200.000
G1 X6.3465 Y0.0884 F1200.000
G1 X6.2918 Y0.1903 F1200.000
G1 X6.2042 Y0.2800 F1200.000
M3 S575
G4 P0.030
(Travel to outline_cleanup path 4)
G1 X6.0899 Y-0.8550 F3000.000
M3 S700
G4 P0.060
(outline_cleanup path 4, 6 points)
G1 X6.1380 Y-0.9856 F1200.000
G1 X6.2365 Y-1.0921 F1200.000
G1 X6.1091 Y-1.0921 F1200.000
G1 X6.0331 Y-0.9417 F1200.000
G1 X6.0899 Y-0.8550 F1200.000
M3 S575
G4 P0.030
(Travel to outline_cleanup path 5)
G1 X4.9417 Y-0.7236 F3000.000
M3 S700
G4 P0.060
(outline_cleanup path 5, 5 points)
G1 X4.9410 Y-1.0154 F1200.000
G1 X4.8916 Y-1.0291 F1200.000
G1 X4.7645 Y-0.9008 F1200.000
G1 X4.9417 Y-0.7236 F1200.000
M3 S575
G4 P0.030
(Travel to outline_cleanup path 6)
G1 X3.9840 Y-1.0507 F3000.000
M3 S700
G4 P0.060
(outline_cleanup path 6, 6 points)
G1 X3.8702 Y-1.0921 F1200.000
G1 X3.6180 Y-0.8189 F1200.000
G1 X3.7945 Y-0.6145 F1200.000
G1 X3.8174 Y-0.8518 F1200.000
G1 X3.9840 Y-1.0507 F1200.000
M3 S575
G4 P0.030
(Travel to outline_cleanup path 7)
G1 X2.2643 Y-0.9398 F3000.000
M3 S700
G4 P0.060
(outline_cleanup path 7, 5 points)
G1 X2.1027 Y-0.7776 F1200.000
G1 X2.1796 Y-0.6193 F1200.000
G1 X2.2386 Y-0.5326 F1200.000
G1 X2.2643 Y-0.9398 F1200.000
M3 S575
G4 P0.030
(Travel to outline_cleanup path 8)
G1 X2.3216 Y-0.0390 F3000.000
M3 S700
G4 P0.060
(outline_cleanup path 8, 6 points)
G1 X2.3473 Y0.2039 F1200.000
G1 X2.5112 Y0.7773 F1200.000
G1 X2.7562 Y0.5065 F1200.000
G1 X2.5701 Y0.2101 F1200.000
G1 X2.3216 Y-0.0390 F1200.000
M3 S575
G4 P0.030
(Travel to outline_cleanup path 9)
G1 X1.1740 Y-0.0401 F3000.000
M3 S700
G4 P0.060
(outline_cleanup path 9, 5 points)
G1 X1.1189 Y-0.1226 F1200.000
G1 X1.1189 Y-0.0089 F1200.000
G1 X1.1740 Y0.0737 F1200.000
G1 X1.1740 Y-0.0401 F1200.000
M3 S575
G4 P0.030
(Travel to outline_cleanup path 10)
G1 X0.1095 Y-0.4507 F3000.000
M3 S700
G4 P0.060
(outline_cleanup path 10, 5 points)
G1 X0.1351 Y-0.9398 F1200.000
G1 X-0.0265 Y-0.7776 F1200.000
G1 X0.0543 Y-0.5331 F1200.000
G1 X0.1095 Y-0.4507 F1200.000
M3 S575
G4 P0.030
(Travel to outline_cleanup path 11)
G1 X-0.9946 Y-1.0675 F3000.000
M3 S700
G4 P0.060
(outline_cleanup path 11, 5 points)
G1 X-1.0244 Y-1.0921 F1200.000
G1 X-1.1740 Y-1.0921 F1200.000
G1 X-1.1739 Y-0.8605 F1200.000
G1 X-0.9946 Y-1.0675 F1200.000
M3 S575
G4 P0.030
(Travel to outline_cleanup path 12)
G1 X-1.4606 Y0.0537 F3000.000
M3 S700
G4 P0.060
(outline_cleanup path 12, 4 points)
G1 X-1.5981 Y0.0719 F1200.000
G1 X-1.5835 Y0.2045 F1200.000
G1 X-1.4606 Y0.0537 F1200.000
M3 S575
G4 P0.030
(Travel to outline_cleanup path 13)
G1 X-2.9767 Y-0.5343 F3000.000
M3 S700
G4 P0.060
(outline_cleanup path 13, 7 points)
G1 X-2.9895 Y-0.8241 F1200.000
G1 X-2.7962 Y-1.0675 F1200.000
G1 X-2.8858 Y-1.0921 F1200.000
G1 X-3.1055 Y-0.8174 F1200.000
G1 X-3.0134 Y-0.5715 F1200.000
G1 X-2.9767 Y-0.5343 F1200.000
M3 S575
G4 P0.030
(Travel to outline_cleanup path 14)
G1 X-4.0818 Y-1.0921 F3000.000
M3 S700
G4 P0.060
(outline_cleanup path 14, 4 points)
G1 X-4.2080 Y-1.0183 F1200.000
G1 X-4.2248 Y-0.9491 F1200.000
G1 X-4.0818 Y-1.0921 F1200.000
M3 S575
G4 P0.030
(Travel to outline_cleanup path 15)
G1 X-4.2870 Y-0.8579 F3000.000
M3 S700
G4 P0.060
(outline_cleanup path 15, 5 points)
G1 X-4.2919 Y-0.8524 F1200.000
G1 X-4.3667 Y-0.7776 F1200.000
G1 X-4.3127 Y-0.6963 F1200.000
G1 X-4.2870 Y-0.8579 F1200.000
M3 S575
G4 P0.030
(Travel to outline_cleanup path 16)
G1 X-6.3741 Y-1.0109 F3000.000
M3 S700
G4 P0.060
(outline_cleanup path 16, 10 points)
G1 X-6.5868 Y-0.9323 F1200.000
G1 X-6.7804 Y-0.7387 F1200.000
G1 X-6.9064 Y-0.4496 F1200.000
G1 X-6.9064 Y0.3677 F1200.000
G1 X-6.7518 Y0.7552 F1200.000
G1 X-6.8498 Y0.3570 F1200.000
G1 X-6.8455 Y-0.2223 F1200.000
G1 X-6.6521 Y-0.7147 F1200.000
G1 X-6.3741 Y-1.0109 F1200.000
M3 S575
G4 P0.030
(Travel to outline_cleanup path 17)
G1 X7.9032 Y-0.1913 F3000.000
M3 S700
G4 P0.060
(outline_cleanup path 17, 5 points)
G1 X8.1489 Y-0.0543 F1200.000
G1 X20.0089 Y-0.0543 F1200.000
G1 X20.0089 Y-0.1913 F1200.000
G1 X7.9032 Y-0.1913 F1200.000
M3 S575
G4 P0.030
(Travel to coverage_centerline path 18)
G1 X-20.1046 Y-0.1228 F3000.000
M3 S700
G4 P0.060
(coverage_centerline path 18, 2 points)
G1 X-8.1477 Y-0.1228 F1200.000
M3 S575
G4 P0.030
(Travel to outline_cleanup path 19)
G1 X-7.9977 Y-0.1913 F3000.000
M3 S700
G4 P0.060
(outline_cleanup path 19, 5 points)
G1 X-20.2546 Y-0.1913 F1200.000
G1 X-20.2546 Y-0.0543 F1200.000
G1 X-7.9977 Y-0.0543 F1200.000
G1 X-7.9977 Y-0.1913 F1200.000
M3 S575
G4 P0.030
(Travel to coverage_centerline path 20)
G1 X4.1112 Y1.3104 F3000.000
M3 S700
G4 P0.060
(coverage_centerline path 20, 2 points)
G1 X4.4359 Y1.3104 F1200.000
M3 S575
G4 P0.030
(Travel to coverage_centerline path 21)
G1 X-5.6930 Y0.5732 F3000.000
M3 S700
G4 P0.060
(coverage_centerline path 21, 2 points)
G1 X-5.1985 Y0.5732 F1200.000
M3 S575
G4 P0.030
(Travel to coverage_centerline path 22)
G1 X-5.8568 Y1.8835 F3000.000
M3 S700
G4 P0.060
(coverage_centerline path 22, 2 points)
G1 X-5.1985 Y1.8835 F1200.000
M3 S575
G4 P0.030
(Travel to coverage_centerline path 23)
G1 X-4.4221 Y-0.2047 F3000.000
M3 S700
G4 P0.060
(coverage_centerline path 23, 25 points)
G1 X-4.3402 Y-0.1228 F1200.000
G1 X-4.2583 Y-0.1228 F1200.000
G1 X-4.1764 Y-0.0819 F1200.000
G1 X-4.0945 Y-0.0819 F1200.000
G1 X-4.0127 Y-0.0819 F1200.000
G1 X-3.9308 Y-0.0000 F1200.000
G1 X-3.8489 Y0.1638 F1200.000
G1 X-3.7670 Y0.2866 F1200.000
G1 X-3.6851 Y0.4095 F1200.000
G1 X-3.6032 Y0.4913 F1200.000
G1 X-3.5213 Y0.5323 F1200.000
G1 X-3.4394 Y0.5732 F1200.000
G1 X-3.3575 Y0.5732 F1200.000
G1 X-3.2756 Y0.5732 F1200.000
G1 X-3.1937 Y0.2047 F1200.000
G1 X-3.1119 Y0.2047 F1200.000
G1 X-3.0300 Y0.2047 F1200.000
G1 X-2.9481 Y0.1638 F1200.000
G1 X-2.8662 Y0.1228 F1200.000
G1 X-2.7843 Y0.1228 F1200.000
G1 X-2.7024 Y0.1228 F1200.000
G1 X-2.6205 Y0.0409 F1200.000
G1 X-2.5386 Y0.2047 F1200.000
G1 X-2.4567 Y0.3685 F1200.000
M3 S575
G4 P0.030
(Travel to coverage_centerline path 24)
G1 X2.8920 Y0.9067 F3000.000
M3 S700
G4 P0.060
(coverage_centerline path 24, 2 points)
G1 X3.0693 Y1.8133 F1200.000
M3 S575
G4 P0.030
(Travel to coverage_centerline path 25)
G1 X2.8662 Y1.5985 F3000.000
M3 S700
G4 P0.060
(coverage_centerline path 25, 2 points)
G1 X2.8662 Y1.2677 F1200.000
M3 S575
G4 P0.030
(Travel to coverage_centerline path 26)
G1 X0.3539 Y-1.2597 F3000.000
M3 S700
G4 P0.060
(coverage_centerline path 26, 2 points)
G1 X1.2875 Y-0.7118 F1200.000
M3 S575
G4 P0.030
(Travel to coverage_centerline path 27)
G1 X0.1025 Y0.0381 F3000.000
M3 S700
G4 P0.060
(coverage_centerline path 27, 2 points)
G1 X1.1184 Y0.5013 F1200.000
M3 S575
G4 P0.030
(Travel to coverage_centerline path 28)
G1 X3.8887 Y-0.1830 F3000.000
M3 S700
G4 P0.060
(coverage_centerline path 28, 2 points)
G1 X4.1660 Y0.4150 F1200.000
M3 S575
G4 P0.030
(Travel to coverage_centerline path 29)
G1 X-6.3482 Y-1.1465 F3000.000
M3 S700
G4 P0.060
(coverage_centerline path 29, 2 points)
G1 X-5.1985 Y-1.1465 F1200.000
M3 S575
G4 P0.030
(Travel to coverage_centerline path 30)
G1 X6.1418 Y-1.1874 F3000.000
M3 S700
G4 P0.060
(coverage_centerline path 30, 24 points)
G1 X6.2237 Y-1.0236 F1200.000
G1 X6.3056 Y-1.0236 F1200.000
G1 X6.3875 Y-0.9827 F1200.000
G1 X6.4694 Y-0.9008 F1200.000
G1 X6.5513 Y-0.8599 F1200.000
G1 X6.6332 Y-1.1055 F1200.000
G1 X6.7150 Y-1.0236 F1200.000
G1 X6.7969 Y-0.9417 F1200.000
G1 X6.8788 Y-0.8599 F1200.000
G1 X6.9607 Y-0.8189 F1200.000
G1 X7.0426 Y-0.7370 F1200.000
G1 X7.1245 Y-0.6142 F1200.000
G1 X7.2064 Y-0.5323 F1200.000
G1 X7.2883 Y-0.4504 F1200.000
G1 X7.3702 Y-0.3685 F1200.000
G1 X7.4521 Y-0.3276 F1200.000
G1 X7.5340 Y-0.2866 F1200.000
G1 X7.6158 Y-0.2457 F1200.000
G1 X7.6977 Y-0.2047 F1200.000
G1 X7.7796 Y-0.2047 F1200.000
G1 X7.8615 Y-0.1638 F1200.000
G1 X7.9434 Y-0.1638 F1200.000
G1 X8.0253 Y-0.1228 F1200.000
M3 S575
G4 P0.030
(Travel to coverage_centerline path 31)
G1 X-4.9135 Y1.6378 F3000.000
M3 S700
G4 P0.060
(coverage_centerline path 31, 4 points)
G1 X-4.8316 Y1.7197 F1200.000
G1 X-4.7497 Y1.6378 F1200.000
G1 X-4.6678 Y1.5969 F1200.000
M3 S575
G4 P0.030
(Travel to coverage_centerline path 32)
G1 X2.4567 Y1.4740 F3000.000
M3 S700
G4 P0.060
(coverage_centerline path 32, 6 points)
G1 X2.4567 Y1.3921 F1200.000
G1 X2.4158 Y1.3103 F1200.000
G1 X2.4158 Y1.2284 F1200.000
G1 X2.4567 Y1.1465 F1200.000
G1 X2.3339 Y1.0646 F1200.000
M3 S575
G4 P0.030
(Travel to coverage_centerline path 33)
G1 X-6.3056 Y0.9827 F3000.000
M3 S700
G4 P0.060
(coverage_centerline path 33, 3 points)
G1 X-6.3875 Y0.9008 F1200.000
G1 X-6.3875 Y0.8189 F1200.000
M3 S575
G4 P0.030
(Travel to coverage_centerline path 34)
G1 X-4.6437 Y0.8703 F3000.000
M3 S700
G4 P0.060
(coverage_centerline path 34, 2 points)
G1 X-4.9648 Y0.5491 F1200.000
M3 S575
G4 P0.030
(Travel to coverage_centerline path 35)
G1 X-1.7197 Y0.5323 F3000.000
M3 S700
G4 P0.060
(coverage_centerline path 35, 5 points)
G1 X-1.6378 Y0.5732 F1200.000
G1 X-1.5559 Y0.6142 F1200.000
G1 X-1.4740 Y0.5732 F1200.000
G1 X-1.3921 Y0.5732 F1200.000
M3 S575
G4 P0.030
(Travel to coverage_centerline path 36)
G1 X-0.9008 Y0.4095 F3000.000
M3 S700
G4 P0.060
(coverage_centerline path 36, 6 points)
G1 X-0.8189 Y0.4504 F1200.000
G1 X-0.7370 Y0.5323 F1200.000
G1 X-0.6551 Y0.4913 F1200.000
G1 X-0.5732 Y0.4913 F1200.000
G1 X-0.4913 Y0.5732 F1200.000
M3 S575
G4 P0.030
(Return to zero with pen up)
G1 X0.0000 Y0.0000 F3000.000
M3 S575
G4 P0.030
